/* XPM */
static char *dc0e840f079b4940f4035ae6276fc4e7DYPYujlicwqlr6Hc[] = {
/* columns rows colors chars-per-pixel */
"32 32 243 2 ",
"   c None",
".  c black",
"X  c #010000",
"o  c #000100",
"O  c #000001",
"+  c #010001",
"@  c #000101",
"#  c #010101",
"$  c #020002",
"%  c #020003",
"&  c #030003",
"*  c #040004",
"=  c #040104",
"-  c #050005",
";  c #050105",
":  c #060006",
">  c #060007",
",  c #070007",
"<  c #070107",
"1  c #090009",
"2  c #0A000A",
"3  c #0B000B",
"4  c #0D000D",
"5  c #0D010D",
"6  c #0D000E",
"7  c #0F000F",
"8  c #0F010F",
"9  c #100011",
"0  c #110011",
"q  c #110012",
"w  c #110013",
"e  c #130013",
"r  c #140015",
"t  c #150116",
"y  c #160116",
"u  c #170018",
"i  c #170019",
"p  c #19001A",
"a  c #1A001B",
"s  c #1B001B",
"d  c #1B001C",
"f  c #1C001D",
"g  c #1D001F",
"h  c #1D011F",
"j  c #1E0020",
"k  c #1F0020",
"l  c #1F0120",
"z  c #230023",
"x  c #230025",
"c  c #270128",
"v  c #280029",
"b  c #28002A",
"n  c #29002B",
"m  c #2A002C",
"M  c #2A012C",
"N  c #2E002F",
"B  c #2F0031",
"V  c #300032",
"C  c #310033",
"Z  c #330034",
"A  c #340036",
"S  c #350037",
"D  c #340137",
"F  c #38003B",
"G  c #39003B",
"H  c #3A003C",
"J  c #3D0040",
"K  c #3E0040",
"L  c #3E0041",
"P  c #400042",
"I  c #420045",
"U  c #430045",
"Y  c #430147",
"T  c #440047",
"R  c #460048",
"E  c #460049",
"W  c #48004B",
"Q  c #48014B",
"!  c #4C004F",
"~  c #4E0051",
"^  c #500053",
"/  c #530056",
"(  c #530156",
")  c #530057",
"_  c #540057",
"`  c #540058",
"'  c #550158",
"]  c #57005A",
"[  c #58005C",
"{  c #5A015D",
"}  c #5A005E",
"|  c #5B005E",
" . c #5C005F",
".. c #532F53",
"X. c #522B54",
"o. c #562A58",
"O. c #562F58",
"+. c #572C5B",
"@. c #5C2D5D",
"#. c #5A305A",
"$. c #5A325A",
"%. c #5E0061",
"&. c #5E0062",
"*. c #600064",
"=. c #630166",
"-. c #630067",
";. c #650168",
":. c #66006A",
">. c #69006D",
",. c #6A006E",
"<. c #6B006F",
"1. c #6B016F",
"2. c #6C0070",
"3. c #6E0073",
"4. c #700074",
"5. c #710174",
"6. c #720076",
"7. c #76007B",
"8. c #77017B",
"9. c #77007C",
"0. c #77007D",
"q. c #78017C",
"w. c #78007D",
"e. c #79007D",
"r. c #7A007F",
"t. c #662E68",
"y. c #6B2A6D",
"u. c #633163",
"i. c #6F2E72",
"p. c #732B79",
"a. c #752978",
"s. c #772A7A",
"d. c #7C2E7E",
"f. c #773078",
"g. c #7B0080",
"h. c #7C0080",
"j. c #7D0080",
"k. c #7C0081",
"l. c #7D0082",
"z. c #7E0083",
"x. c #7F0084",
"c. c #7F2F82",
"v. c #810184",
"b. c #800085",
"n. c #810086",
"m. c #830088",
"M. c #820089",
"N. c #840089",
"B. c #85008A",
"V. c #87008C",
"C. c #86018C",
"Z. c #88008D",
"A. c #88018D",
"S. c #89008E",
"D. c #89008F",
"F. c #8A008F",
"G. c #8A0190",
"H. c #8C0092",
"J. c #8D0092",
"K. c #8E0094",
"L. c #8F0194",
"P. c #8E0095",
"I. c #8F0195",
"U. c #900095",
"Y. c #900096",
"T. c #910096",
"R. c #910197",
"E. c #930097",
"W. c #920098",
"Q. c #930098",
"!. c #940099",
"~. c #950099",
"^. c #94009A",
"/. c #94019A",
"(. c #95009B",
"). c #96009B",
"_. c #96009C",
"`. c #97009C",
"'. c #97009D",
"]. c #97019D",
"[. c #98009E",
"{. c #99009F",
"}. c #99019F",
"|. c #9B019F",
" X c #9A179E",
".X c #941F98",
"XX c #971D9B",
"oX c #951E9A",
"OX c #971A9C",
"+X c #98199C",
"@X c #99189E",
"#X c #991A9F",
"$X c #981F9D",
"%X c #802C83",
"&X c #802E83",
"*X c #812F84",
"=X c #832D87",
"-X c #842F87",
";X c #852D88",
":X c #862D8A",
">X c #8A2A8D",
",X c #8C2A8F",
"<X c #892C8D",
"1X c #8D2A90",
"2X c #8F2A92",
"3X c #902394",
"4X c #912994",
"5X c #932098",
"6X c #9A269E",
"7X c #952999",
"8X c #942A99",
"9X c #962A9A",
"0X c #962A9B",
"qX c #9A00A0",
"wX c #9B00A0",
"eX c #9A01A0",
"rX c #9B01A0",
"tX c #9A00A1",
"yX c #9B00A1",
"uX c #9A01A1",
"iX c #9B01A1",
"pX c #9B02A0",
"aX c #9B02A1",
"sX c #9B03A1",
"dX c #9A04A1",
"fX c #9B05A1",
"gX c #9A08A0",
"hX c #9B08A1",
"jX c #9B09A1",
"kX c #9B0AA1",
"lX c #9B0BA1",
"zX c #9B0CA1",
"xX c #9B0DA1",
"cX c #9B10A0",
"vX c #9B11A0",
"bX c #9B10A1",
"nX c #9B11A1",
"mX c #9B12A0",
"MX c #9B12A1",
"NX c #9C17A1",
"BX c #9B18A0",
"VX c #9C1CA1",
"CX c #9C23A1",
/* pixels */
"                                                                ",
"                      p.7XNXgXrXdXmX6X&XO.                      ",
"                i.BXrXrXrXrXrXrXrXrXrXrXrXgX*X                  ",
"            u.mXrXrXrXrXrXrXrXrXrXrXrXrXrXrXrXdXc.              ",
"          >XrXrXrXrXrXrXrXrXrXrXrXrXrXrXrXrXrXrXrX#X            ",
"        .XrXrXrXrXrXrXrXrXrXrXrXrXrXrXrXrXrXrXrXrXrXxX          ",
"      5XrXrXrXrXrXrXrXrXrXrXrXrXrXrXrXrXrXrXrXrXrXrXrXxX        ",
"    :XrXrXrXrXrXrXrXrXrXrXrXrXrXrXrXrXrXrXrXrXrXrXrXrXrX X      ",
"  #.rXrXrXrXrXrXE.F.'./.M.b.l.l.l.l.l.L./.9.9.Q.rXrXrXrXrX:X    ",
"  #XrXrXrXrX=.h o o < G w.Y o o o V l.K < o o < A F.rXrXrXrX    ",
"@.rXrXrXrXK o o o o o o 6 x./ o B E.h o o 6 6 o o 6 N.rXrXrX<X  ",
"4XrXrXrX:.o < / H.[.g.n o p '.p N.P o p w.[.[.l.x o m rXrXrXgX  ",
"gXrXrXrXm o ,.M.} 5.b.'.d o 9.,.rX1 < V.F.w.:.&./.u o E.rXrXrXo.",
"rXrXrXrXy h rXG rXrXrX[.W o 3.L.[.< u rX[.rXrX` w.` o F.rXrXrXs.",
"rXrXrXrXZ N [.n rXrXrXrXn < E.~ [.V < V.rXrXrX^ ,.&.6 '.rXrXrX,X",
"rXrXrXrX7.9 /.G W F.N.K o } F.1 } V.9 y :.l.` k /.A _ rXrXrXrX7X",
"rXrXrXrXrX} Y /.! 9 < z 3.L.k o < ,.H.Y p p T L.=.Y rXrXrXrXrX7X",
"rXrXrXrXrXrX3.A w.[.rXE.=.9 o o o o H w./.Q.7.G / rXrXrXrXrXrX,X",
"rXrXrXrXrXrXrXl.9 < 6 o o o o o o o o o o o < =.rXrXrXrXrXrXrXs.",
"gXrXrXrXrXrXrXrXG.k o o o o o o o o o o o 1 5.rXrXrXrXrXrXrXrXX.",
"2XrXrXrXrXrXrXrXrX/.V o o o o o o o o o 9 x.rXrXrXrXrXrXrXrXgX  ",
"O.rXrXrXrXrXrXrXrXrX[.E o o o o o o o d F.rXrXrXrXrXrXrXrXrX:X  ",
"  .XrXrXrXrXrXrXrXrXrXrX .o o o o o c E.rXrXrXrXrXrXrXrXrXdX    ",
"  ..rXrXrXrXrXrXrXrXrXrXrX5.1 o o A '.rXrXrXrXrXrXrXrXrXrX&X    ",
"    *XrXrXrXrXrXrXrXrXrXrXrXb.y E [.rXrXrXrXrXrXrXrXrXrXOX      ",
"      3XrXrXrXrXrXrXrXrXrXrXrX/.rXrXrXrXrXrXrXrXrXrXrXmX        ",
"        3XrXrXrXrXrXrXrXrXrXrXrXrXrXrXrXrXrXrXrXrXrXmX          ",
"          -XrXrXrXrXrXrXrXrXrXrXrXrXrXrXrXrXrXrXrX.X            ",
"            #.#XrXrXrXrXrXrXrXrXrXrXrXrXrXrXrXgXf.              ",
"                t.$XrXrXrXrXrXrXrXrXrXrXrXmXd.                  ",
"                      y.2XCXmXxXmXVX7Xs.                        ",
"                                                                "
};
