/* XPM */
static char *_32e0b937d32462f8c633af940dce371tEtMCUfR50UDP9dx[] = {
/* columns rows colors chars-per-pixel */
"256 256 160 2 ",
"   c None",
".  c #000000",
"X  c #070008",
"o  c #0B000B",
"O  c #0F0010",
"+  c #130014",
"@  c #170018",
"#  c #1B001C",
"$  c #1F0020",
"%  c #230024",
"&  c #270028",
"*  c #2B002C",
"=  c #2E0030",
"-  c #330034",
";  c #370039",
":  c #3A003D",
">  c #3E0041",
",  c #420045",
"<  c #460049",
"1  c #4A004D",
"2  c #4E0051",
"3  c #520055",
"4  c #560059",
"5  c #5A005D",
"6  c #5E0061",
"7  c #620065",
"8  c #66006A",
"9  c #69006D",
"0  c #6E0072",
"q  c #710076",
"w  c #76007A",
"e  c #7A007E",
"r  c gray43",
"t  c #747474",
"y  c #7C7C7C",
"u  c #7D0082",
"i  c #810086",
"p  c #85008A",
"a  c #89008E",
"s  c #880B8D",
"d  c #841588",
"f  c #8D0092",
"g  c #910096",
"h  c #920D97",
"j  c #95009A",
"k  c #99009E",
"l  c #96099C",
"z  c #9A0C9F",
"x  c #8E1192",
"c  c #9B00A0",
"v  c #9B0BA0",
"b  c #9C13A0",
"n  c #9C1BA0",
"m  c #9C24A0",
"M  c #9C2BA0",
"N  c #9D33A1",
"B  c #9D3CA1",
"V  c #9D43A1",
"C  c #9E4CA1",
"Z  c #9E53A1",
"A  c #9E5BA1",
"S  c #9F63A1",
"D  c #9F6CA1",
"F  c #9F73A1",
"G  c #9F7BA1",
"H  c #9F78A1",
"J  c #9F7CA1",
"K  c #9F7AA1",
"L  c #A072A1",
"P  c #A073A1",
"I  c #A079A1",
"U  c #A17BA1",
"Y  c #A07CA1",
"T  c #A07DA1",
"R  c #A07FA1",
"E  c #A07CA1",
"W  c #808080",
"Q  c gray51",
"!  c #838383",
"~  c #858585",
"^  c gray53",
"/  c #868686",
"(  c #848484",
")  c #888888",
"_  c #898989",
"`  c gray54",
"'  c #8B8B8B",
"]  c #8D8D8D",
"[  c gray55",
"{  c #8F8F8F",
"}  c #8C8C8C",
"|  c #909090",
" . c gray57",
".. c #929292",
"X. c #939393",
"o. c #939494",
"O. c gray58",
"+. c #959595",
"@. c #949694",
"#. c #949696",
"$. c gray59",
"%. c #979797",
"&. c #949494",
"*. c #989898",
"=. c gray60",
"-. c #9A9A9A",
";. c #9B9B9B",
":. c gray61",
">. c #9D9D9D",
",. c gray62",
"<. c #9F9F9F",
"1. c #9C9C9C",
"2. c #A080A1",
"3. c #A081A1",
"4. c #A082A1",
"5. c #A083A1",
"6. c #A084A1",
"7. c #A085A1",
"8. c #A086A1",
"9. c #A087A1",
"0. c #A085A1",
"q. c #A088A1",
"w. c #A089A1",
"e. c #A08AA1",
"r. c #A08CA1",
"t. c #A08DA1",
"y. c #A08EA1",
"u. c #A08FA1",
"i. c #A08CA1",
"p. c #A090A1",
"a. c #A091A1",
"s. c #A092A1",
"d. c #A193A1",
"f. c #A094A1",
"g. c #A194A1",
"h. c #A195A1",
"j. c #A196A1",
"k. c #A197A1",
"l. c #A097A1",
"z. c #A094A1",
"x. c #A198A1",
"c. c #A199A1",
"v. c #A19AA1",
"b. c #A19BA1",
"n. c #A19AA0",
"m. c #A29AA2",
"M. c #A19CA1",
"N. c #A19DA1",
"B. c #A19EA1",
"V. c #A19FA1",
"C. c #A09FA0",
"Z. c #A19CA1",
"A. c #A0A0A0",
"S. c #A1A0A1",
"D. c gray63",
"F. c #A1A1A2",
"G. c #A2A1A2",
"H. c #A2A2A2",
"J. c #A1A1A1",
"K. c #AAAAAA",
/* pixels */
"                                                                                                                                                                                                                                                                                                                                                                                                                                                                                                                                ",
"                                                                                                                                                                                                                                                                                                                                                                                                                                                                                                                                ",
"                                                                                                                                                                                                                                                                                                                                                                                                                                                                                                                                ",
"                                                                                                                                                                                                                                                                                                                                                                                                                                                                                                                                ",
"                                                                                                                                                                                                                                                                                                                                                                                                                                                                                                                                ",
"                                                                                                                                                                                                                                                                                                                                                                                                                                                                                                                                ",
"                                                                                                                                                                                                                                              y y _ _ _ _ / / / / / / _ _ _ _ / y Q                                                                                                                                                                                                                                             ",
"                                                                                                                                                                                                                        :.=. .+. .=.S.S.S.S.S.S.M.v.k.s.u.e.e.e.e.e.e.u.s.k.v.M.S.S.S.S.S.S.:. .+. .=.S.                                                                                                                                                                                                                        ",
"                                                                                                                                                                                                            +.S.:.=.=.:.S.S.S.v.9.H S A C B N M m n n n n n n n n n n n n n n m m N B V A S F 2.k.S.S.S.S.=.=.:.S.S.                                                                                                                                                                                                            ",
"                                                                                                                                                                                                    ] S.S.S.S.S.S.M.2.S V M v c c c c c c c c c c c c c c c c c c c c c c c c c c c c c c c c c c v m B A I k.S.S.S.S.S.S.+.t                                                                                                                                                                                                   ",
"                                                                                                                                                                                            _ :.S.M.k.u.2.D C N n c c c c c c c c c c c c c c c c c c c c c c c c c c c c c c c c c c c c c c c c c c c c c c b M V S T e.s.v.S.S. .t                                                                                                                                                                                           ",
"                                                                                                                                                                                    _ +.S.M.s.H D Z B m v c c c c c c c c c c c c c c c c c c c c c c c c c c c c c c c c c c c c c c c c c c c c c c c c c c c c c c c n N C S H e.M.S.:._                                                                                                                                                                                     ",
"                                                                                                                                                                            :.+.=.S.M.2.S V M n v c c c c c c c c c c c c c c c c c c c c c c c c c c c c c c c c c c c c c c c c c c c c c c c c c c c c c c c c c c c c c c c b m B A I k.S.:.+.=.                                                                                                                                                                            ",
"                                                                                                                                                                      +.:.:.S.S.2.C m b v c c c c c c c c c c c c c c c c c c c c c c c c c c c c c c c c c c c c c c c c c c c c c c c c c c c c c c c c c c c c c c c c c c c c c c c v n V L M.S.:.:.S.                                                                                                                                                                      ",
"                                                                                                                                                                  :.S.M.v.2.C b c c c c c c c c c c c c c c c c c c c c c c c c c c c c c c c c c c c c c c c c c c c c c c c c c c c c c c c c c c c c c c c c c c c c c c c c c c c c c c c c v B H k.M.S.:.Q                                                                                                                                                                 ",
"                                                                                                                                                            _ S.M.u.T Z m c c c c c c c c c c c c c c c c c c c c c c c c c c c c c c c c c c c c c c c c c c c c c c c c c c c c c c c c c c c c c c c c c c c c c c c c c c c c c c c c c c c c c c n V H e.v.S. .                                                                                                                                                            ",
"                                                                                                                                                      +.+.S.v.H A M v c c c c c c c c c c c c c c c c c c c c c c c c c c c c c c c c c c c c c c c c c c c c c c c c c c c c c c c c c c c c c c c c c c c c c c c c c c c c c c c c c c c c c c c c c c c m C D s.S.:. .                                                                                                                                                      ",
"                                                                                                                                                  :.=.S.s.S N b c c c c c c c c c c c c c c c c c c c c c c c c c c c c c c c c c c c c c c c c c c c c c c c c c c c c c c c c c c c c c c c c c c c c c c c c c c c c c c c c c c c c c c c c c c c c c c c c b M Z 9.S.:.=.                                                                                                                                                  ",
"                                                                                                                                              =.:.S.s.Z b c c c c c c c c c c c c c c c c c c c c c c c c c c c c c c c c c c c c c c c c c c c c c c c c c c c c c c c c c c c c c c c c c c c c c c c c c c c c c c c c c c c c c c c c c c c c c c c c c c c c c c b B 2.S.:.S._                                                                                                                                             ",
"                                                                                                                                          +.M.v.9.V v c c c c c c c c c c c c c c c c c c c c c c c c c c c c c c c c c c c c c c c c c c c c c c c c c c c c c c c c c c c c c c c c c c c c c c c c c c c c c c c c c c c c c c c c c c c c c c c c c c c c c c c c c c c N H k.M.S.r                                                                                                                                         ",
"                                                                                                                                      +.S.u.D B c c c c c c c c c c c c c c c c c c c c c c c c c c c c c c c c c c c c c c c c c c c c c c c c c c c c c c c c c c c c c c c c c c c c c c c c c c c c c c c c c c c c c c c c c c c c c c c c c c c c c c c c c c c c c c c c M S 9.M.:._                                                                                                                                     ",
"                                                                                                                                   .:.s.S N v c c c c c c c c c c c c c c c c c c c c c c c c c c c c c c c c c c c c c c c c c c c c c c c c c c c c c c c c c c c c c c c c c c c c c c c c c c c c c c c c c c c c c c c c c c c c c c c c c c c c c c c c c c c c c c c c c c c m Z 9.M.+.+.                                                                                                                                ",
"                                                                                                                              =.:.k.S m v c c c c c c c c c c c c c c c c c c c c c c c c c c c c c c c c c c c c c c c c c c c c c c c c c c c c c c c c c c c c c c c c c c c c c c c c c c c c c c c c c c c c c c c c c c c c c c c c c c c c c c c c c c c c c c c c c c c c c c c n C u.S.=.=.                                                                                                                            ",
"                                                                                                                          +.S.S.H m c c c c c c c c c c c c c c c c c c c c c c c c c c c c c c c c c c c c c c c c c c c c c c c c c c c c c c c c c c c c c c c c c c c c c c c c c c c c c c c c c c c c c c c c c c c c c c c c c c c c c c c c c c c c c c c c c c c c c c c c c c c c b S S.S.=.                                                                                                                          ",
"                                                                                                                      / S.v.T N c c c c c c c c c c c c c c c c c c c c c c c c c c c c c c c c c c c c c c c c c c c c c c c c c c c c c c c c c c c c c c c c c c c c c c c c c c c c c c c c c c c c c c c c c c c c c c c c c c c c c c c c c c c c c c c c c c c c c c c c c c c c c c c c n D k.S.%.                                                                                                                      ",
"                                                                                                                    S.M.T V v c c c c c c c c c c c c c c c c c c c c c c c c c c c c c c c c c c c c c c c c c c c c c c c c c c c c c c c c c c c c c c c c c c c c c c c c c c c c c c c c c c c c c c c c c c c c c c c c c c c c c c c c c c c c c c c c c c c c c c c c c c c c c c c c c c c N D v.S._                                                                                                                   ",
"                                                                                                                =.S.u.C n c c c c c c c c c c c c c c c c c c c c c c c c c c c c c c c c c c c c c c c c c c c c c c c c c c c c c c c c c c c c c c c c c c c c c c c c c c c c c c c c c c c c c c c c c c c c c c c c c c c c c c c c c c c c c c c c c c c c c c c c c c c c c c c c c c c c c c b B T S.:.                                                                                                                ",
"                                                                                                             .:.M.S n c c c c c c c c c c c c c c c c c c c c c c c c c c c c c c c c c c c c c c c c c c c c c c c c c c c c c c c c c c c c c c c c c c c c c c c c c c c c c c c c c c c c c c c c c c c c c c c c c c c c c c c c c c c c c c c c c c c c c c c c c c c c c c c c c c c c c c c c c c b Z k.:.:.                                                                                                            ",
"                                                                                                          :.S.u.B c c c c c c c c c c c c c c c c c c c c c c c c c c c c c c c c c c c c c c c c c c c c c c c c c c c c c c c c c c c c c c c c c c c c c c c c c c c c c c c c c c c c c c c c c c c c c c c c c c c c c c c c c c c c c c c c c c c c c c c c c c c c c c c c c c c c c c c c c c c c c c m T M.S._                                                                                                         ",
"                                                                                                      _ :.k.D n c c c c c c c c c c c c c c c c c c c c c c c c c c c c c c c c c c c c c c c c c c c c c c c c c c c c c c c c c c c c c c c c c c c c c c c c c c c c c c c c c c c c c c c c c c c c c c c c c c c c c c c c c c c c c c c c c c c c c c c c c c c c c c c c c c c c c c c c c c c c c c c c v Z u.S. .                                                                                                      ",
"                                                                                                    +.M.T B c c c c c c c c c c c c c c c c c c c c c c c c c c c c c c c c c c c c c c c c c c c c c c c c c c c c c c c c c c c c c c c c c c c c c c c c c c c c c c c c c c c c c c c c c c c c c c c c c c c c c c c c c c c c c c c c c c c c c c c c c c c c c c c c c c c c c c c c c c c c c c c c c c c c M D v.=.                                                                                                    ",
"                                                                                                +.:.k.A n c c c c c c c c c c c c c c c c c c c c c c c c c c c c c c c c c c c c c c c c c c c c c c c c c c c c c c c c c c c c c c c c c c c c c c c c c c c c c c c c c c c c c c c c c c c c c c c c c c c c c c c c c c c c c c c c c c c c c c c c c c c c c c c c c c c c c c c c c c c c c c c c c c c c c c b C u.S.+.                                                                                                ",
"                                                                                              +.S.k.B v c c c c c c c c c c c c c c c c c c c c c c c c c c c c c c c c c c c c c c c c c c c c c c c c c c c c c c c c c c c c c c c c c c c c c c c c c c c c c c c c c c c c c c c c c c c c c c c c c c c c c c c c c c c c c c c c c c c c c c c c c c c c c c c c c c c c c c c c c c c c c c c c c c c c c c c c c m 2.S.=.                                                                                              ",
"                                                                                            =.M.I b c c c c c c c c c c c c c c c c c c c c c c c c c c c c c c c c c c c c c c c c c c c c c c c c c c c c c c c c c c c c c c c c c c c c c c c c c c c c c c c c c c c c c c c c c c c c c c c c c c c c c c c c c c c c c c c c c c c c c c c c c c c c c c c c c c c c c c c c c c c c c c c c c c c c c c c c c c c c c A M.S.Q                                                                                           ",
"                                                                                        Q S.s.A v c c c c c c c c c c c c c c c c c c c c c c c c c c c c c c c c c c c c c c c c c c c c c c c c c c c c c c c c c c c c c c c c c c c c c c c c c c c c c c c c c c c c c c c c c c c c c c c c c c c c c c c c c c c c c c c c c c c c c c c c c c c c c c c c c c c c c c c c c c c c c c c c c c c c c c c c c c c c c c c B 9.M.]                                                                                         ",
"                                                                                      ] S.9.B v c c c c c c c c c c c c c c c c c c c c c c c c c c c c c c c c c c c c c c c c c c c c c c c c c c c c c c c c c c c c c c c c c c c c c c c c c c c c c c c c c c c c c c c c c c c c c c c c c c c c c c c c c c c c c c c c c c c c c c c c c c c c c c c c c c c c c c c c c c c c c c c c c c c c c c c c c c c c c c c c c M F S.=.                                                                                      ",
"                                                                                    :.S.H m c c c c c c c c c c c c c c c c c c c c c c c c c c c c c c c c c c c c c c c c c c c c c c c c c c c c c c c c c c c c c c c c c c c c c c c c c c c c c c c c c c c c c c c c c c c c c c c c c c c c c c c c c c c c c c c c c c c c c c c c c c c c c c c c c c c c c c c c c c c c c c c c c c c c c c c c c c c c c c c c c c c c b A M.:.                                                                                    ",
"                                                                                  S.S.A v c c c c c c c c c c c c c c c c c c c c c c c c c c c c c c c c c c c c c c c c c c c c c c c c c c c c c c c c c c c c c c c c c c c c c c c c c c c c c c c c c c c c c c c c c c c c c c c c c c c c c c c c c c c c c c c c c c c c c c c c c c c c c c c c c c c c c c c c c c c c c c c c c c c c c c c c c c c c c c c c c c c c c c c B v.S.y                                                                                 ",
"                                                                                S.k.C c c c c c c c c c c c c c c c c c c c c c c c c c c c c c c c c c c c c c c c c c c c c c c c c c c c c c c c c c c c c c c c c c c c c c c c c c c c c c c c c c c c c c c c c c c c c c c c c c c c c c c c c c c c c c c c c c c c c c c c c c c c c c c c c c c c c c c c c c c c c c c c c c c c c c c c c c c c c c c c c c c c c c c c c c c N e.S.+.                                                                              ",
"                                                                            / S.u.V c c c c c c c c c c c c c c c c c c c c c c c c c c c c c c c c c c c c c c c c c c c c c c c c c c c c c c c c c c c c c c c c c c c c c c c c c c c c c c c c c c c c c c c c c c c c c c c c c c c c c c c c c c c c c c c c c c c c c c c c c c c c c c c c c c c c c c c c c c c c c c c c c c c c c c c c c c c c c c c c c c c c c c c c c c c c M J S.+.                                                                            ",
"                                                                          +.S.9.N c c c c c c c c c c c c c c c c c c c c c c c c c c c c c c c c c c c c c c c c c c c c c c c c c c c c c c c c c c c c c c c c c c c c c c c c c c c c c c c c c c c c c c c c c c c c c c c c c c c c c c c c c c c c c c c c c c c c c c c c c c c c c c c c c c c c c c c c c c c c c c c c c c c c c c c c c c c c c c c c c c c c c c c c c c c c c c m D S.:.                                                                          ",
"                                                                        +.:.T n c c c c c c c c c c c c c c c c c c c c c c c c c c c c c c c c c c c c c c c c c c c c c c c c c c c c c c c c c c c c c c c c c c c c c c c c c c c c c c c c c c c c c c c c c c c c c c c c c c c c c c c c c c c c c c c c c c c c c c c c c c c c c c c c c c c c c c c c c c c c c c c c c c c c c c c c c c c c c c c c c c c c c c c c c c c c c c c c b S M.:.                                                                        ",
"                                                                       .S.H b c c c c c c c c c c c c c c c c c c c c c c c c c c c c c c c c c c c c c c c c c c c c c c c c c c c c c c c c c c c c c c c c c c c c c c c c c c c c c c c c c c c c c c c c c c c c c c c c c c c c c c c c c c c c c c c c c c c c c c c c c c c c c c c c c c c c c c c c c c c c c c c c c c c c c c c c c c c c c c c c c c c c c c c c c c c c c c c c c c v A M.S.                                                                      ",
"                                                                    K.M.F n c c c c c c c c c c c c c c c c c c c c c c c c c c c c c c c c c c c c c c c c c c c c c c c c c c c c c c c c c c c c c c c c c c c c c c c c c c c c c c c c c c c c c c c c c c c c c c c c c c c c c c c c c c c c c c c c c c c c c c c c c c c c c c c c c c c c c c c c c c c c c c c c c c c c c c c c c c c c c c c c c c c c c c c c c c c c c c c c c c c c v A v.S.                                                                    ",
"                                                                  :.S.D n c c c c c c c c c c c c c c c c c c c c c c c c c c c c c c c c c c c c c c c c c c c c c c c c c c c c c c c c c c c c c c c c c c c c c c c c c c c c c c c c c c c c c c c c c c c c c c c c c c c c c c c c c c c c c c c c c c c c c c c c c c c c c c c c c c c c c c c c c c c c c c c c c c c c c c c c c c c c c c c c c c c c c c c c c c c c c c c c c c c c c c v A v.:.                                                                  ",
"                                                                :.S.S b c c c c c c c c c c c c c c c c c c c c c c c c c c c c c c c c c c c c c c c c c c c c c c c c c c c c c c c c c c c c c c c c c c c c c c c c c c c c c c c c c c c c c c c c c c c c c c c c c c c c c c c c c c c c c c c c c c c c c c c c c c c c c c c c c c c c c c c c c c c c c c c c c c c c c c c c c c c c c c c c c c c c c c c c c c c c c c c c c c c c c c c c v C v.:.                                                                ",
"                                                              +.S.S v c c c c c c c c c c c c c c c c c c c c c c c c c c c c c c c c c c c c c c c c c c c c c c c c c c c c c c c c c c c c c c c c c c c c c c c c c c c c c c c c c c c c c c c c c c c c c c c c c c c c c c c c c c c c c c c c c c c c c c c c c c c c c c c c c c c c c c c c c c c c c c c c c c c c c c c c c c c c c c c c c c c c c c c c c c c c c c c c c c c c c c c c c c c C v.S.                                                              ",
"                                                             .S.D b c c c c c c c c c c c c c c c c c c c c c c c c c c c c c c c c c c c c c c c c c c c c c c c c c c c c c c c c c c c c c c c c c c c c c c c c c c c c c c c c c c c c c c c c c c c c c c c c c c c c c c c c c c c c c c c c c c c c c c c c c c c c c c c c c c c c c c c c c c c c c c c c c c c c c c c c c c c c c c c c c c c c c c c c c c c c c c c c c c c c c c c c c c c c c Z v.S.                                                            ",
"                                                          +.M.F n c c c c c c c c c c c c c c c c c c c c c c c c c c c c c c c c c c c c c c c c c c c c c c c c c c c c c c c c c c c c c c c c c c c c c c c c c c c c c c c c c c c c c c c c c c c c c c c c c c c c c c c c c c c c c c c c c c c c c c c c c c c c c c c c c c c c c c c c c c c c c c c c c c c c c c c c c c c c c c c c c c c c c c c c c c c c c c c c c c c c c c c c c c c c c c v A v.S.                                                          ",
"                                                        =.S.H n c c c c c c c c c c c c c c c c c c c c c c c c c c c c c c c c c c c c c c c c c c c c c c c c c c c c c c c c c c c c c c c c c c c c c c c c c c c c c c c c c c c c c c c c c c c c c c c c c c c c c c c c c c c c c c c c c c c c c c c c c c c c c c c c c c c c c c c c c c c c c c c c c c c c c c c c c c c c c c c c c c c c c c c c c c c c c c c c c c c c c c c c c c c c c c c c v A M.:.                                                        ",
"                                                       .S.T n c c c c c c c c c c c c c c c c c c c c c c c c c c c c c c c c c c c c c c c c c c c c c c c c c c c c c c c c c c c c c c c c c c c c c c c c c c c c c c c c c c c c c c c c c c c c c c c c c c c c c c c c c c c c c c c c c c c c c c c c c c c c c c c c c c c c c c c c c c c c c c c c c c c c c c c c c c c c c c c c c c c c c c c c c c c c c c c c c c c c c c c c c c c c c c c c c c v A S.+.                                                      ",
"                                                      :.9.n c c c c c c c c c c c c c c c c c c c c c c c c c c c c c c c c c c c c c c c c c c c c c c c c c c c c c c c c c c c c c c c c c c c c c c c c c c c c c c c c c c c c c c c c c c c c c c c c c c c c c c c c c c c c c c c c c c c c c c c c c c c c c c c c c c c c c c c c c c c c c c c c c c c c c c c c c c c c c c c c c c c c c c c c c c c c c c c c c c c c c c c c c c c c c c c c c c c c v D S.+.                                                    ",
"                                                    S.u.M c c c c c c c c c c c c c c c c c c c c c c c c c c c c c c c c c c c c c c c c c c c c c c c c c c c c c c c c c c c c c c c c c c c c c c c c c c c c c c c c c c c c c c c c c c c c c c c c c c c c c c c c c c c c c c c c c c c c c c c c c c c c c c c c c c c c c c c c c c c c c c c c c c c c c c c c c c c c c c c c c c c c c c c c c c c c c c c c c c c c c c c c c c c c c c c c c c c c c c n H S.y                                                   ",
"                                                  S.s.V c c c c c c c c c c c c c c c c c c c c c c c c c c c c c c c c c c c c c c c c c c c c c c c c c c c c c c c c c c c c c c c c c c c c c c c c c c c c c c c c c c c c c c c c c c c c c c c c c c c c c c c c c c c c c c c c c c c c c c c c c c c c c c c c c c c c c c c c c c c c c c c c c c c c c c c c c c c c c c c c c c c c c c c c c c c c c c c c c c c c c c c c c c c c c c c c c c c c c c c c M 9.S.                                                  ",
"                                                +.M.Z v c c c c c c c c c c c c c c c c c c c c c c c c c c c c c c c c c c c c c c c c c c c c c c c c c c c c c c c c c c c c c c c c c c c c c c c c c c c c c c c c c c c c c c c c c c c c c c c c c c c c c c c c c c c c c c c c c c c c c c c c c c c c c c c c c c c c c c c c c c c c c c c c c c c c c c c c c c c c c c c c c c c c c c c c c c c c c c c c c c c c c c c c c c c c c c c c c c c c c c c c c N k.S.                                                ",
"                                              +.S.S v c c c c c c c c c c c c c c c c c c c c c c c c c c c c c c c c c c c c c c c c c c c c c c c c c c c c c c c c c c c c c c c c c c c c c c c c c c c c c c c c c c c c c c c c c c c c c c c c c c c c c c c c c c c c c c c c c c c c c c c c c c c c c c c c c c c c c c c c c c c c c c c c c c c c c c c c c c c c c c c c c c c c c c c c c c c c c c c c c c c c c c c c c c c c c c c c c c c c c c c c c c c V M.=.                                              ",
"                                            _ S.T v c c c c c c c c c c c c c c c c c c c c c c c c c c c c c c c c c c c c c c c c c c c c c c c c c c c c c c c c c c c c c c c c c c c c c c c c c c c c c c c c c c c c c c c c c c c c c c c c c c c c c c c c c c c c c c c c c c c c c c c c c c c c c c c c c c c c c c c c c c c c c c c c c c c c c c c c c c c c c c c c c c c c c c c c c c c c c c c c c c c c c c c c c c c c c c c c c c c c c c c c c c c c c A S. .                                            ",
"                                            S.e.n c c c c c c c c c c c c c c c c c c c c c c c c c c c c c c c c c c c c c c c c c c c c c c c c c c c c c c c c c c c c c c c c c c c c c c c c c c c c c c c c c c c c c c c c c c c c c c c c c c c c c c c c c c c c c c c c c c c c c c c c c c c c c c c c c c c c c c c c c c c c c c c c c c c c c c c c c c c c c c c c c c c c c c c c c c c c c c c c c c c c c c c c c c c c c c c c c c c c c c c c c c c c c c v D M.Q                                           ",
"                                          =.s.B c c c c c c c c c c c c c c c c c c c c c c c c c c c c c c c c c c c c c c c c c c c c c c c c c c c c c c c c c c c c c c c c c c c c c c c c c c c c c c c c c c c c c c c c c c c c c c c c c c c c c c c c c c c c c c c c c c c c c c c c c c c c c c c c c c c c c c c c c c c c c c c c c c c c c c c c c c c c c c c c c c c c c c c c c c c c c c c c c c c c c c c c c c c c c c c c c c c c c c c c c c c c c c c c m 2.S.                                          ",
"                                         .v.A v c c c c c c c c c c c c c c c c c c c c c c c c c c c c c c c c c c c c c c c c c c c c c c c c c c c c c c c c c c c c c c c c c c c c c c c c c c c c c c c c c c c c c c c c c c c c c c c c c c c c c c c c c c c c c c c c c c c c c c c c c c c c c c c c c c c c c c c c c c c c c c c c c c c c c c c c c c c c c c c c c c c c c c c c c c c c c c c c c c c c c c c c c c c c c c c c c c c c c c c c c c c c c c c c c B s.=.                                        ",
"                                      =.S.I b c c c c c c c c c c c c c c c c c c c c c c c c c c c c c c c c c c c c c c c c c c c c c c c c c c c c c c c c c c c c c c c c c c c c c c c c c c c c c c c c c c c c c c c c c c c c c c c c c c c c c c c c c c c c c c c c c c c c c c c c c c c c c c c c c c c c c c c c c c c c c c c c c c c c c c c c c c c c c c c c c c c c c c c c c c c c c c c c c c c c c c c c c c c c c c c c c c c c c c c c c c c c c c c c c c c A S.=.                                      ",
"                                      :.M.n c c c c c c c c c c c c c c c c c c c c c c c c c c c c c c c c c c c c c c c c c c c c c c c c c c c c c c c c c c c c c c c c c c c c c c c c c c c c c c c c c c c c c c c c c c c c c c c c c c c c c c c c c c c c c c c c c c c c c c c c c c c c c c c c c c c c c c c c c c c c c c c c c c c c c c c c c c c c c c c c c c c c c c c c c c c c c c c c c c c c c c c c c c c c c c c c c c c c c c c c c c c c c c c c c c c c c 9.S.=.                                    ",
"                                    =.M.V c c c c c c c c c c c c c c c c c c c c c c c c c c c c c c c c c c c c c c c c c c c c c c c c c c c c c c c c c c c c c c c c c c c c c c c c c c c c c c c c c c c c c c c c c c c c c c c c c c c c c c c c c c c c c c c c c c c c c c c c c c c c c c c c c c c c c c c c c c c c c c c c c c c c c c c c c c c c c c c c c c c c c c c c c c c c c c c c c c c c c c c c c c c c c c c c c c c c c c c c c c c c c c c c c c c c c c n s.S.                                    ",
"                                  +.S.S c c c c c c c c c c c c c c c c c c c c c c c c c c c c c c c c c c c c c c c c c c c c c c c c c c c c c c c c c c c c c c c c c c c c c c c c c c c c c c c c c c c c c c c c c c c c c c c c c c c c c c c c c c c c c c c c c c c c c c c c c c c c c c c c c c c c c c c c c c c c c c c c c c c c c c c c c c c c c c c c c c c c c c c c c c c c c c c c c c c c c c c c c c c c c c c c c c c c c c c c c c c c c c c c c c c c c c c c V v.+.                                  ",
"                                  :.2.n c c c c c c c c c c c c c c c c c c c c c c c c c c c c c c c c c c c c c c c c c c c c c c c c c c c c c c c c c c c c c c c c c c c c c c c c c c c c c c c c c c c c c c c c c c c c c c c c c c c c c c c c c c c c c c c c c c c c c c c c c c c c c c c c c c c c c c c c c c c c c c c c c c c c c c c c c c c c c c c c c c c c c c c c c c c c c c c c c c c c c c c c c c c c c c c c c c c c c c c c c c c c c c c c c c c c c c c c v S S./                                 ",
"                                :.k.V c c c c c c c c c c c c c c c c c c c c c c c c c c c c c c c c c c c c c c c c c c c c c c c c c c c c c c c c c c c c c c c c c c c c c c c c c c c c c c c c c c c c c c c c c c c c c c c c c c c c c c c c c c c c c c c c c c c c c c c c c c c c c c c c c c c c c c c c c c c c c c c c c c c c c c c c c c c c c c c c c c c c c c c c c c c c c c c c c c c c c c c c c c c c c c c c c c c c c c c c c c c c c c c c c c c c c c c c c c M 9.:.                                ",
"                              y S.D v c c c c c c c c c c c c c c c c c c c c c c c c c c c c c c c c c c c c c c c c c c c c c c c c c c c c c c c c c c c c c c c c c c c c c c c c c c c c c c c c c c c c c c c c c c c c c c c c c c c c c c c c c c c c c c c c k c c c c c c c c c k k c c c c c c c c c c c c c c c c c c c c c c c c c c c c c c c c c c c c c c c c c c c c c c c c c c c c c c c c c c c c c c c c c c c c c c c c c c c c c c c c c c c c c c c c c c c c c c c Z v.S.                              ",
"                              S.u.M c c c c c c c c c c c c c c c c c c c c c c c c c c c c c c c c c c c c c c c c c c c c c c c c c c c c c c c c c c c c c c c c c c c c c c c c c c c c c c c c c c c c c c c c c c c c c c c c c c c c c c c c c c c c c c c c c k c c c c c c c c c k k c c c c c c c c c c c c c c c c c c c c c c c c c c c c c c c c c c c c c c c c c c c c c c c c c c c c c c c c c c c c c c c c c c c c c c c c c c c c c c c c c c c c c c c c c c c c c c c b H S.]                             ",
"                            o.S.Z c c c c c c c c c c c c c c c c c c c c c c c c c c c c c c c c c c c c c c c c c c c c c c c c c c c c c c c c c c c c c c c c c c c c c c c c c c c c c c c c c c c c c c c c c c c c c c c c c c c c c c c c c c c c c c c c k k c c c c c c c c c c c c c k k c c c c c c c k k k c c c c c c c c c c c c c c c c c c c c c c c c c c c c c c c c c c c c c c c c c c c c c c c c c c c c c c c c c c c c c c c c c c c c c c c c c c c c c c c c c c c M v.:.                            ",
"                            :.2.v c c c c c c c c c c c c c c c c c c c c c c c c c c c c c c c c c c c c c c c c c c c c c c c c c c c c c c c c c c c c c c c c c c c c c c c c c c c c c c k k k k k k k k k k k k k j j j j j j j j j j j j j j j j j j j j j j j j j j j j j j j j j j j j j j j j j j j g g f f a a p p p l k c c c c c c c c k k j a e 7 6 5 5 4 4 5 w i j j k c c c c c c c c c c c c c c c c c c c c c c c c c c c c c c c c c c c c c c c c c c c c c c c c c c c c c A S.]                           ",
"                          +.M.m c c c c c c c c c c c c c c c c c c c c c c c c c c c c c c c c c c c c c c c c c c c c c c c c c c c c c c k j f f p p p p p p p a f j k c c c c c c c c c l s 9 7 6 6 5 5 4 4 3 2 2 1 1 < , , > : : ; - - - = = * * & & & & & & & & & & & & & & & & & & & & & & & & & & & & % % % % % & * > 8 h l c c c c c k g f e 3 * % # O o o o o X o @ # & : 5 u p f k c c c c c c c c c c c c c c c c c c c c c c c c c c c c c c c c c c c c c c c c c c c c c c c c c v e.:.                          ",
"                          S.S c c c c c c c c c c c c c c c c c c c c c c c c c c c c c c c c c c c c c c c c c c c c c c c c c k j j a w 8 4 > % + X X X X X X X + % ; 3 8 e f j k k c c c l l q 1 - & + X X X . . . . . . . . . . . . . . . . . . . . . . . . . . . . . . . . . . . . . . . . . . . . . . . X X # - 3 u g j k c c c c j f w 4 - + X . . . . . . . . . . . . . . . . X o % 2 0 i j k c c c c c c c c c c c c c c c c c c c c c c c c c c c c c c c c c c c c c c c c c c c c c c B M.Q                         ",
"                        =.u.m c c c c c c c c c c c c c c c c c c c c c c c c c c c c c c c c c c c c c c c c c c c c c c k g i w 3 - & O X . . . . . . . . . . . . . . . . + * , 7 w f k k c c c c k f u 8 < * + X . . . . . . . . . . . . . . . . . . . . . . . . . . . . . . . . . . . . . . . . . . . X % < 8 u k c c c c c c j a e , & + . . . . . . . . . . . . . . . . . . . . . . . . X # > 7 e g k c c c c c c c c c c c c c c c c c c c c c c c c c c c c c c c c c c c c c c c c c c c b F S.                        ",
"                      / M.A v c c c c c c c c c c c c c c c c c c c c c c c c c c c c c c c c c c c c c c c c c c c c j p 9 < & + X . . . . . . . . . . . . . . . . . . . . . . . o + > 7 u j k c c c c c c j p 0 1 - X . . . . . . . . . . . . . . . . . . . . . . . . . . . . . . . . . . . . . . . + - 4 u j c c c c c c c k i 5 - # . . . . . . . . . . . . . . . . . . . . . . . . . . . . . . o # < 0 f k c c c c c c c c c c c c c c c c c c c c c c c c c c c c c c c c c c c c c c c c c c B s.+.                      ",
"                      :.9.m c c c c c c c c c c c c c c c c c c c c c c c c c c c c c c c c c c c c c c c c c c c j i 3 & + X . . . . . . . . . . . . . . . . . . . . . . . . . . . . X o % < e j c c c c c c c k j a 7 * X . . . . . . . . . . . . . . . . . . . . . . . . . . . . . . . . . . . X * 8 a j c c c c c c c k p 7 & o . . . . . . . . . . . . . . . . . . . . . . . . . . . . . . . . . . X + - 7 f c c c c c c c c c c c c c c c c c c c c c c c c c c c c c c c c c c c c c c c c c v F S.                      ",
"                    ] M.A c c c c c c c c c c c c c c c c c c c c c c c c c c c c c c c c c c c c c c c c c c k u , + X . . . . . . . . . . . . . . . . . . . . . . . . . . . . . . . . . . . + , w k c c c c c c c c k f 6 % . . . . . . . . . . . . . . . . . . . . . . . . . . . . . . . . . O 4 f k c c c c c c c c k 9 # X . . . . . . . . . . . . . . . . . . . . . . . . . . . . . . . . . . . . . . . X : u c c c c c c c c c c c c c c c c c c c c c c c c c c c c c c c c c c c c c c c c c N k.:.                    ",
"                    :.u.n c c c c c c c c c c c c c c c c c c c c c c c c c c c c c c c c c c c c c c c c k a 3 + . . . . . . . . . . . . . . . . . . . . . . . . . . . . . . . . . . . . . . . . + 4 a k c c c c c c c c c p - X . . . . . . . . . . . . . . . . . . . . . . . . . . . . . X & w c c c c c c c c c j i 2 + . . . . . . . . . . . . . . . . . . . . . . . . . . . . . . . . . . . . . . . . . . . @ < p k c c c c c c c c c c c c c c c c c c c c c c c c c c c c c c c c c c c c c c c I :.                    ",
"                   .S.A c c c c c c c c c c c c c c c c c c c c c c c c c c c c c c c c c c c c c c c k f 9 & X . . . . . . . . . . . . . . . . . . . . . . . . . . . . . . . . . . . . . . . . . . X = 8 g c c c c c c c c c f 5 % X . . . . . . . . . . . . . . . . . . . . . . . . . . + < i k c c c c c c c c g 8 & X . . . . . . . . . . . . . . . . . . . . . . . . . . . . . . . . . . . . . . . . . . . . . X * 9 f k c c c c c c c c c c c c c c c c c c c c c c c c c c c c c c c c c c c c c M M.=.                  ",
"                  =.s.b c c c c c c c c c c c c c c c c c c c c c c c c c c c c c c c c c c c c c c j u , + . . . . . . . . . . . . . . . . . . . . . . . . . . . . . . . . . . . . . . . . . . . . . . + < p k c c c c c c c c j w = . . . . . . . . . . . . . . . . . . . . . . . . . + 6 g k c c c c c c c c a 1 + . . . . . . . . . . . . . . . . . . . . . . . . . . . . . . . . . . . . . . . . . . . . . . . . . + < a c c c c c c c c c c c c c c c c c c c c c c c c c c c c c c c c c c c c c c F :.                  ",
"                ] S.Z c c c c c c c c c c c c c c c c c c c c c c c c c c c c c c c c c c c c c c j 8 & X . . . . . . . . . . . . . . . . . . . . . . . . . . . . . . . . . . . . . . . . . . . . . . . . X * 0 j c c c c c c c c k u - . . . . . . . . . . . . . . . . . . . . . . . + 8 j c c c c c c c c k e ; X . . . . . . . . . . . . . . . . . . . . . . . . . . . . . . . . . . . . . . . . . . . . . . . . . . . X - e c c c c c c c c c c c c c c c c c c c c c c c c c c c c c c c c c c c c c m M. .                ",
"                =.s.v c c c c c c c c c c c c c c c c c c c c c c c c c c c c c c c c c c c c c g , o . . . . . . . . . . . . . . . . . . . . . . . . . . . . . . . . . . . . . . . . . . . . . . . . . . . . + 8 j c c c c c c c c c f < X . . . . . . . . . . . . . . . . . . . . @ 0 k c c c c c c c c c w # . . . . . . . . . . . . . . . . . . . . . . . . . . . . . . . . . . . . . . . . . . . . . . . . . . . . . . . # q k c c c c c c c c c c c c c c c c c c c c c c c c c c c c c c c c c c c c D S.                ",
"                S.A c c c c c c c c c c c c c c c c c c c c c c c c c c c c c c c c c c c c k p , . . . . . . . . . . . . . . . . . . . . . . . . . . . . . . . . . . . . . . . . . . . . . . . . . . . . . . . + 7 j c c c c c c c c c g , X . . . . . . . . . . . . . . . . . . + 8 k c c c c c c c c k e # . . . . . . . . . . . . . . . . . . . . . . . . . . . . . . . . . . . . . . . . . . . . . . . . . . . . . . . . . # 0 j c c c c c c c c c c c c c c c c c c c c c c c c c c c c c c c c c c c N v./               ",
"              +.u.M c c c c c c c c c c c c c c c c c c c c c c c c c c c c c c c c c c c k u ; X . . . . . . . . . . . . . . . . . . . . . . . . . . . . . . . . . . . . . . . . . . . . . . . . . . . . . . . . + 3 f c c c c c c c c c i - X . . . . . . . . . . . . . . . . o 3 g c c c c c c c c j 0 & . . . . . . . . . . . . . . . . . . . . . . . . . . . . . . . . . . . . . . . . . . . . . . . . . . . . . . . . . . . % 0 k c c c c c c c c c c c c c c c c c c c c c c c c c c c c c c c c c c b H S.              ",
"              S.S v c c c c c c c c c c c c c c c c c c c c c c c c c c c c c c c c c c c i : X . . . . . . . . . . . . . . . . . . . . . . . . . . . . . . . . . . . . . . . . . . . . . . . . . . . . . . . . . . X 1 f c c c c c c c c k e * . . . . . . . . . . . . . . . X : p c c c c c c c c j 0 $ . . . . . . . . . . . . . . . . . . . . . . . . . . . . . . . . . . . . . . . . . . . . . . . . . . . . . . . . . . . . . % w k c c c c c c c c c c c c c c c c c c c c c c c c c c c c c c c c c c C v./             ",
"            :.k.B c c c c c c c c c c c c c c c c c c c c c c c c c c c c c c c c c c c j > X . . . . . . . . . . . . . . . . . . . . . . . . . . . . . . . . . . . . . . . . . . . . . . . . . . . . . . . . . . . . o 3 g c c c c c c c c k 0 + . . . . . . . . . . . . . . % i k c c c c c c c k u * . . . . . . . . . . . . . . . . . . . . . . . . . . . . . . . . . . . . . . . . . . . . . . . . . . . . . . . . . . . . . . . # w k c c c c c c c c c c c c c c c c c c c c c c c c c c c c c c c c c m 9.:.            ",
"            S.J b c c c c c c c c c c c c c c c c c c c c c c c c c c c c c c c c c c j 1 . . . . . . . . . . . . . . . . . . . . . . . . . . . . . . . . . . . . . . . . . . . . . . . . . . . . . . . . . . . . . . . + 7 j c c c c c c c c k 5 X . . . . . . . . . . . . O w c c c c c c c c c f : X . . . . . . . . . . . . . . . . . . . . . . . . . . . . . . . . . . . . . . . . . . . . . . . . . . . . . . . . . . . . . . . . & p c c c c c c c c c c c c c c c c c c c c c c c c c c c c c c c c c c D S.            ",
"          _ M.A c c c c c c c c c c c c c c c c c c c c c c c c c c c c c c c c c c g 3 . . . . . . . . . . . . . . . . . . . . . . . . . . . . . . . . . . . . . . . . . . . . . . . . . . . . . . . . . . . . . . . . . + 9 k c c c c c c c c j - . . . . . . . . . . . . 2 k c c c c c c c c j 1 X . . . . . . . . . . . . . . . . . . . . . . . . . X o + # % * * = = & # @ + X . . . . . . . . . . . . . . . . . . . . . . . . . . X 1 g c c c c c c c c c c c c c c c c c c c c c c c c c c c c c c c c c N v.:.          ",
"          :.v.m c c c c c c c c c c c c c c c c c c c c c c c c c c c c c c c c c k 8 + . . . . . . . . . . . . . . . . . . . . . . . . . . X X + & - : > > : ; & + o X X . . . . . . . . . . . . . . . . . . . . . . . . . % i c c c c c c c c k q + . . . . . . . . . . # e c c c c c c c c k 7 o . . . . . . . . . . . . . . . . . . . . . . . X # ; 1 7 q u i a a a a p i e 9 3 : % o X . . . . . . . . . . . . . . . . . . . . . . . # 0 k c c c c c c c c c c c c c c c c c c c c c c c c c c c c c c c c v 9.:.          ",
"          :.I c c c c c c c c c c c c c c c c c c c c c c c c c c c c c c c c c k i * . . . . . . . . . . . . . . . . . . . . . . . . X # : 3 7 0 u p g g g g f u q 9 7 2 & + . . . . . . . . . . . . . . . . . . . . . . . . ; g c c c c c c c c g 1 X . . . . . . . . X 2 j c c c c c c c c u # . . . . . . . . . . . . . . . . . . . . . . + : 5 w f j k k c c c c c c c c c k j f e 9 1 # X . . . . . . . . . . . . . . . . . . . . . . * i c c c c c c c c c c c c c c c c c c c c c c c c c c c c c c c c c Z S.=.        ",
"        =.S.V c c c c c c c c c c c c c c c c c c c c c c c c c c c c c c c c c j 3 X . . . . . . . . . . . . . . . . . . . . . . o - 6 p g j k k k c c c c c c k k k k j f e < % X . . . . . . . . . . . . . . . . . . . . . X 6 k c c c c c c c k e % . . . . . . . . & i k c c c c c c c j < . . . . . . . . . . . . . . . . . . . . . o > e g k k c c c c c c c c c c c c c c c c k k j p 4 % . . . . . . . . . . . . . . . . . . . . . X , j c c c c c c c c c c c c c c c c c c c c c c c c c c c c c c c c b M.+.        ",
"        +.v.v c c c c c c c c c c c c c c c c c c c c c c c c c c c c c c c c c w # . . . . . . . . . . . . . . . . . . . . . X , w j c c c c c c c c c c c c c c c c c c c c c a 6 & X . . . . . . . . . . . . . . . . . . . . # w k c c c c c c c j 1 X . . . . . . X 3 j c c c c c c c k 8 + . . . . . . . . . . . . . . . . . . . X , w j c c c c c c c c c c c c c c c c c c c c c c c c c f 3 @ X . . . . . . . . . . . . . . . . . . . o e c c c c c c c c c c c c c c c c c c c c c c c c c c c c c c c c c F :.        ",
"        :.S c c c c c c c c c c c c c c c c c c c c c c c c c c c c c c c c c g ; . . . . . . . . . . . . . . . . . . . . + ; w j c c c c c c c c c c c c c c c c c c c c c c c c k a 5 & X . . . . . . . . . . . . . . . . . . X ; a c c c c c c c c u % . . . . . . % i k c c c c c c c p - . . . . . . . . . . . . . . . . . . X % 6 j c c c c c c c c c c c c c c c c c c c c c c c c c c c c j e > + . . . . . . . . . . . . . . . . . . . : j c c c c c c c c c c c c c c c c c c c c c c c c c c c c c c c c B S.]       ",
"      ] M.M c c c c c c c c c c c c c c c c c c c c c c c c c c c c c c c c c 7 X . . . . . . . . . . . . . . . . . . X * 8 f k c c c c c c c c c c c c c c c c c c c c c c c c c c c j u < + . . . . . . . . . . . . . . . . . . + 9 k c c c c c c c j < . . . . . . 2 j c c c c c c c k 6 o . . . . . . . . . . . . . . . . . o , u j c c c c c c c c c c c c c c c c c c c c c c c c c c c c c c k f 7 # . . . . . . . . . . . . . . . . . . o e k c c c c c c c c c c c c c c c c c c c c c c c c c c c c c c c b u. .      ",
"      +.e.b c c c c c c c c c c c c c c c c c c c c c c c c c c c c c c c c f & . . . . . . . . . . . . . . . . . . X < i k c c c c c c c c c c c c c c c c c c c c c c c c c c c c c c k g 7 # . . . . . . . . . . . . . . . . . . : g c c c c c c c c 8 X . . . . X q c c c c c c c c f - . . . . . . . . . . . . . . . . . X < f c c c c c c c c c c c c c c c c c c c c c c c c c c c c c c c c c c j w - X . . . . . . . . . . . . . . . . . < j c c c c c c c c c c c c c c c c c c c c c c c c c c c c c c c v S S.      ",
"      S.S v c c c c c c c c c c c c c c c c c c c c c c c c c c c c c c c c 9 X . . . . . . . . . . . . . . . . . X 4 j c c c c c c c c c c c c c c c c c c c c c c c c c c c c c c c c c c j w # . . . . . . . . . . . . . . . . . + i c c c c c c c c f @ . . . . + i c c c c c c c c w + . . . . . . . . . . . . . . . . X 3 g c c c c c c c c c c c c c c c c c c c c c c c c c c c c c c c c c c c c k a , X . . . . . . . . . . . . . . . . & i c c c c c c c c c c c c c c c c c c c c c c c c c c c c c c c c B S.      ",
"    y M.B c c c c c c c c c c c c c c c c c c c c c c c c c c c c c c c c j < . . . . . . . . . . . . . . . . . @ 8 j c c c c c c c c c c c c c c c k j j j j k k c c c c c c c c c c c c c c k w % . . . . . . . . . . . . . . . . X 2 c c c c c c c c k 3 . . . . > j c c c c c c c k 3 . . . . . . . . . . . . . . . . X 1 j c c c c c c c c c c c c k j g p e q q q q e i a j k c c c c c c c c c c c c c f : X . . . . . . . . . . . . . . . o 6 k c c c c c c c c c c c c c c c c c c c c c c c c c c c c c c c m e.]     ",
"    +.e.m c c c c c c c c c c c c c c c c c c c c c c c c c c c c c c c c i % . . . . . . . . . . . . . . . . # 9 j c c c c c c c c c c c c c j p u 0 5 3 2 3 8 e i g k c c c c c c c c c c c c k e % . . . . . . . . . . . . . . . . & g c c c c c c c c i + . . o q c c c c c c c c g * . . . . . . . . . . . . . . . X , g c c c c c c c c c c c k f w 2 : & + X X X X O % = 1 0 p k c c c c c c c c c c c c p ; X . . . . . . . . . . . . . . X : f c c c c c c c c c c c c c c c c c c c c c c c c c c c c c c c b F S.    ",
"    S.F b c c c c c c c c c c c c c c c c c c c c c c c c c c c c c c c j 7 o . . . . . . . . . . . . . . . + 8 j c c c c c c c c c c c k g q 3 = $ + X X X X + # & , 6 u j c c c c c c c c c c c k 7 + . . . . . . . . . . . . . . . o 0 c c c c c c c c j : . . & j c c c c c c c k w X . . . . . . . . . . . . . . . % e k c c c c c c c c c c j 0 : $ o & - ; : ; & + X . . X + = 7 g k c c c c c c c c c c c p * . . . . . . . . . . . . . . . % u c c c c c c c c c c c c c c c c c c c c c c c c c c c c c c c c A M.    ",
"    M.A c c c c c c c c c c c c c c c c c c c c c c c c c c c c c c c c f : . . . . . . . . . . . . . . . X 7 j c c c c c c c c c c c k e - # X . . . X O & , , - # + + % 4 f c c c c c c c c c c c g 1 X . . . . . . . . . . . . . . . < j c c c c c c c c 3 . . , c c c c c c c c k 4 . . . . . . . . . . . . . . . o 5 j c c c c c c c c c c g 2 # % 2 0 i a f f f p w 6 - O . . . o ; q j c c c c c c c c c c c e & . . . . . . . . . . . . . . + 0 k c c c c c c c c c c c c c c c c c c c c c c c c c c c c c c c B k._   ",
"   .k.B c c c c c c c c c c c c c c c c c c c c c c c c c c c c c c c c p = . . . . . . . . . . . . . . X 2 j c c c c c c c c c c c f 6 o . . . X & < q f j j j j g i 7 - + & u c c c c c c c c c c c i & . . . . . . . . . . . . . . . & a c c c c c c c c 0 + X 6 c c c c c c c c j & . . . . . . . . . . . . . . . * p c c c c c c c c c k u % # 5 f k c c c c c c c c k j i : o . . . + 5 j c c c c c c c c c c j 6 X . . . . . . . . . . . . . o 6 j c c c c c c c c c c c c c c c c c c c c c c c c c c c c c c c m e.S.  ",
"  S.e.m c c c c c c c c c c c c c c c c c c c c c c c c c c c c c c c k q # . . . . . . . . . . . . . . - f c c c c c c c c c c j q * X . . o * 8 j c c c c c c c c c c j q > & 8 j c c c c c c c c c k 9 X . . . . . . . . . . . . . . + u c c c c c c c c p % O w c c c c c c c c f # . . . . . . . . . . . . . . + q c c c c c c c c c k i - < p c c c c c c c c c c c c c c j 0 - X . . X , a k c c c c c c c c c p - . . . . . . . . . . . . . . 1 j c c c c c c c c c c c c c c c c c c c c c c c c c c c c c c c c H S.  ",
"  S.T v c c c c c c c c c c c c c c c c c c c c c c c c c c c c c c c k 8 o . . . . . . . . . . . . . # q k c c c c c c c c c j 7 % . . . # 4 p k c c c c c c c c c c c c c g q , 7 g c c c c c c c c c j ; . . . . . . . . . . . . . . X 0 k c c c c c c c f ; & p c c c c c c c c p # . . . . . . . . . . . . . . - j c c c c c c c c k i < 6 j c c c c c c c c c c c c c c c c k p , X . . X ; i k c c c c c c c c k 0 # . . . . . . . . . . . . . , j c c c c c c c c c c c c c c c c c c c c c c c c c c c c c c c c A S.  ",
"  S.S c c c c c c c c c c c c c c c c c c c c c c c c c c c c c c c c j 5 X . . . . . . . . . . . . X < g c c c c c c c c c j 6 + . . . % q j c c c c c c c c c c c c c c c c k u 1 9 j c c c c c c c c k 7 . . . . . . . . . . . . . . X 7 k c c c c c c c j 4 < g c c c c c c c c i + . . . . . . . . . . . . . X 6 c c c c c c c c c g 5 7 g c c c c c c c c c c c c c c c c c c c f 1 X . . X : a c c c c c c c c c g , . . . . . . . . . . . . . , g c c c c c c c c c c c c c c c c c c c c c c c c c c c c c c c c B M.:.",
":.M.V c c c c c c c c c c c c c c c c c c c c c c c c c c c c c c c c f - . . . . . . . . . . . . . # w k c c c c c c c c j 6 o . . . & u k c c c c c k c c c c c c c c c c c c k u < u c c c c c c c c c u + . . . . . . . . . . . . . X 6 k c c c c c c c k 9 5 j c c c c c c c c 7 X . . . . . . . . . . . . . O p c c c c c c c c k 0 3 j c c c c c c c c c c c c c c c c c c c c c f , X . . o 4 j c c c c c c c c k w + . . . . . . . . . . . . > f c c c c c c c c c c c c c c c c c c c c c c c c c c c c c c c c n M.:.",
"S.M.m c c c c c c c c c c c c c c c c c c c c c c c c c c c c c c c c f - . . . . . . . . . . . . X < j c c c c c c c c c i # . . . # u c c c c c c c k c c c c c c c c c c c c c k w 5 j c c c c c c c c j - . . . . . . . . . . . . . X 6 k c c c c c c c c w 9 j c c c c c c c c 7 X . . . . . . . . . . . . . % j c c c c c c c c k d f c c c c c c c c c c c c c c c c c c c c c c k u & . . . $ w k c c c c c c c c k ; . . . . . . . . . . . . : f c c c c c c c c c c c c c c c c c c c c c c c c c c c c c c c c c s.=.",
":.k.v c c c c c c c c c c c c c c c c c c c c c c c c c c c c c c c c a + . . . . . . . . . . . . o e c c c c c c c c c f , X . . + 5 j c c c c c c c c c c c c c c c c c c c c c c k x l c c c c c c c c c 2 X . . . . . . . . . . . . X 5 k c c c c c c c c i e k c c c c c c c c 8 X . . . . . . . . . . . . . - j c c c c c c c c c z c c c c c c c c c c c c c c c c c c c c c c c c j 3 X . . X > f c c c c c c c c k 0 X . . . . . . . . . . . : f c c c c c c c c c c c c c c c c c c c c c c c c c c c c c c c c c D :.",
":.T c c c c c c c c c c c c c c c c c c c c c c c c c c c c c c c c c p X . . . . . . . . . . . . - f c c c c c c c c k 9 + . . . ; a c c c c c c c c c c c c c c c c c c c c c c c c z v c c c c c c c c c 6 X . . . . . . . . . . . . X 4 j c c c c c c c c g g k c c c c c c c c w + . . . . . . . . . . . . . 1 k c c c c c c c c c c c c c c c c c c c c c c c c c c c c c c c c c c c e # . . . + 0 c c c c c c c c c p + . . . . . . . . . . . : f c c c c c c c c c c c c c c c c c c c c c c c c c c c c c c c c c C S.",
"S.A c c c c c c c c c c c c c c c c c c c c c c c c c c c c c c c c c p X . . . . . . . . . . . . 5 k c c c c c c c c f - . . . X 4 k c c c c c c c c c c c c c c c c c c c c c c c c c c c c c c c c c c c u + . . . . . . . . . . . . X 4 j c c c c c c c c g f k c c c c c c c c a # . . . . . . . . . . . . . 2 k c c c c c c c c c c c c c c c c c c c c c c c c c c c c c c c c c c c j : . . . . ; k c c c c c c c c g & . . . . . . . . . . . ; f c c c c c c c c c c c c c c c c c c c c c c c c c c c c c c c c c m S.",
"S.B c c c c c c c c c c c c c c c c c c c c c c c c c c c c c c c c c p X . . . . . . . . . . . o w c c c c c c c c c 9 o . . . # u k c c c c c c c c c c c c c c c c c c c c c c c c c c c c c c c c c c c p # . . . . . . . . . . . . X 9 k c c c c c c c c u q j c c c c c c c c g % . . . . . . . . . . . . . 1 k c c c c c c c c c c c c c c c c c c c c c c c c c c c c c c c c c c c c 7 X . . . @ f c c c c c c c c k 3 . . . . . . . . . . . ; a c c c c c c c c c c c c c c c c c c c c c c c c c c c c c c c c c v M.",
"S.n c c c c c c c c c c c c c c c c c c c c c c c c c c c c c c c c c f & . . . . . . . . . . . % f c c c c c c c c k , . . . . - j c c c c c c c c c c c c c c c c c c c c c c c c c c c c c c c c c c c c e + . . . . . . . . . . . . X q k c c c c c c c c 0 5 j c c c c c c c c j * . . . . . . . . . . . . . < k c c c c c c c c c c c c c c c c c c c c c c c c c c c c c c c c c c c c e o . . . o 0 c c c c c c c c c 7 . . . . . . . . . . . : f c c c c c c c c c c c c c c c c c c c c c c c c c c c c c c c c c c e.",
"v.c c c c c c c c c c c c c c c c c c c c c c c c c c c c c c c c c c g : X . . . . . . . . . . - c c c c c c c c c f & . . . . 2 j c c c c c c c c c c c c c c c c c c c c c c c c c c c c c c c c c c c c 6 X . . . . . . . . . . . . + i c c c c c c c c k 7 1 g c c c c c c c c j 1 . . . . . . . . . . . . . & j c c c c c c c c c c c c c c c c c c c c c c c c c c c c c c c c c c c c g + . . . . 3 c c c c c c c c c 0 o . . . . . . . . . . , f c c c c c c c c c c c c c c c c c c c c c c c c c c c c c c c c c c F ",
"9.c c c c c c c c c c c c c c c c c c c c c c c c c c c c c c c c c c j 1 X . . . . . . . . . . > c c c c c c c c c p @ . . . . 8 k c c c c c c c c c c c c c c c c c c c c c c c c c c c c c c c c c c c c 1 X . . . . . . . . . . . . ; g c c c c c c c c g , & p c c c c c c c c k 0 X . . . . . . . . . . . . @ g c c c c c c c c c c c c c c c c c c c c c c c c c c c c c c c c c c c c j + . . . . , k c c c c c c c c e # . . . . . . . . . X 1 j c c c c c c c c c c c c c c c c c c c c c c c c c c c c c c c c c c A ",
"D c c c c c c c c c c c c c c c c c c c c c c c c c c c c c c c c c c k 6 X . . . . . . . . . . , c c c c c c c c c u X . . . . 8 k c c c c c c c c c c c c c c c c c c c c c c c c c c c c c c c c c c c j - . . . . . . . . . . . . . 7 k c c c c c c c c a * + e c c c c c c c c c a # . . . . . . . . . . . . X 0 c c c c c c c c c c c c c c c c c c c c c c c c c c c c c c c c c c c c i + . . . . , k c c c c c c c c e # . . . . . . . . . X 3 j c c c c c c c c c c c c c c c c c c c c c c c c c c c c c c c c c c V ",
"A c c c c c c c c c c c c c c c c c c c c c c c c c c c c c c c c c c k q @ . . . . . . . . . X 5 c c c c c c c c c w . . . . . 7 k c c c c c c c c c c c c c c c c c c c c c c c c c c c c c c c c c c c u + . . . . . . . . . . . . + u c c c c c c c c c u # X 3 c c c c c c c c c k 4 . . . . . . . . . . . . . < c c c c c c c c c c c c c c c c c c c c c c c c c c c c c c c c c c c c w X . . . . , k c c c c c c c c e # . . . . . . . . . + q k c c c c c c c c c c c c c c c c c c c c c c c c c c c c c c c c c c M ",
"V c c c c c c c c c c c c c c c c c c c c c c c c c c c c c c c c c c c p = . . . . . . . . . X 5 c c c c c c c c c w . . . . . , j c c c c c c c c c c c c c c c c c c c c c c c c c c c c c c c c c c k 0 X . . . . . . . . . . . . - j c c c c c c c c c 8 X . & j c c c c c c c c c e @ . . . . . . . . . . . . $ p c c c c c c c c c c c c c c c c c c c c c c c c c c c c c c c c c c k < . . . . . > k c c c c c c c c u # . . . . . . . . . * p c c c c c c c c c c c c c c c c c c c c c c c c c c c c c c c c c c c n ",
"N c c c c c c c c c c c c c c c c c c c c c c c c c c c c c c c c c c c g , X . . . . . . . . X 3 c c c c c c c c c w X . . . . & f c c c c c c c c c c c c c c c c c c c c c c c c c c c c c c c c c c g : . . . . . . . . . . . . X 9 c c c c c c c c c j , . . + e c c c c c c c c c f - . . . . . . . . . . . . X 4 j c c c c c c c c c c c c c c c c c c c c c c c c c c c c c c c c c f ; . . . . . , k c c c c c c c c e @ . . . . . . . . X 2 j c c c c c c c c c c c c c c c c c c c c c c c c c c c c c c c c c c c n ",
"m c c c c c c c c c c c c c c c c c c c c c c c c c c c c c c c c c c c j 7 o . . . . . . . . . , c c c c c c c c c u X . . . . + 0 k c c c c c c c c c c c c c c c c c c c c c c c c c c c c c c c c k 9 o . . . . . . . . . . . . % a c c c c c c c c c i @ . . . 3 k c c c c c c c c j 3 X . . . . . . . . . . . . & u k c c c c c c c c c c c c c c c c c c c c c c c c c c c c c c c k q # . . . . . 4 c c c c c c c c k 9 X . . . . . . . . + 8 k c c c c c c c c c c c c c c c c c c c c c c c c c c c c c c c c c c c b ",
"n c c c c c c c c c c c c c c c c c c c c c c c c c c c c c c c c c c c c e # . . . . . . . . . : c c c c c c c c c p # . . . . X 1 j c c c c c c c c c c c c c c c c c c c c c c c c c c c c c c c c a - . . . . . . . . . . . . X 1 j c c c c c c c c k 6 X . . . # p c c c c c c c c k u & . . . . . . . . . . . . X > f c c c c c c c c c c c c c c c c c c c c c c c c c c c c c c c g , X . . . . o q c c c c c c c c c 5 . . . . . . . . . & a c c c c c c c c c c c c c c c c c c c c c c c c c c c c c c c c c c c c b ",
"n c c c c c c c c c c c c c c c c c c c c c c c c c c c c c c c c c c c c j < . . . . . . . . . = j c c c c c c c c j - . . . . . & i c c c c c c c c c c c c c c c c c c c c c c c c c c c c c c c g 2 X . . . . . . . . . . . . % u k c c c c c c c c j % . . . . . 7 k c c c c c c c c k 7 o . . . . . . . . . . . . o 6 k c c c c c c c c c c c c c c c c c c c c c c c c c c c c c k 0 + . . . . . # j c c c c c c c c j , . . . . . . . . X 8 k c c c c c c c c c c c c c c c c c c c c c c c c c c c c c c c c c c c c v ",
"b c c c c c c c c c c c c c c c c c c c c c c c c c c c c c c c c c c c c c w + . . . . . . . . # p c c c c c c c c c 3 X . . . . X 1 f c c c c c c c c c c c c c c c c c c c c c c c c c c c c c k 9 + . . . . . . . . . . . . o 5 j c c c c c c c c c 0 X . . . . . - f c c c c c c c c c f - . . . . . . . . . . . . . # q k c c c c c c c c c c c c c c c c c c c c c c c c c c c k e & . . . . . X , c c c c c c c c c g & . . . . . . . . + f c c c c c c c c c c c c c c c c c c c c c c c c c c c c c c c c c c c c c v ",
"b c c c c c c c c c c c c c c c c c c c c c c c c c c c c c c c c c c c c c j = . . . . . . . . X q c c c c c c c c c q + . . . . . o 4 j c c c c c c c c c c c c c c c c c c c c c c c c c c c k w % . . . . . . . . . . . . . - p c c c c c c c c c g : . . . . . . + 9 k c c c c c c c c k u # . . . . . . . . . . . . . # 8 g c c c c c c c c c c c c c c c c c c c c c c c c c k w & . . . . . . # e c c c c c c c c c f + . . . . . . . . < j c c c c c c c c c c c c c c c c c c c c c c c c c c c c c c c c c c c c c v ",
"b c c c c c c c c c c c c c c c c c c c c c c c c c c c c c c c c c c c c c k 7 X . . . . . . . . 5 k c c c c c c c c g , X . . . . . + 3 j c c c c c c c c c c c c c c c c c c c c c c c c c k 0 % . . . . . . . . . . . . . + w k c c c c c c c c k 0 + . . . . . . X - p c c c c c c c c c k 7 X . . . . . . . . . . . . . + 3 f c c c c c c c c c c c c c c c c c c c c c c c k w & . . . . . . X 2 g c c c c c c c c k 8 X . . . . . . . # i c c c c c c c c c c c c c c c c c c c c c c c c c c c c c c c c c c c c c c v ",
"v c c c c c c c c c c c c c c c c c c c c c c c c c c c c c c c c c c c c c c j , . . . . . . . . & a c c c c c c c c k e % . . . . . . o 5 j c c c c c c c c c c c c c c c c c c c c c c c j 7 @ . . . . . . . . . . . . . X 3 k c c c c c c c c c a ; X . . . . . . . o 5 j c c c c c c c c c j < X . . . . . . . . . . . . . o , p k c c c c c c c c c c c c c c c c c c c c j 8 % . . . . . . . & i k c c c c c c c c f % . . . . . . . o 7 k c c c c c c c c c c c c c c c c c c c c c c c c c c c c c c c c c c c c c c c ",
"v c c c c c c c c c c c c c c c c c c c c c c c c c c c c c c c c c c c c c c c w + . . . . . . . X 0 k c c c c c c c c j 2 X . . . . . . X , p k c c c c c c c c c c c c c c c c c c c k a 3 + . . . . . . . . . . . . . X , j c c c c c c c c c j 6 o . . . . . . . . . % i c c c c c c c c c c f : X . . . . . . . . . . . . . . # 7 f k k c c c c c c c c c c c c c c k k p , o . . . . . . . + 9 k c c c c c c c c k 8 o . . . . . . . ; f c c c c c c c c c c c c c c c c c c c c c c c c c c c c c c c c c c c c c c c c ",
"v c c c c c c c c c c c c c c c c c c c c c c c c c c c c c c c c c c c c c c c j 3 X . . . . . . . : f c c c c c c c c c a - . . . . . . . X & 9 f j c c c c c c c c c c c c c c c j a 5 & X . . . . . . . . . . . . . X : p c c c c c c c c c c u & . . . . . . . . . . . ; g c c c c c c c c c k i : X . . . . . . . . . . . . . . X - 6 u f c c c c c c c c c c k j f w 3 $ X . . . . . . . X 1 j c c c c c c c c k p - . . . . . . . % e k c c c c c c c c c c c c c c c c c c c c c c c c c c c c c c c c c c c c c c c c ",
"v c c c c c c c c c c c c c c c c c c c c c c c c c c c c c c c c c c c c c c c k p - . . . . . . . + 9 k c c c c c c c c k w # . . . . . . . . + - 5 w g k k c c c c c c c k k g q 4 - X . . . . . . . . . . . . . . X : i k c c c c c c c c c j > . . . . . . . . . . . . X 5 j c c c c c c c c c k u - X . . . . . . . . . . . . . . . X $ , 8 0 e p f f f a u q 9 4 ; # . . . . . . . . . o , f c c c c c c c c c j 3 X . . . . . . o 5 j c c c c c c c c c c c c c c c c c c c c c c c c c c c c c c c c c c c c c c c c c ",
"v c c c c c c c c c c c c c c c c c c c c c c c c c c c c c c c c c c c c c c c c k 8 + . . . . . . . - p c c c c c c c c c k 0 $ . . . . . . . . . o # ; < 0 i a f f f a u 9 3 : # X . . . . . . . . . . . . . . . . ; u k c c c c c c c c c k 5 o . . . . . . . . . . . . . + 8 k c c c c c c c c c k p < X . . . . . . . . . . . . . . . . X O + # * - - - - % + + X . . . . . . . . . . X < f c c c c c c c c c k i & . . . . . . . , f k c c c c c c c c c c c c c c c c c c c c c c c c c c c c c c c c c c c c c c c c c ",
"v c c c c c c c c c c c c c c c c c c c c c c c c c c c c c c c c c c c c c c c c c j 7 X . . . . . . o 7 k c c c c c c c c c k 0 # . . . . . . . . . . . X o + # # # # # + o X . . . . . . . . . . . . . . . . . X - p k c c c c c c c c c k 9 + . . . . . . . . . . . . . . . % w k c c c c c c c c c k j 6 + . . . . . . . . . . . . . . . . . . . . . . . . . . . . . . . . . . . . . X , a c c c c c c c c c c j 3 X . . . . . . - f c c c c c c c c c c c c c c c c c c c c c c c c c c c c c c c c c c c c c c c c c c c ",
"v c c c c c c c c c c c c c c c c c c c c c c c c c c c c c c c c c c c c c c c c c c j , X . . . . . . * p c c c c c c c c c c k 9 # . . . . . . . . . . . . . . . . . . . . . . . . . . . . . . . . . . . . . + 4 j c c c c c c c c c c k q $ . . . . . . . . . . . . . . . . . - i k c c c c c c c c c c j 8 % X . . . . . . . . . . . . . . . . . . . . . . . . . . . . . . . . . . + 2 a c c c c c c c c c c k 0 + . . . . . . - f c c c c c c c c c c c c c c c c c c c c c c c c c c c c c c c c c c c c c c c c c c c c ",
"v c c c c c c c c c c c c c c c c c c c c c c c c c c c c c c c c c c c c c c c c c c c g < X . . . . . . , g c c c c c c c c c c j q - X . . . . . . . . . . . . . . . . . . . . . . . . . . . . . . . . . X * 8 j c c c c c c c c c c k i - . . . . . . . . . . . . . . . . . . X , p k c c c c c c c c c c k u 1 + . . . . . . . . . . . . . . . . . . . . . . . . . . . . . . . X * 0 j c c c c c c c c c c k w # . . . . . X = u k c c c c c c c c c c c c c c c c c c c c c c c c c c c c c c c c c c c c c c c c c c c c ",
"v c c c c c c c c c c c c c c c c c c c c c c c c c c c c c c c c c c c c c c c c c c c c a > X . . . . . X 3 g c c c c c c c c c c k p 3 # X . . . . . . . . . . . . . . . . . . . . . . . . . . . . . X # 3 i j c c c c c c c c c c c i : X . . . . . . . . . . . . . . . . . . . X ; i k c c c c c c c c c c c j 9 - + X . . . . . . . . . . . . . . . . . . . . . . . . . . X % 3 p k c c c c c c c c c c k e & . . . . . X - u k c c c c c c c c c c c c c c c c c c c c c c c c c c c c c c c c c c c c c c c c c c c c c ",
"v c c c c c c c c c c c c c c c c c c c c c c c c c c c c c c c c c c c c c c c c c c c c k p , X . . . . . o 4 j c c c c c c c c c c c j w : O . . . . . . . . . . . . . . . . . . . . . . . . . . . + , w j k c c c c c c c c c c k i - X . . . . . . . . . . . . . . . . . . . . . X * u c c c c c c c c c c c c k a 0 : o . . . . . . . . . . . . . . . . . . . . . . . . $ 2 u j k c c c c c c c c c c k i - X . . . . . : i k c c c c c c c c c c c c c c c c c c c c c c c c c c c c c c c c c c c c c c c c c c c c c c ",
"b c c c c c c c c c c c c c c c c c c c c c c c c c c c c c c c c c c c c c c c c c c c c c k g 2 X . . . . . + 8 k c c c c c c c c c c c k j q ; X . . . . . . . . . . . . . . . . . . . . . . . o , e j k c c c c c c c c c c c c i & . . . . . . . . . . . . . . . . . . . . . . . . . - p c c c c c c c c c c c c c k j q , + . . . . . . . . . . . . . . . . . . . . % 4 p k c c c c c c c c c c c c c f : X . . . . . - g c c c c c c c c c c c c c c c c c c c c c c c c c c c c c c c c c c c c c c c c c c c c c c c c ",
"b c c c c c c c c c c c c c c c c c c c c c c c c c c c c c c c c c c c c c c c c c c c c c c c j 3 o . . . . . # 9 j c c c c c c c c c c c c c g w , $ o X . . . . . . . . . . . . . . . X o # , u j c c c c c c c c c c c c c j u - . . . . . . . . . . . . . . . . . . . . . . . . . . X - e j c c c c c c c c c c c c c c j i 6 - # + X X X . . . . . . X X o # % < 9 a k c c c c c c c c c c c c c k p ; X . . . . o < f c c c c c c c c c c c c c c c c c c c c c c c c c c c c c c c c c c c c c c c c c c c c c c c c v ",
"b c c c c c c c c c c c c c c c c c c c c c c c c c c c c c c c c c c c c c c c c c c c c c c c c j 6 % . . . . . # 5 g c c c c c c c c c c c c c c j i 5 , * # + + + X X X X X o + + % - < 7 p j c c c c c c c c c c c c c c j 9 & X . . . . . . . . . . . . . . . . . . . . . . . . . . . . % 6 g c c c c c c c c c c c c c c c k j p q 5 2 < , - - ; ; > < 3 8 u f j k c c c c c c c c c c c c c c j e * . . . . . + 3 f c c c c c c c c c c c c c c c c c c c c c c c c c c c c c c c c c c c c c c c c c c c c c c c c c v ",
"b c c c c c c c c c c c c c c c c c c c c c c c c c c c c c c c c c c c c c c c c c c c c c c c c c j q & . . . . . o 2 f c c c c c c c c c c c c c c c k j p e q 0 9 3 1 1 1 1 6 0 q e a j k c c c c c c c c c c c c c c c f 5 # . . . . . . . . . . . . . . . . . . . . . . . . . . . . . . . O < u k c c c c c c c c c c c c c c c c k k k k j a f f f g k k k c c c c c c c c c c c c c c c c k a 6 & . . . . . # 5 f c c c c c c c c c c c c c c c c c c c c c c c c c c c c c c c c c c c c c c c c c c c c c c c c c c v ",
"n c c c c c c c c c c c c c c c c c c c c c c c c c c c c c c c c c c c c c c c c c c c c c c c c c c k e * . . . . . X , i k c c c c c c c c c c c c c c c c c c k k j j j j j k c c c c c c c c c c c c c c c c c c c k e : o . . . . . . . . . . . . . . . . . . . . . . . . . . . . . . . . . X & 7 g c c c c c c c c c c c c c c c c c c c c c c c c c c c c c c c c c c c c c c c c c c c k p : o . . . . . % q j c c c c c c c c c c c c c c c c c c c c c c c c c c c c c c c c c c c c c c c c c c c c c c c c c c c v ",
"n c c c c c c c c c c c c c c c c c c c c c c c c c c c c c c c c c c c c c c c c c c c c c c c c c c c c f , X . . . . . $ w k c c c c c c c c c c c c c c c c c c c c c c c c c c c c c c c c c c c c c c c c c c c j 7 # . . . . . . . . . . . . . . . . . . . . . . . . . . . . . . . . . . . . . X > a c c c c c c c c c c c c c c c c c c c c c c c c c c c c c c c c c c c c c c c c c j w # . . . . . . % i c c c c c c c c c c c c c c c c c c c c c c c c c c c c c c c c c c c c c c c c c c c c c c c c c c c c c b ",
"m c c c c c c c c c c c c c c c c c c c c c c c c c c c c c c c c c c c c c c c c c c c c c c c c c c c c c g 4 + . . . . . o 1 u j c c c c c c c c c c c c c c c c c c c c c c c c c c c c c c c c c c c c c c c g u , X . . . . . . . . . . . . . . . . . . . . . . . . . . . . . . . . . . . . . . . . # 6 p j c c c c c c c c c c c c c c c c c c c c c c c c c c c c c c c c c c c k g w , X . . . . . X & w k c c c c c c c c c c c c c c c c c c c c c c c c c c c c c c c c c c c c c c c c c c c c c c c c c c c c c b ",
"N c c c c c c c c c c c c c c c c c c c c c c c c c c c c c c c c c c c c c c c c c c c c c c c c c c c c c c f 4 + . . . . . . % 3 i j c c c c c c c c c c c c c c c c c c c c c c c c c c c c c c c c c c k j u 1 $ . . . . . . . . . . . . . . . . . . . . . . . . . . . . . . . . . . . . . . . . . . . X * 5 e j k c c c c c c c c c c c c c c c c c c c c c c c c c c c c c c k f 0 , # . . . . . . X ; e k c c c c c c c c c c c c c c c c c c c c c c c c c c c c c c c c c c c c c c c c c c c c c c c c c c c c c c n ",
"V c c c c c c c c c c c c c c c c c c c c c c c c c c c c c c c c c c c c c c c c c c c c c c c c c c c c c c c g 8 % . . . . . . o * 1 i j k c c c c c c c c c c c c c c c c c c c c c c c c c c c c c k j q < % X . . . . . . . . . . . . . . . . . . . . . . . . . . . . . . . . . . . . . . . . . . . . . . o % < 9 f j c c c c c c c c c c c c c c c c c c c c c c c c c k g i 6 ; + X . . . . . . X , p k c c c c c c c c c c c c c c c c c c c c c c c c c c c c c c c c c c c c c c c c c c c c c c c c c c c c c c c n ",
"A c c c c c c c c c c c c c c c c c c c c c c c c c c c c c c c c c c c c c c c c c c c c c c c c c c c c c c c c j u & . . . . . . . X # , q f k c c c c c c c c c c c c c c c c c c c c c c c c c j a q - + X . . . . . . . . . . . . . . . . . . . . . . . . . . . . . . . . . . . . . . . . . . . . . . . . . . X + & 2 e a j c c c c c c c c c c c c c c c c c c c k j i 9 - # o . . . . . . . . o 1 g k c c c c c c c c c c c c c c c c c c c c c c c c c c c c c c c c c c c c c c c c c c c c c c c c c c c c c c c c M ",
"F c c c c c c c c c c c c c c c c c c c c c c c c c c c c c c c c c c c c c c c c c c c c c c c c c c c c c c c c c c i - X . . . . . . . . X & 4 e f j k k c c c c c c c c c c c c c c k k k j a 0 < # X . . . . . . . . . . . . . . . . . . . . . . . . . . . . . . . . . . . . . . . . . . . . . . . . . . . . . . . . . X % , 6 u g j j j j k k k k k k j j j f i 0 5 ; o . . . . . . . . . . . + 6 j c c c c c c c c c c c c c c c c c c c c c c c c c c c c c c c c c c c c c c c c c c c c c c c c c c c c c c c c c c V ",
"9.c c c c c c c c c c c c c c c c c c c c c c c c c c c c c c c c c c c c c c c c c c c c c c c c c c c c c c c c c c k p < o . . . . . . . . . . + % - 1 0 u i p f f j j j g g f p i u w 0 4 - $ X . . . . . . . . . . . . . . . . . . . . . . . . . . . . . . . . . . . . . . . . . . . . . . . . . . . . . . . . . . . . . . . . + & * ; : > 4 7 6 6 6 6 ; - * % @ o X . . . . . . . . . . . . + 8 j c c c c c c c c c c c c c c c c c c c c c c c c c c c c c c c c c c c c c c c c c c c c c c c c c c c c c c c c c c c A ",
"v.c c c c c c c c c c c c c c c c c c c c c c c c c c c c c c c c c c c c c c c c c c c c c c c c c c c c c c c c c c c k f 3 o . . . . . . . . . . . . X o # % * - ; < < < < < > * & # + o X . . . . . . . . . . . . . . . . . . . . . . . . . . . . . . . . . . . . . . . . . . . . . . . . . . . . . . . . . . . . . . . . . . . . . . . . . X X X X X X . . . . . . . . . . . . . . . . . . # 7 j c c c c c c c c c c c c c c c c c c c c c c c c c c c c c c c c c c c c c c c c c c c c c c c c c c c c c c c c c c c c F ",
"S.n c c c c c c c c c c c c c c c c c c c c c c c c c c c c c c c c c c c c c c c c c c c c c c c c c c c c c c c c c c c c g 5 + . . . . . . . . . . . . . . . . . . . X X X X . . . . . . . . . . . . . . . . . . . . . . . . . . . . . . . . . . . . . . . . . . . . . . . . . . . . . . . . . . . . . . . . . . . . . . . . . . . . . . . . . . . . . . . . . . . . . . . . . . . . . . X - w j c c c c c c c c c c c c c c c c c c c c c c c c c c c c c c c c c c c c c c c c c c c c c c c c c c c c c c c c c c c c c u.",
"S.B c c c c c c c c c c c c c c c c c c c c c c c c c c c c c c c c c c c c c c c c c c c c c c c c c c c c c c c c c c c c c j q & . . . . . . . . . . . . . . . . . . . . . . . . . . . . . . . . . . . . . . . . . . . . . . . . . . . . . . . . . . . . . . . . . . . . . . . . . . . . . . . . . . . . . . . . . . . . . . . . . . . . . . . . . . . . . . . . . . . . . . . . . . . . - i k c c c c c c c c c c c c c c c c c c c c c c c c c c c c c c c c c c c c c c c c c c c c c c c c c c c c c c c c c c c c c v M.",
"S.A c c c c c c c c c c c c c c c c c c c c c c c c c c c c c c c c c c c c c c c c c c c c c c c c c c c c c c c c c c c c c c k e & X . . . . . . . . . . . . . . . . . . . . . . . . . . . . . . . . . . . . . . . . . . . . . . . . . . . . . . . . . . . . . . . . . . . . . . . . . . . . . . . . . . . . . . . . . . . . . . . . . . . . . . . . . . . . . . . . . . . . . . . . X : p k c c c c c c c c c c c c c c c c c c c c c c c c c c c c c c c c c c c c c c c c c c c c c c c c c c c c c c c c c c c c c c M S.",
":.T c c c c c c c c c c c c c c c c c c c c c c c c c c c c c c c c c c c c c c c c c c c c c c c c c c c c c c c c c c c c c c c k u - X . . . . . . . . . . . . . . . . . . . . . . . . . . . . . . . . . . . . . . . . . . . . . . . . . . . . . . . . . . . . . . . . . . . . . . . . . . . . . . . . . . . . . . . . . . . . . . . . . . . . . . . . . . . . . . . . . . . . . . X < f c c c c c c c c c c c c c c c c c c c c c c c c c c c c c c c c c c c c c c c c c c c c c c c c c c c c c c c c c c c c c c c c C S.",
":.k.v c c c c c c c c c c c c c c c c c c c c c c c c c c c c c c c c c c c c c c c c c c c c c c c c c c c c c c c c c c c c c c c k p 3 o . . . . . . . . . . . . . . . . . . . . . . . . . . . . . . . . . . . . . . . . . . . . . . . . . . . . . . . . . . . . . . . . . . . . . . . . . . . . . . . . . . . . . . . . . . . . . . . . . . . . . . . . . . . . . . . . . . . . o 1 g c c c c c c c c c c c c c c c c c c c c c c c c c c c c c c c c c c c c c c c c c c c c c c c c c c c c c c c c c c c c c c c c c D :.",
":.M.m c c c c c c c c c c c c c c c c c c c c c c c c c c c c c c c c c c c c c c c c c c c c c c c c c c c c c c c c c c c c c c c c c g 3 + . . . . . . . . . . . . . . . . . . . . . . . . . . . . . . . . . . . . . . . . . . . . . . . . . . . . . . . . . . . . . . . . . . . . . . . . . . . . . . . . . . . . . . . . . . . . . . . . . . . . . . . . . . . . . . . . . . + 5 g c c c c c c c c c c c c c c c c c c c c c c c c c c c c c c c c c c c c c c c c c c c c c c c c c c c c c c c c c c c c c c c c c c s.:.",
"S.M.V c c c c c c c c c c c c c c c c c c c c c c c c c c c c c c c c c c c c c c c c c c c c c c c c c c c c c c c c c c c c c c c c c c j 7 + . . . . . . . . . . . . . . . . . . . . . . . . . . . . . . . . . . . . . . . . . . . . . . . . . . . . . . . . . . . . . . . . . . . . . . . . . . . . . . . . . . . . . . . . . . . . . . . . . . . . . . . . . . . . . . . . # 9 j c c c c c c c c c c c c c c c c c c c c c c c c c c c c c c c c c c c c c c c c c c c c c c c c c c c c c c c c c c c c c c c c c c n M.:.",
"  S.S c c c c c c c c c c c c c c c c c c c c c c c c c c c c c c c c c c c c c c c c c c c c c c c c c c c c c c c c c c c c c c c c c c c k 0 % . . . . . . . . . . . . . . . . . . . . . . . . . . . . . . . . . . . . . . . . . . . . . . . . . . . . . . . . . . . . . . . . . . . . . . . . . . . . . . . . . . . . . . . . . . . . . . . . . . . . . . . . . . . . . . % 0 k c c c c c c c c c c c c c c c c c c c c c c c c c c c c c c c c c c c c c c c c c c c c c c c c c c c c c c c c c c c c c c c c c c c B M.:.",
"  S.T v c c c c c c c c c c c c c c c c c c c c c c c c c c c c c c c c c c c c c c c c c c c c c c c c c c c c c c c c c c c c c c c c c c c k w = X . . . . . . . . . . . . . . . . . . . . . . . . . . . . . . . . . . . . . . . . . . . . . . . . . . . . . . . . . . . . . . . . . . . . . . . . . . . . . . . . . . . . . . . . . . . . . . . . . . . . . . . . . . X * w k c c c c c c c c c c c c c c c c c c c c c c c c c c c c c c c c c c c c c c c c c c c c c c c c c c c c c c c c c c c c c c c c c c c c S S.  ",
"  S.e.m c c c c c c c c c c c c c c c c c c c c c c c c c c c c c c c c c c c c c c c c c c c c c c c c c c c c c c c c c c c c c c c c c c c c k i , o . . . . . . . . . . . . . . . . . . . . . . . . . . . . . . . . . . . . . . . . . . . . . . . . . . . . . . . . . . . . . . . . . . . . . . . . . . . . . . . . . . . . . . . . . . . . . . . . . . . . . . . . X : i c c c c c c c c c c c c c c c c c c c c c c c c c c c c c c c c c c c c c c c c c c c c c c c c c c c c c c c c c c c c c c c c c c c c c v I S.  ",
"  _ k.B c c c c c c c c c c c c c c c c c c c c c c c c c c c c c c c c c c c c c c c c c c c c c c c c c c c c c c c c c c c c c c c c c c c c c k f 3 o . . . . . . . . . . . . . . . . . . . . . . . . . . . . . . . . . . . . . . . . . . . . . . . . . . . . . . . . . . . . . . . . . . . . . . . . . . . . . . . . . . . . . . . . . . . . . . . . . . . . . . X : p k c c c c c c c c c c c c c c c c c c c c c c c c c c c c c c c c c c c c c c c c c c c c c c c c c c c c c c c c c c c c c c c c c c c c c m e.S.  ",
"    S.A c c c c c c c c c c c c c c c c c c c c c c c c c c c c c c c c c c c c c c c c c c c c c c c c c c c c c c c c c c c c c c c c c c c c c c c j 2 X . . . . . . . . . . . . . . . . . . . . . . . . . . . . . . . . . . . . . . . . . . . . . . . . . . . . . . . . . . . . . . . . . . . . . . . . . . . . . . . . . . . . . . . . . . . . . . . . . . . . X , f c c c c c c c c c c c c c c c c c c c c c c c c c c c c c c c c c c c c c c c c c c c c c c c c c c c c c c c c c c c c c c c c c c c c c c c B k.y   ",
"    S.F b c c c c c c c c c c c c c c c c c c c c c c c c c c c c c c c c c c c c c c c c c c c c c c c c c c c c c c c c c c c c c c c c c c c c c c c j 8 # . . . . . . . . . . . . . . . . . . . . . . . . . . . . . . . . . . . . . . . . . . . . . . . . . . . . . . . . . . . . . . . . . . . . . . . . . . . . . . . . . . . . . . . . . . . . . . . . . . + 4 j c c c c c c c c c c c c c c c c c c c c c c c c c c c c c c c c c c c c c c c c c c c c c c c c c c c c c c c c c c c c c c c c c c c c c c c c A M.    ",
"    +.u.m c c c c c c c c c c c c c c c c c c c c c c c c c c c c c c c c c c c c c c c c c c c c c c c c c c c c c c c c c c c c c c c c c c c c c c c c k w * X . . . . . . . . . . . . . . . . . . . . . . . . . . . . . . . . . . . . . . . . . . . . . . . . . . . . . . . . . . . . . . . . . . . . . . . . . . . . . . . . . . . . . . . . . . . . . . . # 6 j c c c c c c c c c c c c c c c c c c c c c c c c c c c c c c c c c c c c c c c c c c c c c c c c c c c c c c c c c c c c c c c c c c c c c c c c b H S.    ",
"      M.B c c c c c c c c c c c c c c c c c c c c c c c c c c c c c c c c c c c c c c c c c c c c c c c c c c c c c c c c c c c c c c c c c c c c c c c c c k e ; X . . . . . . . . . . . . . . . . . . . . . . . . . . . . . . . . . . . . . . . . . . . . . . . . . . . . . . . . . . . . . . . . . . . . . . . . . . . . . . . . . . . . . . . . . . . . . & 9 j c c c c c c c c c c c c c c c c c c c c c c c c c c c c c c c c c c c c c c c c c c c c c c c c c c c c c c c c c c c c c c c c c c c c c c c c c M u.]     ",
"      S.S v c c c c c c c c c c c c c c c c c c c c c c c c c c c c c c c c c c c c c c c c c c c c c c c c c c c c c c c c c c c c c c c c c c c c c c c c c k a < X . . . . . . . . . . . . . . . . . . . . . . . . . . . . . . . . . . . . . . . . . . . . . . . . . . . . . . . . . . . . . . . . . . . . . . . . . . . . . . . . . . . . . . . . . . . & e k c c c c c c c c c c c c c c c c c c c c c c c c c c c c c c c c c c c c c c c c c c c c c c c c c c c c c c c c c c c c c c c c c c c c c c c c c c V M.      ",
"       .u.b c c c c c c c c c c c c c c c c c c c c c c c c c c c c c c c c c c c c c c c c c c c c c c c c c c c c c c c c c c c c c c c c c c c c c c c c c c c j 4 X . . . . . . . . . . . . . . . . . . . . . . . . . . . . . . . . . . . . . . . . . . . . . . . . . . . . . . . . . . . . . . . . . . . . . . . . . . . . . . . . . . . . . . . . X $ u c c c c c c c c c c c c c c c c c c c c c c c c c c c c c c c c c c c c c c c c c c c c c c c c c c c c c c c c c c c c c c c c c c c c c c c c c c c v D S.      ",
"      ] S.N c c c c c c c c c c c c c c c c c c c c c c c c c c c c c c c c c c c c c c c c c c c c c c c c c c c c c c c c c c c c c c c c c c c c c c c c c c c c j 4 # . . . . . . . . . . . . . . . . . . . . . . . . . . . . . . . . . . . . . . . . . . . . . . . . . . . . . . . . . . . . . . . . . . . . . . . . . . . . . . . . . . . . . . X ; p k c c c c c c c c c c c c c c c c c c c c c c c c c c c c c c c c c c c c c c c c c c c c c c c c c c c c c c c c c c c c c c c c c c c c c c c c c c c b s.]       ",
"        :.D c c c c c c c c c c c c c c c c c c c c c c c c c c c c c c c c c c c c c c c c c c c c c c c c c c c c c c c c c c c c c c c c c c c c c c c c c c c c c j 8 % . . . . . . . . . . . . . . . . . . . . . . . . . . . . . . . . . . . . . . . . . . . . . . . . . . . . . . . . . . . . . . . . . . . . . . . . . . . . . . . . . . . . o < a c c c c c c c c c c c c c c c c c c c c c c c c c c c c c c c c c c c c c c c c c c c c c c c c c c c c c c c c c c c c c c c c c c c c c c c c c c c c c B S. .      ",
"        +.v.v c c c c c c c c c c c c c c c c c c c c c c c c c c c c c c c c c c c c c c c c c c c c c c c c c c c c c c c c c c c c c c c c c c c c c c c c c c c c c j q & . . . . . . . . . . . . . . . . . . . . . . . . . . . . . . . . . . . . . . . . . . . . . . . . . . . . . . . . . . . . . . . . . . . . . . . . . . . . . . . . . . o 2 a k c c c c c c c c c c c c c c c c c c c c c c c c c c c c c c c c c c c c c c c c c c c c c c c c c c c c c c c c c c c c c c c c c c c c c c c c c c c c c H =.        ",
"        :.S.V c c c c c c c c c c c c c c c c c c c c c c c c c c c c c c c c c c c c c c c c c c c c c c c c c c c c c c c c c c c c c c c c c c c c c c c c c c c c c c k i ; X . . . . . . . . . . . . . . . . . . . . . . . . . . . . . . . . . . . . . . . . . . . . . . . . . . . . . . . . . . . . . . . . . . . . . . . . . . . . . . . o 6 j k c c c c c c c c c c c c c c c c c c c c c c c c c c c c c c c c c c c c c c c c c c c c c c c c c c c c c c c c c c c c c c c c c c c c c c c c c c c c c b M.+.        ",
"          :.2.c c c c c c c c c c c c c c c c c c c c c c c c c c c c c c c c c c c c c c c c c c c c c c c c c c c c c c c c c c c c c c c c c c c c c c c c c c c c c c c c j < o . . . . . . . . . . . . . . . . . . . . . . . . . . . . . . . . . . . . . . . . . . . . . . . . . . . . . . . . . . . . . . . . . . . . . . . . . . . . . + 9 k c c c c c c c c c c c c c c c c c c c c c c c c c c c c c c c c c c c c c c c c c c c c c c c c c c c c c c c c c c c c c c c c c c c c c c c c c c c c c c c Z S.:.        ",
"          :.v.M c c c c c c c c c c c c c c c c c c c c c c c c c c c c c c c c c c c c c c c c c c c c c c c c c c c c c c c c c c c c c c c c c c c c c c c c c c c c c c c c g 1 + . . . . . . . . . . . . . . . . . . . . . . . . . . . . . . . . . . . . . . . . . . . . . . . . . . . . . . . . . . . . . . . . . . . . . . . . . . X $ 7 k c c c c c c c c c c c c c c c c c c c c c c c c c c c c c c c c c c c c c c c c c c c c c c c c c c c c c c c c c c c c c c c c c c c c c c c c c c c c c c c v e.:.          ",
"          ] M.A c c c c c c c c c c c c c c c c c c c c c c c c c c c c c c c c c c c c c c c c c c c c c c c c c c c c c c c c c c c c c c c c c c c c c c c c c c c c c c c c k f 5 # . . . . . . . . . . . . . . . . . . . . . . . . . . . . . . . . . . . . . . . . . . . . . . . . . . . . . . . . . . . . . . . . . . . . . . . . X - q j c c c c c c c c c c c c c c c c c c c c c c c c c c c c c c c c c c c c c c c c c c c c c c c c c c c c c c c c c c c c c c c c c c c c c c c c c c c c c c c c B v.S.          ",
"            S.2.n c c c c c c c c c c c c c c c c c c c c c c c c c c c c c c c c c c c c c c c c c c c c c c c c c c c c c c c c c c c c c c c c c c c c c c c c c c c c c c c c c j e & . . . . . . . . . . . . . . . . . . . . . . . . . . . . . . . . . . . . . . . . . . . . . . . . . . . . . . . . . . . . . . . . . . . . . . . - i k c c c c c c c c c c c c c c c c c c c c c c c c c c c c c c c c c c c c c c c c c c c c c c c c c c c c c c c c c c c c c c c c c c c c c c c c c c c c c c c c c D S.            ",
"             .v.V c c c c c c c c c c c c c c c c c c c c c c c c c c c c c c c c c c c c c c c c c c c c c c c c c c c c c c c c c c c c c c c c c c c c c c c c c c c c c c c c c c k u * . . . . . . . . . . . . . . . . . . . . . . . . . . . . . . . . . . . . . . . . . . . . . . . . . . . . . . . . . . . . . . . . . . . . X - f c c c c c c c c c c c c c c c c c c c c c c c c c c c c c c c c c c c c c c c c c c c c c c c c c c c c c c c c c c c c c c c c c c c c c c c c c c c c c c c c c c m e.S.            ",
"              S.D v c c c c c c c c c c c c c c c c c c c c c c c c c c c c c c c c c c c c c c c c c c c c c c c c c c c c c c c c c c c c c c c c c c c c c c c c c c c c c c c c c c c p > o . . . . . . . . . . . . . . . . . . . . . . . . . . . . . . . . . . . . . . . . . . . . . . . . . . . . . . . . . . . . . . . . . + 2 g c c c c c c c c c c c c c c c c c c c c c c c c c c c c c c c c c c c c c c c c c c c c c c c c c c c c c c c c c c c c c c c c c c c c c c c c c c c c c c c c c c c C M.y             ",
"              +.s.M c c c c c c c c c c c c c c c c c c c c c c c c c c c c c c c c c c c c c c c c c c c c c c c c c c c c c c c c c c c c c c c c c c c c c c c c c c c c c c c c c c c k f 2 o . . . . . . . . . . . . . . . . . . . . . . . . . . . . . . . . . . . . . . . . . . . . . . . . . . . . . . . . . . . . . . . + 3 f c c c c c c c c c c c c c c c c c c c c c c c c c c c c c c c c c c c c c c c c c c c c c c c c c c c c c c c c c c c c c c c c c c c c c c c c c c c c c c c c c c c n H :.              ",
"                S.A c c c c c c c c c c c c c c c c c c c c c c c c c c c c c c c c c c c c c c c c c c c c c c c c c c c c c c c c c c c c c c c c c c c c c c c c c c c c c c c c c c c c c f 3 + . . . . . . . . . . . . . . . . . . . . . . . . . . . . . . . . . . . . . . . . . . . . . . . . . . . . . . . . . . . . . + 4 f c c c c c c c c c c c c c c c c c c c c c c c c c c c c c c c c c c c c c c c c c c c c c c c c c c c c c c c c c c c c c c c c c c c c c c c c c c c c c c c c c c c c B v._               ",
"                +.s.b c c c c c c c c c c c c c c c c c c c c c c c c c c c c c c c c c c c c c c c c c c c c c c c c c c c c c c c c c c c c c c c c c c c c c c c c c c c c c c c c c c c c c j 0 % . . . . . . . . . . . . . . . . . . . . . . . . . . . . . . . . . . . . . . . . . . . . . . . . . . . . . . . . . . . # 0 j c c c c c c c c c c c c c c c c c c c c c c c c c c c c c c c c c c c c c c c c c c c c c c c c c c c c c c c c c c c c c c c c c c c c c c c c c c c c c c c c c c c c v F S.                ",
"                 .S.A c c c c c c c c c c c c c c c c c c c c c c c c c c c c c c c c c c c c c c c c c c c c c c c c c c c c c c c c c c c c c c c c c c c c c c c c c c c c c c c c c c c c c c k w % . . . . . . . . . . . . . . . . . . . . . . . . . . . . . . . . . . . . . . . . . . . . . . . . . . . . . . . . . # e c c c c c c c c c c c c c c c c c c c c c c c c c c c c c c c c c c c c c c c c c c c c c c c c c c c c c c c c c c c c c c c c c c c c c c c c c c c c c c c c c c c c c c m S._                 ",
"                  =.k.b c c c c c c c c c c c c c c c c c c c c c c c c c c c c c c c c c c c c c c c c c c c c c c c c c c c c c c c c c c c c c c c c c c c c c c c c c c c c c c c c c c c c c c k w - X . . . . . . . . . . . . . . . . . . . . . . . . . . . . . . . . . . . . . . . . . . . . . . . . . . . . . X * w k c c c c c c c c c c c c c c c c c c c c c c c c c c c c c c c c c c c c c c c c c c c c c c c c c c c c c c c c c c c c c c c c c c c c c c c c c c c c c c c c c c c c c c H :.                  ",
"                   .S.A c c c c c c c c c c c c c c c c c c c c c c c c c c c c c c c c c c c c c c c c c c c c c c c c c c c c c c c c c c c c c c c c c c c c c c c c c c c c c c c c c c c c c c c k p < X . . . . . . . . . . . . . . . . . . . . . . . . . . . . . . . . . . . . . . . . . . . . . . . . . . . X : u k c c c c c c c c c c c c c c c c c c c c c c c c c c c c c c c c c c c c c c c c c c c c c c c c c c c c c c c c c c c c c c c c c c c c c c c c c c c c c c c c c c c c c c M S.=.                  ",
"                    :.u.m c c c c c c c c c c c c c c c c c c c c c c c c c c c c c c c c c c c c c c c c c c c c c c c c c c c c c c c c c c c c c c c c c c c c c c c c c c c c c c c c c c c c c c c c g 2 o . . . . . . . . . . . . . . . . . . . . . . . . . . . . . . . . . . . . . . . . . . . . . . . . . X : p k c c c c c c c c c c c c c c c c c c c c c c c c c c c c c c c c c c c c c c c c c c c c c c c c c c c c c c c c c c c c c c c c c c c c c c c c c c c c c c c c c c c c c c v I :.                    ",
"                    / M.A c c c c c c c c c c c c c c c c c c c c c c c c c c c c c c c c c c c c c c c c c c c c c c c c c c c c c c c c c c c c c c c c c c c c c c c c c c c c c c c c c c c c c c c c c g 5 + . . . . . . . . . . . . . . . . . . . . . . . . . . . . . . . . . . . . . . . . . . . . . . . X 3 f k c c c c c c c c c c c c c c c c c c c c c c c c c c c c c c c c c c c c c c c c c c c c c c c c c c c c c c c c c c c c c c c c c c c c c c c c c c c c c c c c c c c c c c c B v.S.                    ",
"                      S.9.m c c c c c c c c c c c c c c c c c c c c c c c c c c c c c c c c c c c c c c c c c c c c c c c c c c c c c c c c c c c c c c c c c c c c c c c c c c c c c c c c c c c c c c c c c j 8 # . . . . . . . . . . . . . . . . . . . . . . . . . . . . . . . . . . . . . . . . . . . . . + 5 j c c c c c c c c c c c c c c c c c c c c c c c c c c c c c c c c c c c c c c c c c c c c c c c c c c c c c c c c c c c c c c c c c c c c c c c c c c c c c c c c c c c c c c c c v H S.                      ",
"                      Q M.A v c c c c c c c c c c c c c c c c c c c c c c c c c c c c c c c c c c c c c c c c c c c c c c c c c c c c c c c c c c c c c c c c c c c c c c c c c c c c c c c c c c c c c c c c c k q & X . . . . . . . . . . . . . . . . . . . . . . . . . . . . . . . . . . . . . . . . . . @ 5 j c c c c c c c c c c c c c c c c c c c c c c c c c c c c c c c c c c c c c c c c c c c c c c c c c c c c c c c c c c c c c c c c c c c c c c c c c c c c c c c c c c c c c c c c c B k.=.                      ",
"                        =.u.m c c c c c c c c c c c c c c c c c c c c c c c c c c c c c c c c c c c c c c c c c c c c c c c c c c c c c c c c c c c c c c c c c c c c c c c c c c c c c c c c c c c c c c c c c c k u : X . . . . . . . . . . . . . . . . . . . . . . . . . . . . . . . . . . . . . . . . % 8 g c c c c c c c c c c c c c c c c c c c c c c c c c c c c c c c c c c c c c c c c c c c c c c c c c c c c c c c c c c c c c c c c c c c c c c c c c c c c c c c c c c c c c c c c c b H S.                        ",
"                          S.D c c c c c c c c c c c c c c c c c c c c c c c c c c c c c c c c c c c c c c c c c c c c c c c c c c c c c c c c c c c c c c c c c c c c c c c c c c c c c c c c c c c c c c c c c c c c p 1 o . . . . . . . . . . . . . . . . . . . . . . . . . . . . . . . . . . . . . . - u j c c c c c c c c c c c c c c c c c c c c c c c c c c c c c c c c c c c c c c c c c c c c c c c c c c c c c c c c c c c c c c c c c c c c c c c c c c c c c c c c c c c c c c c c c c V M.]                         ",
"                           .M.M c c c c c c c c c c c c c c c c c c c c c c c c c c c c c c c c c c c c c c c c c c c c c c c c c c c c c c c c c c c c c c c c c c c c c c c c c c c c c c c c c c c c c c c c c c c c f < X . . . . . . . . . . . . . . . . . . . . . . . . . . . . . . . . . . . . * u k c c c c c c c c c c c c c c c c c c c c c c c c c c c c c c c c c c c c c c c c c c c c c c c c c c c c c c c c c c c c c c c c c c c c c c c c c c c c c c c c c c c c c c c c c c v u.=.                          ",
"                            :.u.v c c c c c c c c c c c c c c c c c c c c c c c c c c c c c c c c c c c c c c c c c c c c c c c c c c c c c c c c c c c c c c c c c c c c c c c c c c c c c c c c c c c c c c c c c c c c j 5 + . . . . . . . . . . . . . . . . . . . . . . . . . . . . . . . . . X ; i c c c c c c c c c c c c c c c c c c c c c c c c c c c c c c c c c c c c c c c c c c c c c c c c c c c c c c c c c c c c c c c c c c c c c c c c c c c c c c c c c c c c c c c c c c c c S S. .                          ",
"                             .S.A c c c c c c c c c c c c c c c c c c c c c c c c c c c c c c c c c c c c c c c c c c c c c c c c c c c c c c c c c c c c c c c c c c c c c c c c c c c c c c c c c c c c c c c c c c c c c j q % . . . . . . . . . . . . . . . . . . . . . . . . . . . . . . . X , p k c c c c c c c c c c c c c c c c c c c c c c c c c c c c c c c c c c c c c c c c c c c c c c c c c c c c c c c c c c c c c c c c c c c c c c c c c c c c c c c c c c c c c c c c c c c N M.:.                            ",
"                              S.u.M c c c c c c c c c c c c c c c c c c c c c c c c c c c c c c c c c c c c c c c c c c c c c c c c c c c c c c c c c c c c c c c c c c c c c c c c c c c c c c c c c c c c c c c c c c c c c k q - X . . . . . . . . . . . . . . . . . . . . . . . . . . . . + 3 f c c c c c c c c c c c c c c c c c c c c c c c c c c c c c c c c c c c c c c c c c c c c c c c c c c c c c c c c c c c c c c c c c c c c c c c c c c c c c c c c c c c c c c c c c c c c b I S.                              ",
"                              y M.D b c c c c c c c c c c c c c c c c c c c c c c c c c c c c c c c c c c c c c c c c c c c c c c c c c c c c c c c c c c c c c c c c c c c c c c c c c c c c c c c c c c c c c c c c c c c c c k i , X . . . . . . . . . . . . . . . . . . . . . . . . . . # 7 g c c c c c c c c c c c c c c c c c c c c c c c c c c c c c c c c c c c c c c c c c c c c c c c c c c c c c c c c c c c c c c c c c c c c c c c c c c c c c c c c c c c c c c c c c c c c c Z v.+.                              ",
"                                +.v.V c c c c c c c c c c c c c c c c c c c c c c c c c c c c c c c c c c c c c c c c c c c c c c c c c c c c c c c c c c c c c c c c c c c c c c c c c c c c c c c c c c c c c c c c c c c c c c c j , . . . . . . . . . . . . . . . . . . . . . . . . . @ 9 j c c c c c c c c c c c c c c c c c c c c c c c c c c c c c c c c c c c c c c c c c c c c c c c c c c c c c c c c c c c c c c c c c c c c c c c c c c c c c c c c c c c c c c c c c c c c c M e.S.                                ",
"                                  :.9.n c c c c c c c c c c c c c c c c c c c c c c c c c c c c c c c c c c c c c c c c c c c c c c c c c c c c c c c c c c c c c c c c c c c c c c c c c c c c c c c c c c c c c c c c c c c c c c c j 2 + . . . . . . . . . . . . . . . . . . . . . . # 7 j c c c c c c c c c c c c c c c c c c c c c c c c c c c c c c c c c c c c c c c c c c c c c c c c c c c c c c c c c c c c c c c c c c c c c c c c c c c c c c c c c c c c c c c c c c c c c v D S.                                  ",
"                                  _ :.S c c c c c c c c c c c c c c c c c c c c c c c c c c c c c c c c c c c c c c c c c c c c c c c c c c c c c c c c c c c c c c c c c c c c c c c c c c c c c c c c c c c c c c c c c c c c c c c c j 7 % . . . . . . . . . . . . . . . . . . . X * q k c c c c c c c c c c c c c c c c c c c c c c c c c c c c c c c c c c c c c c c c c c c c c c c c c c c c c c c c c c c c c c c c c c c c c c c c c c c c c c c c c c c c c c c c c c c c c c V M.+.                                  ",
"                                    =.M.C c c c c c c c c c c c c c c c c c c c c c c c c c c c c c c c c c c c c c c c c c c c c c c c c c c c c c c c c c c c c c c c c c c c c c c c c c c c c c c c c c c c c c c c c c c c c c c c c j 0 & . . . . . . . . . . . . . . . . . X - u c c c c c c c c c c c c c c c c c c c c c c c c c c c c c c c c c c c c c c c c c c c c c c c c c c c c c c c c c c c c c c c c c c c c c c c c c c c c c c c c c c c c c c c c c c c c c c c m s.=.                                    ",
"                                      :.k.M c c c c c c c c c c c c c c c c c c c c c c c c c c c c c c c c c c c c c c c c c c c c c c c c c c c c c c c c c c c c c c c c c c c c c c c c c c c c c c c c c c c c c c c c c c c c c c c c j u = X . . . . . . . . . . . . . . X > i k c c c c c c c c c c c c c c c c c c c c c c c c c c c c c c c c c c c c c c c c c c c c c c c c c c c c c c c c c c c c c c c c c c c c c c c c c c c c c c c c c c c c c c c c c c c c c c v 9.:. .                                    ",
"                                      ] S.2.b c c c c c c c c c c c c c c c c c c c c c c c c c c c c c c c c c c c c c c c c c c c c c c c c c c c c c c c c c c c c c c c c c c c c c c c c c c c c c c c c c c c c c c c c c c c c c c c c c j , X . . . . . . . . . . . . X 1 g c c c c c c c c c c c c c c c c c c c c c c c c c c c c c c c c c c c c c c c c c c c c c c c c c c c c c c c c c c c c c c c c c c c c c c c c c c c c c c c c c c c c c c c c c c c c c c c c S S.:.                                      ",
"                                        =.M.A v c c c c c c c c c c c c c c c c c c c c c c c c c c c c c c c c c c c c c c c c c c c c c c c c c c c c c c c c c c c c c c c c c c c c c c c c c c c c c c c c c c c c c c c c c c c c c c c c c g < o . . . . . . . . . . o 2 j c c c c c c c c c c c c c c c c c c c c c c c c c c c c c c c c c c c c c c c c c c c c c c c c c c c c c c c c c c c c c c c c c c c c c c c c c c c c c c c c c c c c c c c c c c c c c c c c V k.:.                                        ",
"                                          +.s.V c c c c c c c c c c c c c c c c c c c c c c c c c c c c c c c c c c c c c c c c c c c c c c c c c c c c c c c c c c c c c c c c c c c c c c c c c c c c c c c c c c c c c c c c c c c c c c c c c k f 3 # . . . . . . . . # 5 j c c c c c c c c c c c c c c c c c c c c c c c c c c c c c c c c c c c c c c c c c c c c c c c c c c c c c c c c c c c c c c c c c c c c c c c c c c c c c c c c c c c c c c c c c c c c c c c c m 9.:.                                          ",
"                                            =.e.m c c c c c c c c c c c c c c c c c c c c c c c c c c c c c c c c c c c c c c c c c c c c c c c c c c c c c c c c c c c c c c c c c c c c c c c c c c c c c c c c c c c c c c c c c c c c c c c c c c g 9 # . . . . . . % 9 j c c c c c c c c c c c c c c c c c c c c c c c c c c c c c c c c c c c c c c c c c c c c c c c c c c c c c c c c c c c c c c c c c c c c c c c c c c c c c c c c c c c c c c c c c c c c c c c c b F S._                                           ",
"                                              S.9.v c c c c c c c c c c c c c c c c c c c c c c c c c c c c c c c c c c c c c c c c c c c c c c c c c c c c c c c c c c c c c c c c c c c c c c c c c c c c c c c c c c c c c c c c c c c c c c c c c c k u % . . . . % q j c c c c c c c c c c c c c c c c c c c c c c c c c c c c c c c c c c c c c c c c c c c c c c c c c c c c c c c c c c c c c c c c c c c c c c c c c c c c c c c c c c c c c c c c c c c c c c c c c S M.]                                             ",
"                                              +.S.L v c c c c c c c c c c c c c c c c c c c c c c c c c c c c c c c c c c c c c c c c c c c c c c c c c c c c c c c c c c c c c c c c c c c c c c c c c c c c c c c c c c c c c c c c c c c c c c c c c c c i ; X . & u k c c c c c c c c c c c c c c c c c c c c c c c c c c c c c c c c c c c c c c c c c c c c c c c c c c c c c c c c c c c c c c c c c c c c c c c c c c c c c c c c c c c c c c c c c c c c c c c c c V S.=.                                              ",
"                                                :.M.A v c c c c c c c c c c c c c c c c c c c c c c c c c c c c c c c c c c c c c c c c c c c c c c c c c c c c c c c c c c c c c c c c c c c c c c c c c c c c c c c c c c c c c c c c c c c c c c c c c c k a 1 , a c c c c c c c c c c c c c c c c c c c c c c c c c c c c c c c c c c c c c c c c c c c c c c c c c c c c c c c c c c c c c c c c c c c c c c c c c c c c c c c c c c c c c c c c c c c c c c c c c c N v.:.                                                ",
"                                                  =.k.V c c c c c c c c c c c c c c c c c c c c c c c c c c c c c c c c c c c c c c c c c c c c c c c c c c c c c c c c c c c c c c c c c c c c c c c c c c c c c c c c c c c c c c c c c c c c c c c c c c c k j j c c c c c c c c c c c c c c c c c c c c c c c c c c c c c c c c c c c c c c c c c c c c c c c c c c c c c c c c c c c c c c c c c c c c c c c c c c c c c c c c c c c c c c c c c c c c c c c c c c M 9.S.                                                  ",
"                                                    S.u.N c c c c c c c c c c c c c c c c c c c c c c c c c c c c c c c c c c c c c c c c c c c c c c c c c c c c c c c c c c c c c c c c c c c c c c c c c c c c c c c c c c c c c c c c c c c c c c c c c c c c c c c c c c c c c c c c c c c c c c c c c c c c c c c c c c c c c c c c c c c c c c c c c c c c c c c c c c c c c c c c c c c c c c c c c c c c c c c c c c c c c c c c c c c c c c c c c c c c c c n T M.Q                                                   ",
"                                                      S.u.n c c c c c c c c c c c c c c c c c c c c c c c c c c c c c c c c c c c c c c c c c c c c c c c c c c c c c c c c c c c c c c c c c c c c c c c c c c c c c c c c c c c c c c c c c c c c c c c c c c c c c c c c c c c c c c c c c c c c c c c c c c c c c c c c c c c c c c c c c c c c c c c c c c c c c c c c c c c c c c c c c c c c c c c c c c c c c c c c c c c c c c c c c c c c c c c c c c c c v H S./                                                     ",
"                                                      ] S.u.n c c c c c c c c c c c c c c c c c c c c c c c c c c c c c c c c c c c c c c c c c c c c c c c c c c c c c c c c c c c c c c c c c c c c c c c c c c c c c c c c c c c c c c c c c c c c c c c c c c c c c c c c c c c c c c c c c c c c c c c c c c c c c c c c c c c c c c c c c c c c c c c c c c c c c c c c c c c c c c c c c c c c c c c c c c c c c c c c c c c c c c c c c c c c c c c c c c v D S.+.                                                      ",
"                                                         .S.T n c c c c c c c c c c c c c c c c c c c c c c c c c c c c c c c c c c c c c c c c c c c c c c c c c c c c c c c c c c c c c c c c c c c c c c c c c c c c c c c c c c c c c c c c c c c c c c c c c c c c c c c c c c c c c c c c c c c c c c c c c c c c c c c c c c c c c c c c c c c c c c c c c c c c c c c c c c c c c c c c c c c c c c c c c c c c c c c c c c c c c c c c c c c c c c c c b S S.=.                                                        ",
"                                                          _ M.H n c c c c c c c c c c c c c c c c c c c c c c c c c c c c c c c c c c c c c c c c c c c c c c c c c c c c c c c c c c c c c c c c c c c c c c c c c c c c c c c c c c c c c c c c c c c c c c c c c c c c c c c c c c c c c c c c c c c c c c c c c c c c c c c c c c c c c c c c c c c c c c c c c c c c c c c c c c c c c c c c c c c c c c c c c c c c c c c c c c c c c c c c c c c c c c b A M.=.                                                          ",
"                                                             .M.F b c c c c c c c c c c c c c c c c c c c c c c c c c c c c c c c c c c c c c c c c c c c c c c c c c c c c c c c c c c c c c c c c c c c c c c c c c c c c c c c c c c c c c c c c c c c c c c c c c c c c c c c c c c c c c c c c c c c c c c c c c c c c c c c c c c c c c c c c c c c c c c c c c c c c c c c c c c c c c c c c c c c c c c c c c c c c c c c c c c c c c c c c c c c c v A v.K.                                                            ",
"                                                              +.S.H v c c c c c c c c c c c c c c c c c c c c c c c c c c c c c c c c c c c c c c c c c c c c c c c c c c c c c c c c c c c c c c c c c c c c c c c c c c c c c c c c c c c c c c c c c c c c c c c c c c c c c c c c c c c c c c c c c c c c c c c c c c c c c c c c c c c c c c c c c c c c c c c c c c c c c c c c c c c c c c c c c c c c c c c c c c c c c c c c c c c c c c c c c c c Z M.S.                                                              ",
"                                                                =.S.H b c c c c c c c c c c c c c c c c c c c c c c c c c c c c c c c c c c c c c c c c c c c c c c c c c c c c c c c c c c c c c c c c c c c c c c c c c c c c c c c c c c c c c c c c c c c c c c c c c c c c c c c c c c c c c c c c c c c c c c c c c c c c c c c c c c c c c c c c c c c c c c c c c c c c c c c c c c c c c c c c c c c c c c c c c c c c c c c c c c c c c c c c v Z S.S.                                                                ",
"                                                                  =.S.H n c c c c c c c c c c c c c c c c c c c c c c c c c c c c c c c c c c c c c c c c c c c c c c c c c c c c c c c c c c c c c c c c c c c c c c c c c c c c c c c c c c c c c c c c c c c c c c c c c c c c c c c c c c c c c c c c c c c c c c c c c c c c c c c c c c c c c c c c c c c c c c c c c c c c c c c c c c c c c c c c c c c c c c c c c c c c c c c c c c c c c c b A S.S.                                                                  ",
"                                                                    +.M.P m c c c c c c c c c c c c c c c c c c c c c c c c c c c c c c c c c c c c c c c c c c c c c c c c c c c c c c c c c c c c c c c c c c c c c c c c c c c c c c c c c c c c c c c c c c c c c c c c c c c c c c c c c c c c c c c c c c c c c c c c c c c c c c c c c c c c c c c c c c c c c c c c c c c c c c c c c c c c c c c c c c c c c c c c c c c c c c c c c c c c b A v.K.                                                                    ",
"                                                                      Q M.T n c c c c c c c c c c c c c c c c c c c c c c c c c c c c c c c c c c c c c c c c c c c c c c c c c c c c c c c c c c c c c c c c c c c c c c c c c c c c c c c c c c c c c c c c c c c c c c c c c c c c c c c c c c c c c c c c c c c c c c c c c c c c c c c c c c c c c c c c c c c c c c c c c c c c c c c c c c c c c c c c c c c c c c c c c c c c c c c c c c b S v.+.                                                                      ",
"                                                                        _ S.u.n c c c c c c c c c c c c c c c c c c c c c c c c c c c c c c c c c c c c c c c c c c c c c c c c c c c c c c c c c c c c c c c c c c c c c c c c c c c c c c c c c c c c c c c c c c c c c c c c c c c c c c c c c c c c c c c c c c c c c c c c c c c c c c c c c c c c c c c c c c c c c c c c c c c c c c c c c c c c c c c c c c c c c c c c c c c c c c c c c F S.+.                                                                        ",
"                                                                           .S.k.N c c c c c c c c c c c c c c c c c c c c c c c c c c c c c c c c c c c c c c c c c c c c c c c c c c c c c c c c c c c c c c c c c c c c c c c c c c c c c c c c c c c c c c c c c c c c c c c c c c c c c c c c c c c c c c c c c c c c c c c c c c c c c c c c c c c c c c c c c c c c c c c c c c c c c c c c c c c c c c c c c c c c c c c c c c c c c c n J S.=.                                                                          ",
"                                                                             .S.s.V v c c c c c c c c c c c c c c c c c c c c c c c c c c c c c c c c c c c c c c c c c c c c c c c c c c c c c c c c c c c c c c c c c c c c c c c c c c c c c c c c c c c c c c c c c c c c c c c c c c c c c c c c c c c c c c c c c c c c c c c c c c c c c c c c c c c c c c c c c c c c c c c c c c c c c c c c c c c c c c c c c c c c c c c c c c c N 2.S. .                                                                            ",
"                                                                                S.s.A v c c c c c c c c c c c c c c c c c c c c c c c c c c c c c c c c c c c c c c c c c c c c c c c c c c c c c c c c c c c c c c c c c c c c c c c c c c c c c c c c c c c c c c c c c c c c c c c c c c c c c c c c c c c c c c c c c c c c c c c c c c c c c c c c c c c c c c c c c c c c c c c c c c c c c c c c c c c c c c c c c c c c c c c c c B e.S._                                                                               ",
"                                                                                  =.M.L v c c c c c c c c c c c c c c c c c c c c c c c c c c c c c c c c c c c c c c c c c c c c c c c c c c c c c c c c c c c c c c c c c c c c c c c c c c c c c c c c c c c c c c c c c c c c c c c c c c c c c c c c c c c c c c c c c c c c c c c c c c c c c c c c c c c c c c c c c c c c c c c c c c c c c c c c c c c c c c c c c c c c c c c Z v.S.                                                                                  ",
"                                                                                    :.S.e.m c c c c c c c c c c c c c c c c c c c c c c c c c c c c c c c c c c c c c c c c c c c c c c c c c c c c c c c c c c c c c c c c c c c c c c c c c c c c c c c c c c c c c c c c c c c c c c c c c c c c c c c c c c c c c c c c c c c c c c c c c c c c c c c c c c c c c c c c c c c c c c c c c c c c c c c c c c c c c c c c c c c c v D S.S.                                                                                    ",
"                                                                                      +.S.u.B v c c c c c c c c c c c c c c c c c c c c c c c c c c c c c c c c c c c c c c c c c c c c c c c c c c c c c c c c c c c c c c c c c c c c c c c c c c c c c c c c c c c c c c c c c c c c c c c c c c c c c c c c c c c c c c c c c c c c c c c c c c c c c c c c c c c c c c c c c c c c c c c c c c c c c c c c c c c c c c c c c M I S.+.                                                                                      ",
"                                                                                        +.:.s.A b c c c c c c c c c c c c c c c c c c c c c c c c c c c c c c c c c c c c c c c c c c c c c c c c c c c c c c c c c c c c c c c c c c c c c c c c c c c c c c c c c c c c c c c c c c c c c c c c c c c c c c c c c c c c c c c c c c c c c c c c c c c c c c c c c c c c c c c c c c c c c c c c c c c c c c c c c c c c c c v V e.S.+.                                                                                        ",
"                                                                                            =.M.I m c c c c c c c c c c c c c c c c c c c c c c c c c c c c c c c c c c c c c c c c c c c c c c c c c c c c c c c c c c c c c c c c c c c c c c c c c c c c c c c c c c c c c c c c c c c c c c c c c c c c c c c c c c c c c c c c c c c c c c c c c c c c c c c c c c c c c c c c c c c c c c c c c c c c c c c c c c c c b S k.=.                                                                                            ",
"                                                                                              =.S.k.C c c c c c c c c c c c c c c c c c c c c c c c c c c c c c c c c c c c c c c c c c c c c c c c c c c c c c c c c c c c c c c c c c c c c c c c c c c c c c c c c c c c c c c c c c c c c c c c c c c c c c c c c c c c c c c c c c c c c c c c c c c c c c c c c c c c c c c c c c c c c c c c c c c c c c c c c c c M u.M.=.                                                                                              ",
"                                                                                                ] :.M.S n c c c c c c c c c c c c c c c c c c c c c c c c c c c c c c c c c c c c c c c c c c c c c c c c c c c c c c c c c c c c c c c c c c c c c c c c c c c c c c c c c c c c c c c c c c c c c c c c c c c c c c c c c c c c c c c c c c c c c c c c c c c c c c c c c c c c c c c c c c c c c c c c c c c c c c b C k.S.=.                                                                                                ",
"                                                                                                    =.S.2.B v c c c c c c c c c c c c c c c c c c c c c c c c c c c c c c c c c c c c c c c c c c c c c c c c c c c c c c c c c c c c c c c c c c c c c c c c c c c c c c c c c c c c c c c c c c c c c c c c c c c c c c c c c c c c c c c c c c c c c c c c c c c c c c c c c c c c c c c c c c c c c c c c c c c M D M.;.]                                                                                                   ",
"                                                                                                      =.:.k.S m c c c c c c c c c c c c c c c c c c c c c c c c c c c c c c c c c c c c c c c c c c c c c c c c c c c c c c c c c c c c c c c c c c c c c c c c c c c c c c c c c c c c c c c c c c c c c c c c c c c c c c c c c c c c c c c c c c c c c c c c c c c c c c c c c c c c c c c c c c c c c c c c b A u.:.+.                                                                                                      ",
"                                                                                                          :.M.9.C v c c c c c c c c c c c c c c c c c c c c c c c c c c c c c c c c c c c c c c c c c c c c c c c c c c c c c c c c c c c c c c c c c c c c c c c c c c c c c c c c c c c c c c c c c c c c c c c c c c c c c c c c c c c c c c c c c c c c c c c c c c c c c c c c c c c c c c c c c c c c c N I M.S.                                                                                                          ",
"                                                                                                            y S.S.T n c c c c c c c c c c c c c c c c c c c c c c c c c c c c c c c c c c c c c c c c c c c c c c c c c c c c c c c c c c c c c c c c c c c c c c c c c c c c c c c c c c c c c c c c c c c c c c c c c c c c c c c c c c c c c c c c c c c c c c c c c c c c c c c c c c c c c c c c c c v S M.S. .                                                                                                            ",
"                                                                                                                +.S.M.A n c c c c c c c c c c c c c c c c c c c c c c c c c c c c c c c c c c c c c c c c c c c c c c c c c c c c c c c c c c c c c c c c c c c c c c c c c c c c c c c c c c c c c c c c c c c c c c c c c c c c c c c c c c c c c c c c c c c c c c c c c c c c c c c c c c c c c c b V k.S.:.                                                                                                                ",
"                                                                                                                    +.S.2.V n c c c c c c c c c c c c c c c c c c c c c c c c c c c c c c c c c c c c c c c c c c c c c c c c c c c c c c c c c c c c c c c c c c c c c c c c c c c c c c c c c c c c c c c c c c c c c c c c c c c c c c c c c c c c c c c c c c c c c c c c c c c c c c c c c c v B F M.=. .                                                                                                                  ",
"                                                                                                                      ] :.v.H V v c c c c c c c c c c c c c c c c c c c c c c c c c c c c c c c c c c c c c c c c c c c c c c c c c c c c c c c c c c c c c c c c c c c c c c c c c c c c c c c c c c c c c c c c c c c c c c c c c c c c c c c c c c c c c c c c c c c c c c c c c c c c c c c N D s.S.]                                                                                                                       ",
"                                                                                                                          +.S.v.T N c c c c c c c c c c c c c c c c c c c c c c c c c c c c c c c c c c c c c c c c c c c c c c c c c c c c c c c c c c c c c c c c c c c c c c c c c c c c c c c c c c c c c c c c c c c c c c c c c c c c c c c c c c c c c c c c c c c c c c c c c c c c m F k.S.+.                                                                                                                          ",
"                                                                                                                              S.S.M.H m c c c c c c c c c c c c c c c c c c c c c c c c c c c c c c c c c c c c c c c c c c c c c c c c c c c c c c c c c c c c c c c c c c c c c c c c c c c c c c c c c c c c c c c c c c c c c c c c c c c c c c c c c c c c c c c c c c c c c c c c b A v.S.S.                                                                                                                              ",
"                                                                                                                                  :.:.M.D N b c c c c c c c c c c c c c c c c c c c c c c c c c c c c c c c c c c c c c c c c c c c c c c c c c c c c c c c c c c c c c c c c c c c c c c c c c c c c c c c c c c c c c c c c c c c c c c c c c c c c c c c c c c c c c c c c c c v m A k.S.:./                                                                                                                                 ",
"                                                                                                                                      +.S.v.D B b c c c c c c c c c c c c c c c c c c c c c c c c c c c c c c c c c c c c c c c c c c c c c c c c c c c c c c c c c c c c c c c c c c c c c c c c c c c c c c c c c c c c c c c c c c c c c c c c c c c c c c c c c c c c c c v N S s.S.=. .                                                                                                                                    ",
"                                                                                                                                          _ S.k.H Z n c c c c c c c c c c c c c c c c c c c c c c c c c c c c c c c c c c c c c c c c c c c c c c c c c c c c c c c c c c c c c c c c c c c c c c c c c c c c c c c c c c c c c c c c c c c c c c c c c c c c c c c c c c v V F u.S.+.                                                                                                                                          ",
"                                                                                                                                              +.S.M.u.S n c c c c c c c c c c c c c c c c c c c c c c c c c c c c c c c c c c c c c c c c c c c c c c c c c c c c c c c c c c c c c c c c c c c c c c c c c c c c c c c c c c c c c c c c c c c c c c c c c c c c c c b C 9.v.S.=.                                                                                                                                              ",
"                                                                                                                                                   .S.S.M.H N v c c c c c c c c c c c c c c c c c c c c c c c c c c c c c c c c c c c c c c c c c c c c c c c c c c c c c c c c c c c c c c c c c c c c c c c c c c c c c c c c c c c c c c c c c c c c c c c c v m S v.S.:.S.                                                                                                                                                  ",
"                                                                                                                                                       .=.S.M.9.Z M b c c c c c c c c c c c c c c c c c c c c c c c c c c c c c c c c c c c c c c c c c c c c c c c c c c c c c c c c c c c c c c c c c c c c c c c c c c c c c c c c c c c c c c c c c c v m V H M.S.=.+.                                                                                                                                                      ",
"                                                                                                                                                            ] =.S.s.H Z N b c c c c c c c c c c c c c c c c c c c c c c c c c c c c c c c c c c c c c c c c c c c c c c c c c c c c c c c c c c c c c c c c c c c c c c c c c c c c c c c c c c c c v M C D u.M.:.]                                                                                                                                                             ",
"                                                                                                                                                                   .S.M.u.J S N v c c c c c c c c c c c c c c c c c c c c c c c c c c c c c c c c c c c c c c c c c c c c c c c c c c c c c c c c c c c c c c c c c c c c c c c c c c c c c c c M A H e.v.S.=.                                                                                                                                                                  ",
"                                                                                                                                                                        =.S.M.M.s.D N v c c c c c c c c c c c c c c c c c c c c c c c c c c c c c c c c c c c c c c c c c c c c c c c c c c c c c c c c c c c c c c c c c c c c c c c c c m A e.v.M.S.S.y                                                                                                                                                                       ",
"                                                                                                                                                                            y S.:.S.S.M.H C m b v c c c c c c c c c c c c c c c c c c c c c c c c c c c c c c c c c c c c c c c c c c c c c c c c c c c c c c c c c c c c c c v b n V D k.S.S.:.:._                                                                                                                                                                             ",
"                                                                                                                                                                                    :.+.=.S.M.9.D C N m b v c c c c c c c c c c c c c c c c c c c c c c c c c c c c c c c c c c c c c c c c c c c c c c c c c c c c c b m N V S T v.S.:.+.=.=.                                                                                                                                                                                  ",
"                                                                                                                                                                                            ] +.S.S.v.9.H S Z B M b c c c c c c c c c c c c c c c c c c c c c c c c c c c c c c c c c c c c c c c c c c c c b m B C S F 2.k.S.S.=._                                                                                                                                                                                             ",
"                                                                                                                                                                                                    Q +.S.S.M.k.u.9.2.D A V M n v c c c c c c c c c c c c c c c c c c c c c c c c c c c c c c c b M B Z D T 9.u.k.v.S.S.:._                                                                                                                                                                                                     ",
"                                                                                                                                                                                                              / S.S.S.S.S.S.S.S.S.v.9.F S Z V B M m n b b v v c c v v b b n m M N V C A D T s.M.S.S.S.S.S.S.S.S.]                                                                                                                                                                                                               ",
"                                                                                                                                                                                                                        y =.S.:.=.=.=.=.S.S.S.S.S.S.S.S.S.S.S.S.S.S.S.S.S.S.S.S.S.S.S.S.=.=.=.=.:.S.S./                                                                                                                                                                                                                         ",
"                                                                                                                                                                                                                                            S.S.:.=.+. . .]  .] ] ] ]  . .+.=.:.:.S.                                                                                                                                                                                                                                            ",
"                                                                                                                                                                                                                                                                                                                                                                                                                                                                                                                                ",
"                                                                                                                                                                                                                                                                                                                                                                                                                                                                                                                                ",
"                                                                                                                                                                                                                                                                                                                                                                                                                                                                                                                                ",
"                                                                                                                                                                                                                                                                                                                                                                                                                                                                                                                                ",
"                                                                                                                                                                                                                                                                                                                                                                                                                                                                                                                                ",
"                                                                                                                                                                                                                                                                                                                                                                                                                                                                                                                                ",
"                                                                                                                                                                                                                                                                                                                                                                                                                                                                                                                                "
};
