/* XPM */
static char *_b21db726ad940cbc8e2cc6a648d645fPCkMFUDV2d6QWghY[] = {
/* columns rows colors chars-per-pixel */
"16 16 111 2 ",
"   c None",
".  c #000100",
"X  c #010100",
"o  c #000001",
"O  c #010001",
"+  c #000101",
"@  c #010101",
"#  c #030002",
"$  c #030003",
"%  c #040005",
"&  c #070006",
"*  c #080109",
"=  c #0D010C",
"-  c #0E010E",
";  c #0F010E",
":  c #170117",
">  c #180018",
",  c #19001B",
"<  c #1C011D",
"1  c #220124",
"2  c #28012A",
"3  c #2A002A",
"4  c #2C002E",
"5  c #300132",
"6  c #3A003C",
"7  c #3F0141",
"8  c #410043",
"9  c #440046",
"0  c #440047",
"q  c #470049",
"w  c #47014B",
"e  c #48004B",
"r  c #4A004C",
"t  c #4B014C",
"y  c #4A004D",
"u  c #4F0152",
"i  c #4F0153",
"p  c #510054",
"a  c #540058",
"s  c #57015A",
"d  c #58005A",
"f  c #5B005E",
"g  c #5B015E",
"h  c #5B015F",
"j  c #5C005E",
"k  c #541354",
"l  c #521554",
"z  c #531759",
"x  c #58165C",
"c  c #5A155E",
"v  c #5E165F",
"b  c #5C0061",
"n  c #5E0063",
"m  c #5F1563",
"M  c #610064",
"N  c #600164",
"B  c #600165",
"V  c #630167",
"C  c #640069",
"Z  c #650069",
"A  c #6A006E",
"S  c #6D0071",
"D  c #6E0174",
"F  c #700074",
"G  c #710075",
"H  c #720176",
"J  c #76017C",
"K  c #79007E",
"L  c #7B007F",
"P  c #711B74",
"I  c #721A75",
"U  c #731A7A",
"Y  c #741A78",
"T  c #78187C",
"R  c #7D0081",
"E  c #7E0183",
"W  c #7E1781",
"Q  c #7F1483",
"!  c #800184",
"~  c #810186",
"^  c #85008A",
"/  c #87008B",
"(  c #811584",
")  c #86168B",
"_  c #88168C",
"`  c #8A0090",
"'  c #8D0193",
"]  c #920198",
"[  c #930199",
"{  c #98009E",
"}  c #9A079F",
"|  c #940E99",
" . c #950C9B",
".. c #99089F",
"X. c #8D1491",
"o. c #901295",
"O. c #96169B",
"+. c #96159C",
"@. c #9A00A0",
"#. c #9B00A0",
"$. c #9A01A0",
"%. c #9B01A0",
"&. c #9A00A1",
"*. c #9B00A1",
"=. c #9A01A1",
"-. c #9B01A1",
";. c #9A03A0",
":. c #9B02A1",
">. c #9B03A1",
",. c #9A05A0",
"<. c #9B04A1",
/* pixels */
"            k m v               ",
"        o.@.@.@.@.@.@.Q         ",
"    U @.@.@.@.@.@.@.@.@.}       ",
"  Y @.@.@.@.@.@.@.@.@.@.@.@.    ",
"  @.@.S w g D 7 r F 9 9 E @.|   ",
"_ @.u : r 2 2 8 V ; e r ; L @.z ",
"@.@., F ! ] , J p u ' S n w @.( ",
"@.@.6 V ! E 1 j A 4 ^ d C C @.O.",
"@.@.` n j a g * < V a V C @.@.+.",
"@.@.@.] 5 % $ $ $ $ $ n @.@.@.Q ",
") @.@.@.{ 9 $ $ $ % S @.@.@.@.l ",
"  @.@.@.@.@.g $ ; L @.@.@.@.|   ",
"  P @.@.@.@.@.F ^ @.@.@.@.<.    ",
"    P @.@.@.@.@.@.@.@.@...      ",
"        X.@.@.@.@.@.<.T         ",
"              c c               "
};
