/* XPM */
static char *c4c6f2ccb3674bf2de139302ba8a4481Q5XZbJsFzy3CQgsa[] = {
/* columns rows colors chars-per-pixel */
"64 64 136 2 ",
"   c None",
".  c #010001",
"X  c #070008",
"o  c #0B000B",
"O  c #0F0010",
"+  c #130014",
"@  c #170019",
"#  c #1B001C",
"$  c #1F0020",
"%  c #230024",
"&  c #260028",
"*  c #2B002C",
"=  c #2F0031",
"-  c #330034",
";  c #360039",
":  c #3B003D",
">  c #3E0041",
",  c #420044",
"<  c #460049",
"1  c #4A004D",
"2  c #4E0051",
"3  c #520055",
"4  c #560059",
"5  c #5A005D",
"6  c #5E0061",
"7  c #610065",
"8  c #650069",
"9  c #69006D",
"0  c #6D0071",
"q  c #710076",
"w  c #76007A",
"e  c #7A007E",
"r  c #5F4E5E",
"t  c #5F4461",
"y  c #624D62",
"u  c #6A456B",
"i  c #6E4272",
"p  c #6D4A70",
"a  c #724574",
"s  c #754A76",
"d  c #774278",
"f  c #7B447E",
"g  c #764C78",
"h  c #7B4B7C",
"j  c #7E0082",
"k  c #7E4981",
"l  c #810086",
"z  c #86008B",
"x  c #89008E",
"c  c #8D0092",
"v  c #910096",
"b  c #95009A",
"n  c #99009F",
"m  c #9A1E9F",
"M  c #833F86",
"N  c #8A348D",
"B  c #873E8A",
"V  c #893B8C",
"C  c #8E2F92",
"Z  c #912D95",
"A  c #97269B",
"S  c #99239E",
"D  c #952999",
"F  c #992A9E",
"G  c #8D3391",
"H  c #8F3B91",
"J  c #913495",
"K  c #923D96",
"L  c #963399",
"P  c #9A339E",
"I  c #973D9A",
"U  c #993B9D",
"Y  c #9B00A1",
"T  c #9B09A1",
"R  c #9B0CA1",
"E  c #9B0DA1",
"W  c #9B0EA1",
"Q  c #9B0FA1",
"!  c #9B0BA1",
"~  c #9B10A1",
"^  c #9B11A1",
"/  c #9C13A1",
"(  c #9B16A1",
")  c #9C16A1",
"_  c #9C17A1",
"`  c #9C13A1",
"'  c #9C18A1",
"]  c #9C1BA1",
"[  c #9C1DA0",
"{  c #9C1BA1",
"}  c #9B23A0",
"|  c #9C20A1",
" . c #9D21A1",
".. c #9C22A1",
"X. c #9A25A0",
"o. c #9B22A0",
"O. c #9C28A1",
"+. c #9B2DA0",
"@. c #9D2FA1",
"#. c #9C2CA1",
"$. c #9D31A1",
"%. c #9D37A1",
"&. c #9D3AA1",
"*. c #804481",
"=. c #844287",
"-. c #824685",
";. c #854487",
":. c #844786",
">. c #854787",
",. c #824585",
"<. c #834B85",
"1. c #854188",
"2. c #874688",
"3. c #86448A",
"4. c #874289",
"5. c #8C448F",
"6. c #8C468E",
"7. c #88408A",
"8. c #874C8A",
"9. c #884C8B",
"0. c #8D508F",
"q. c #8F4592",
"w. c #8E4A91",
"e. c #944797",
"r. c #904294",
"t. c #904F92",
"y. c #924995",
"u. c #944E96",
"i. c #924994",
"p. c #964199",
"a. c #9C459F",
"s. c #9C4B9F",
"d. c #905093",
"f. c #9C42A0",
"g. c #9C44A0",
"h. c #9B42A0",
/* pixels */
"                                                                                                                                ",
"                                                                                                                                ",
"                                                g t.g.$..._ ~ R R ( ..@.f.u.h t                                                 ",
"                                        a y.+.R Y Y Y Y Y Y Y Y Y Y Y Y Y Y Y T O.e.s                                           ",
"                                    6.F T Y Y Y Y Y Y Y Y Y Y Y Y Y Y Y Y Y Y Y Y Y T } q.i                                     ",
"                                H ] Y Y Y Y Y Y Y Y Y Y Y Y Y Y Y Y Y Y Y Y Y Y Y Y Y Y Y _ K d                                 ",
"                            V [ Y Y Y Y Y Y Y Y Y Y Y Y Y Y Y Y Y Y Y Y Y Y Y Y Y Y Y Y Y Y Y ] H                               ",
"                        M D T Y Y Y Y Y Y Y Y Y Y Y Y Y Y Y Y Y Y Y Y Y Y Y Y Y Y Y Y Y Y Y Y Y T S B                           ",
"                      N _ Y Y Y Y Y Y Y Y Y Y Y Y Y Y Y Y Y Y Y Y Y Y Y Y Y Y Y Y Y Y Y Y Y Y Y Y Y ~ C                         ",
"                    Z T Y Y Y Y Y Y Y Y Y Y Y Y Y Y Y Y Y Y Y Y Y Y Y Y Y Y Y Y Y Y Y Y Y Y Y Y Y Y Y T D >.                    ",
"                3.D T Y Y Y Y Y Y Y Y Y Y Y Y Y Y Y Y Y Y Y Y Y Y Y Y Y Y Y Y Y Y Y Y Y Y Y Y Y Y Y Y Y Y S B                   ",
"              3.A Y Y Y Y Y Y Y Y Y Y Y Y Y Y Y Y Y Y Y Y Y Y Y Y Y Y Y Y Y Y Y Y Y Y Y Y Y Y Y Y Y Y Y Y Y S B                 ",
"            >.A Y Y Y Y Y Y Y Y Y Y Y Y Y Y Y Y Y Y Y Y Y Y Y Y Y Y Y Y Y Y Y Y Y Y Y Y Y Y Y Y Y Y Y Y Y Y Y S B               ",
"            D Y Y Y Y Y Y Y Y Y Y Y Y Y Y Y Y Y Y Y Y Y Y Y Y Y Y Y Y Y Y Y Y Y Y Y Y Y Y Y Y Y Y Y Y Y Y Y Y Y S >.            ",
"          Z T Y Y Y Y Y Y Y Y Y Y Y Y Y Y Y Y Y Y Y Y Y Y Y Y Y Y Y Y Y Y Y Y Y Y Y Y Y Y Y Y Y Y Y Y Y Y Y Y Y Y D             ",
"        V R Y Y Y Y Y Y Y Y Y Y Y Y Y Y Y Y Y Y Y Y Y Y Y Y Y Y Y Y Y Y Y Y Y Y Y Y Y Y Y Y Y Y Y Y Y Y Y Y Y Y Y T G           ",
"      *.] Y Y Y Y Y Y Y Y Y Y Y Y Y Y Y Y Y Y Y Y Y Y Y Y Y Y Y Y Y Y Y Y Y Y Y Y Y Y Y Y Y Y Y Y Y Y Y Y Y Y Y Y Y / 4.        ",
"      Z Y Y Y Y Y Y Y Y Y Y Y v j q 9 9 w z n v j 9 7 6 6 5 5 5 5 5 5 5 5 9 j c c w 7 3 2 4 8 e v Y Y Y Y Y Y Y Y Y Y S         ",
"    =.R Y Y Y Y Y Y Y Y n l 5 : * % # # % - 1 9 j q 1 # + + + O O O + $ 3 q e 5 : & + X X o @ & > 8 c Y Y Y Y Y Y Y Y T V       ",
"    F Y Y Y Y Y Y Y Y c 7 = + . . . . . . . X % 1 l l 5 @ . . . . . # 7 z j , @ . . . . . . . . X @ , e n Y Y Y Y Y Y Y m       ",
"  -.T Y Y Y Y Y Y Y z 2 + . . . . . . . . . . . o ; l v 9 + . . . + 0 b j * X . . . . . . . . . . . X = q n Y Y Y Y Y Y Y 6.    ",
"  P Y Y Y Y Y Y Y c 2 O . . . . . o @ + X . . . . X - x n 6 X . . 5 n z * . . . . X + * - & + . . . . X - j Y Y Y Y Y Y Y X.    ",
"u R Y Y Y Y Y Y n 8 + . . . X - 6 q e w 9 1 @ . . . X < b v * . & v b 1 X . . X % 5 w l l j q 4 % . . . X 1 c Y Y Y Y Y Y T h   ",
"w.Y Y Y Y Y Y Y l ; . . . # 5 z b Y n n n c w - X . . o e Y 9 . 7 Y l o . . X ; j v n v c v n v w ; X . . # w Y Y Y Y Y Y Y p.  ",
"P Y Y Y Y Y Y Y 0 + . . # 7 v n w 2 2 6 0 c n l & . . . 2 n v @ c n 5 . . . & l n c 0 9 7 1 4 z n j ; . . X 5 b Y Y Y Y Y Y ..  ",
"~ Y Y Y Y Y Y b 5 . . o 2 v v 5 < q z c x j v n 8 o . . * b Y 4 n n : . . o 6 n v j c c c l 4 < j n 9 # . . 1 c Y Y Y Y Y Y T u ",
"Y Y Y Y Y Y Y c < . . & e Y 8 : q n Y Y Y v b Y c @ . . % b Y z Y b - . . + j Y n b Y Y Y Y z , 1 v v : . . < c Y Y Y Y Y Y Y <.",
"Y Y Y Y Y Y Y c 1 . . > v x > 1 c Y Y Y Y Y Y Y b # . . & b Y e Y n , . . + l Y Y Y Y Y Y Y n 5 - e Y 3 X . < c Y Y Y Y Y Y Y s.",
"Y Y Y Y Y Y Y n 5 . X 1 n j = 2 b Y Y Y Y Y Y Y l + . . 2 n Y : n n 9 . . O 9 Y Y Y Y Y Y Y Y 5 & q Y 5 O . 4 v Y Y Y Y Y Y Y &.",
"Y Y Y Y Y Y Y Y 0 + . < n l - : z Y Y Y Y Y Y Y 1 X . X j Y c X q Y c @ . X = v Y Y Y Y Y Y x > & w Y 3 X + 0 Y Y Y Y Y Y Y Y O.",
"Y Y Y Y Y Y Y Y x > . : c b 1 + 4 v Y Y Y Y Y 7 + . . 1 b Y 2 . * n n 0 X . X : c Y Y Y Y c 1 o < v v > . > z Y Y Y Y Y Y Y Y [ ",
"Y Y Y Y Y Y Y Y Y 0 @ # 9 Y j * X ; q v v w : X . . ; c Y l X . X 6 Y b 5 X . . @ 2 0 q 4 & X = j Y 0 # # q Y Y Y Y Y Y Y Y Y ] ",
"Y Y Y Y Y Y Y Y Y b 5 o : x Y e * X . . . . . . X < c Y c # . . . X w Y n 0 @ . . . . . . X ; l Y z : + 8 n Y Y Y Y Y Y Y Y Y ] ",
"Y Y Y Y Y Y Y Y Y Y b 6 @ < c Y c 6 & o X X + : e n n z & . . . . . o 0 n Y c 6 = @ + # > q n n z , $ 8 n Y Y Y Y Y Y Y Y Y Y [ ",
"Y Y Y Y Y Y Y Y Y Y Y n 9 % : j b n n v z x b Y n v 0 @ . . . . . . . X < x b n Y Y n Y Y n v q - & 0 n Y Y Y Y Y Y Y Y Y Y Y O.",
"Y Y Y Y Y Y Y Y Y Y Y Y Y q & # 1 j c v v v v c 0 - X . . . . . . . . . . + 1 w c c c c z 9 : + * w Y Y Y Y Y Y Y Y Y Y Y Y Y %.",
"Y Y Y Y Y Y Y Y Y Y Y Y Y Y j ; X X # - > : * + . . . . . . . . . . . . . . . . O # % @ X . X ; j Y Y Y Y Y Y Y Y Y Y Y Y Y Y s.",
"Y Y Y Y Y Y Y Y Y Y Y Y Y Y Y z , o . . . . . . . . . . . . . . . . . . . . . . . . . . . o > z Y Y Y Y Y Y Y Y Y Y Y Y Y Y Y 9.",
"R Y Y Y Y Y Y Y Y Y Y Y Y Y Y Y c 2 + . . . . . . . . . . . . . . . . . . . . . . . . . + < c Y Y Y Y Y Y Y Y Y Y Y Y Y Y Y T p ",
"@.Y Y Y Y Y Y Y Y Y Y Y Y Y Y Y Y b 5 # X . . . . . . . . . . . . . . . . . . . . . . + 3 v Y Y Y Y Y Y Y Y Y Y Y Y Y Y Y Y {   ",
"y.Y Y Y Y Y Y Y Y Y Y Y Y Y Y Y Y Y n 8 & X . . . . . . . . . . . . . . . . . . . . # 5 b Y Y Y Y Y Y Y Y Y Y Y Y Y Y Y Y Y I   ",
"i T Y Y Y Y Y Y Y Y Y Y Y Y Y Y Y Y Y n q = X . . . . . . . . . . . . . . . . . X % 8 n Y Y Y Y Y Y Y Y Y Y Y Y Y Y Y Y Y T k   ",
"  F Y Y Y Y Y Y Y Y Y Y Y Y Y Y Y Y Y Y Y j : o . . . . . . . . . . . . . . . X * 0 n Y Y Y Y Y Y Y Y Y Y Y Y Y Y Y Y Y Y [     ",
"  3.T Y Y Y Y Y Y Y Y Y Y Y Y Y Y Y Y Y Y Y z < + . . . . . . . . . . . . . X - w Y Y Y Y Y Y Y Y Y Y Y Y Y Y Y Y Y Y Y Y r.    ",
"    S Y Y Y Y Y Y Y Y Y Y Y Y Y Y Y Y Y Y Y Y c 3 @ . . . . . . . . . . . X : j Y Y Y Y Y Y Y Y Y Y Y Y Y Y Y Y Y Y Y Y ] a     ",
"    7.T Y Y Y Y Y Y Y Y Y Y Y Y Y Y Y Y Y Y Y Y b 6 $ . . . . . . . . . o < z Y Y Y Y Y Y Y Y Y Y Y Y Y Y Y Y Y Y Y Y Y H       ",
"      D Y Y Y Y Y Y Y Y Y Y Y Y Y Y Y Y Y Y Y Y Y n 9 & X . . . . . . + 2 c Y Y Y Y Y Y Y Y Y Y Y Y Y Y Y Y Y Y Y Y Y S         ",
"      =.( Y Y Y Y Y Y Y Y Y Y Y Y Y Y Y Y Y Y Y Y Y Y w ; X . . . . @ 5 v Y Y Y Y Y Y Y Y Y Y Y Y Y Y Y Y Y Y Y Y Y R B         ",
"        G T Y Y Y Y Y Y Y Y Y Y Y Y Y Y Y Y Y Y Y Y Y Y l , X . . # 7 b Y Y Y Y Y Y Y Y Y Y Y Y Y Y Y Y Y Y Y Y Y Y Z           ",
"          D Y Y Y Y Y Y Y Y Y Y Y Y Y Y Y Y Y Y Y Y Y Y Y c 2 o & 0 n Y Y Y Y Y Y Y Y Y Y Y Y Y Y Y Y Y Y Y Y Y Y S             ",
"          -.S Y Y Y Y Y Y Y Y Y Y Y Y Y Y Y Y Y Y Y Y Y Y Y v 7 w Y Y Y Y Y Y Y Y Y Y Y Y Y Y Y Y Y Y Y Y Y Y Y m 4.            ",
"            4.S Y Y Y Y Y Y Y Y Y Y Y Y Y Y Y Y Y Y Y Y Y Y Y n Y Y Y Y Y Y Y Y Y Y Y Y Y Y Y Y Y Y Y Y Y Y Y ] V               ",
"              B } Y Y Y Y Y Y Y Y Y Y Y Y Y Y Y Y Y Y Y Y Y Y Y Y Y Y Y Y Y Y Y Y Y Y Y Y Y Y Y Y Y Y Y Y Y ] N                 ",
"                4.S Y Y Y Y Y Y Y Y Y Y Y Y Y Y Y Y Y Y Y Y Y Y Y Y Y Y Y Y Y Y Y Y Y Y Y Y Y Y Y Y Y Y Y [ V                   ",
"                  3.D T Y Y Y Y Y Y Y Y Y Y Y Y Y Y Y Y Y Y Y Y Y Y Y Y Y Y Y Y Y Y Y Y Y Y Y Y Y Y Y Y S B                     ",
"                      C R Y Y Y Y Y Y Y Y Y Y Y Y Y Y Y Y Y Y Y Y Y Y Y Y Y Y Y Y Y Y Y Y Y Y Y Y Y T Z -.                      ",
"                        V S Y Y Y Y Y Y Y Y Y Y Y Y Y Y Y Y Y Y Y Y Y Y Y Y Y Y Y Y Y Y Y Y Y Y Y { V                           ",
"                          f J / Y Y Y Y Y Y Y Y Y Y Y Y Y Y Y Y Y Y Y Y Y Y Y Y Y Y Y Y Y Y Y R J f                             ",
"                              f L / Y Y Y Y Y Y Y Y Y Y Y Y Y Y Y Y Y Y Y Y Y Y Y Y Y Y Y R L -.                                ",
"                                  d K ] Y Y Y Y Y Y Y Y Y Y Y Y Y Y Y Y Y Y Y Y Y Y Y _ I f                                     ",
"                                        <.I { T Y Y Y Y Y Y Y Y Y Y Y Y Y Y Y Y ( U 8.                                          ",
"                                              p 0.a.@.] T Y Y Y Y Y T ] @.h.d.s                                                 ",
"                                                          r y y y r                                                             ",
"                                                                                                                                "
};
