/* XPM */
static char *_3bfcb37fe1f432e8a4752f718af0303wj1D2JCfwafFQarV[] = {
/* columns rows colors chars-per-pixel */
"128 128 148 2 ",
"   c None",
".  c #000000",
"X  c #080007",
"o  c #070008",
"O  c #0B000B",
"+  c #0F0010",
"@  c #130014",
"#  c #170018",
"$  c #1B001C",
"%  c #1F0020",
"&  c #220024",
"*  c #270028",
"=  c #2B002C",
"-  c #2F0030",
";  c #330034",
":  c #360039",
">  c #3A003C",
",  c #3E0041",
"<  c #430045",
"1  c #460049",
"2  c #4A004D",
"3  c #4E0051",
"4  c #520055",
"5  c #560059",
"6  c #5A005D",
"7  c #5E0061",
"8  c #620066",
"9  c #66006A",
"0  c #6A006E",
"q  c #6E0072",
"w  c #720076",
"e  c #75007A",
"r  c #79007E",
"t  c #675669",
"y  c #69566B",
"u  c #6D5671",
"i  c #725772",
"p  c #745B74",
"a  c #775C79",
"s  c #7B5D7C",
"d  c #716073",
"f  c #7B627C",
"g  c #7C687C",
"h  c #7E7E7E",
"j  c #7D0082",
"k  c #7E5F80",
"l  c #7E6480",
"z  c #810086",
"x  c #85008A",
"c  c #89008E",
"v  c #8D0092",
"b  c #910096",
"n  c #95009B",
"m  c #99009E",
"M  c #9B00A0",
"N  c #9B0CA0",
"B  c #9C14A0",
"V  c #9C1BA1",
"C  c #9C24A1",
"Z  c #9C2BA1",
"A  c #9D33A1",
"S  c #9D3BA1",
"D  c #815E82",
"F  c #9B469F",
"G  c #9B4D9D",
"H  c #935B95",
"J  c #965599",
"K  c #9A539C",
"L  c #975B99",
"P  c #9A5B9C",
"I  c #836384",
"U  c #836C84",
"Y  c #876588",
"T  c #8C648D",
"R  c #876B88",
"E  c #8C6B8D",
"W  c #847184",
"Q  c #867D86",
"!  c #8B748C",
"~  c #8C7A8C",
"^  c #8F6391",
"/  c #8F6E90",
"(  c #926394",
")  c #926C94",
"_  c #976299",
"`  c #9B649C",
"'  c #956F98",
"]  c #9B6B9D",
"[  c #8F7490",
"{  c #937494",
"}  c #937A94",
"|  c #977398",
" . c #9A749B",
".. c #977D98",
"X. c #9A7B9B",
"o. c #9D44A1",
"O. c #9E4BA1",
"+. c #9E53A1",
"@. c #9E58A1",
"#. c #9E5DA0",
"$. c #9F5CA1",
"%. c #9F65A1",
"&. c #9E67A0",
"*. c #9F64A1",
"=. c #9F6AA1",
"-. c #9F6CA0",
";. c #9F6EA1",
":. c #9F73A1",
">. c #9F79A1",
",. c #A072A1",
"<. c #A075A1",
"1. c #A078A1",
"2. c #A07DA1",
"3. c #A07BA1",
"4. c #808080",
"5. c #848484",
"6. c #818181",
"7. c #898189",
"8. c #898389",
"9. c #8C808E",
"0. c #8A808A",
"q. c #898989",
"w. c #8D8B8D",
"e. c #8E8B8E",
"r. c #8A8A8A",
"t. c #918392",
"y. c #938293",
"u. c #928492",
"i. c #948094",
"p. c #978197",
"a. c #968496",
"s. c #938293",
"d. c #928A92",
"f. c #948994",
"g. c #958995",
"h. c #968896",
"j. c #978C97",
"k. c #968E96",
"l. c #938B93",
"z. c #978098",
"x. c #968098",
"c. c #988498",
"v. c #9D829E",
"b. c #988C98",
"n. c #959195",
"m. c #949295",
"M. c #999699",
"N. c #A084A2",
/* pixels */
"                                                                                                                                                                                                                                                                ",
"                                                                                                                                                                                                                                                                ",
"                                                                                                                                                                                                                                                                ",
"                                                                                                                t p g U ! ~ ~ ~ ~ ~ ~ U g d y                                                                                                                   ",
"                                                                                                    p R ..2.=.@.O.S A Z C V V B V V V C Z S o.@.%.1.v.! f                                                                                                       ",
"                                                                                            s X.,.@.S C B M M M M M M M M M M M M M M M M M M M M M N V A +.-.X.Y i                                                                                             ",
"                                                                                    a / ] +.A B M M M M M M M M M M M M M M M M M M M M M M M M M M M M M M M N Z O.%.| s                                                                                       ",
"                                                                              f E ` o.C M M M M M M M M M M M M M M M M M M M M M M M M M M M M M M M M M M M M M M M B S #.) l                                                                                 ",
"                                                                          Y ` O.C M M M M M M M M M M M M M M M M M M M M M M M M M M M M M M M M M M M M M M M M M M M M M B o.` T                                                                             ",
"                                                                    W T P A N M M M M M M M M M M M M M M M M M M M M M M M M M M M M M M M M M M M M M M M M M M M M M M M M M N Z +.( R                                                                       ",
"                                                                ! ^ K Z N M M M M M M M M M M M M M M M M M M M M M M M M M M M M M M M M M M M M M M M M M M M M M M M M M M M M M M V o.H R                                                                   ",
"                                                            ~ ^ G C M M M M M M M M M M M M M M M M M M M M M M M M M M M M M M M M M M M M M M M M M M M M M M M M M M M M M M M M M M M V o.H !                                                               ",
"                                                          E G Z N M M M M M M M M M M M M M M M M M M M M M M M M M M M M M M M M M M M M M M M M M M M M M M M M M M M M M M M M M M M M M M V o.H ~                                                           ",
"                                                      } J A N M M M M M M M M M M M M M M M M M M M M M M M M M M M M M M M M M M M M M M M M M M M M M M M M M M M M M M M M M M M M M M M M M M C G /                                                         ",
"                                                  8.( S B M M M M M M M M M M M M M M M M M M M M M M M M M M M M M M M M M M M M M M M M M M M M M M M M M M M M M M M M M M M M M M M M M M M M M N A H u.                                                    ",
"                                                t.K C M M M M M M M M M M M M M M M M M M M M M M M M M M M M M M M M M M M M M M M M M M M M M M M M M M M M M M M M M M M M M M M M M M M M M M M M M V o.{                                                   ",
"                                              { S B M M M M M M M M M M M M M M M M M M M M M M M M M M M M M M M M M M M M M M M M M M M M M M M M M M M M M M M M M M M M M M M M M M M M M M M M M M M N Z _ w.                                              ",
"                                          w._ Z M M M M M M M M M M M M M M M M M M M M M M M M M M M M M M M M M M M M M M M M M M M M M M M M M M M M M M M M M M M M M M M M M M M M M M M M M M M M M M M V K j.                                            ",
"                                        n.G V M M M M M M M M M M M M M M M M M M M M M M M M M M M M M M M M M M M M M M M M M M M M M M M M M M M M M M M M M M M M M M M M M M M M M M M M M M M M M M M M M N S a.                                          ",
"                                      j.o.N M M M M M M M M M M M M M M M M M M M M M M M M M M M M M M M M M M M M M M M M M M M M M M M M M M M M M M M M M M M M M M M M M M M M M M M M M M M M M M M M M M M M Z ..                                        ",
"                                    c.A N M M M M M M M M M M M M M M M M M M M M M M M M M M M M M M M M M M M M M M M M M M M M M M M M M M M M M M M M M M M M M M M M M M M M M M M M M M M M M M M M M M M M M M C | h                                     ",
"                                  z.Z M M M M M M M M M M M M M M M M M M M M M M M M M M M M M M M M M M M M M M M M M M M M M M M M M M M M M M M M M M M M M M M M M M M M M M M M M M M M M M M M M M M M M M M M M V ] 5.                                  ",
"                                ..C M M M M M M M M M M M M M M M M M M M M M M M M M M M M M M M M M M M M M M M M M M M M M M M M M M M M M M M M M M M M M M M M M M M M M M M M M M M M M M M M M M M M M M M M M M M V ` r.                                ",
"                              ..C M M M M M M M M M M M M M M M M M M M M M M M M M M M M M M M M M M M M M M M M M M M M M M M M M M M M M M M M M M M M M M M M M M M M M M M M M M M M M M M M M M M M M M M M M M M M M B ` h                               ",
"                            p.Z M M M M M M M M M M M M M M M M M M M M M M M M M M M M M M M M M M M M M M M M M M M M M M M M M M M M M M M M M M M M M M M M M M M M M M M M M M M M M M M M M M M M M M M M M M M M M M M V ] 6.                            ",
"                          f.A M M M M M M M M M M M M M M M M M M M M M M M M M M M M M M M M M M M M M M M M M M M M M M M M M M M M M M M M M M M M M M M M M M M M M M M M M M M M M M M M M M M M M M M M M M M M M M M M M V |                             ",
"                        f.S M M M M M M M M M M M M M M M M M M M M M M M M M M M M M M M M M M M M M M M M M M M M M M M M M M M M M M M M M M M M M M M M M M M M M M M M M M M M M M M M M M M M M M M M M M M M M M M M M M M C {                           ",
"                      d.G N M M M M M M M M M M M M M M M M M M M M M M M M M M M M M M M M M M M M M M M M M M M M M M M M M M M M M M M M M M M M M M M M M M M M M M M M M M M M M M M M M M M M M M M M M M M M M M M M M M M M A p.                        ",
"                    8.L B M M M M M M M M M M M M M M M M M M M M M M M M M M M M M M M M M M M M M M M M M M M M M M M M M M M M M M M M M M M M M M M M M M M M M M M M M M M M M M M M M M M M M M M M M M M M M M M M M M M M M N o.f.                      ",
"                    ( C M M M M M M M M M M M M M M M M M M M M M M M M M M M M M M M M M M M M M M M M M M M M M M M M M M M M M M M M M M M M M M M M M M M M M M M M M M M M M M M M M M M M M M M M M M M M M M M M M M M M M M M B J 8.                    ",
"                  { A M M M M M M M M M M M M M M M M M M M M M M M M M M M M M M M M M M M M M M M M M M M M M M M M M M M M M M M M M M M M M M M M M M M M M M M M M M M M M M M M M M M M M M M M M M M M M M M M M M M M M M M M M C (                     ",
"                t.G N M M M M M M M M M M M M M M M M M M M M M M M M M M M M M M M M M M M M M M M M M M M M M M M M M M M M M M M M M M M M M M M M M M M M M M M M M M M M M M M M M M M M M M M M M M M M M M M M M M M M M M M M M M S {                   ",
"                H V M M M M M M M M M M M M M M M M M M M M M M M M M M M M M M M M M M M M M M M M M M M M M M M M M M M M M M M M M M M M M M M M M M M M M M M M M M M M M M M M M M M M M M M M M M M M M M M M M M M M M M M M M M M N G 9.                ",
"              ) A M M M M M M M M M M M M M M M M M M M M M M M M M M M M M M M M M M M M M M M M M M M M M M M M M M M M M M M M M M M M M M M M M M M M M M M M M M M M M M M M M M M M M M M M M M M M M M M M M M M M M M M M M M M M M C H                 ",
"            ~ G N M M M M M M M M M M M M M M M M M M M M M M M M M m n b b b b b m M M M M M b c c c c x x x x z z z z j j j j j j j j j j j j j j j j j j x b M M M m b x r w q q w r x v n m M M M M M M M M M M M M M M M M M M M M M M M S [               ",
"            ( C M M M M M M M M M M M M M M M M M M M M M M m b z e 9 6 4 3 3 3 4 7 q j v m m v e 0 6 1 > : : : : ; ; - - = = = = = = = = = = = = = ; < 4 8 w c m v e 8 3 : & # @ + # & : 2 6 q z b m M M M M M M M M M M M M M M M M M M M M B J               ",
"          ! F M M M M M M M M M M M M M M M M M M M M m n z 9 3 : % + o . . . . . X # = < 8 j b v z 0 3 ; # . . . . . . . . . . . . . . . . . . o & < 9 z b m x 8 < & O . . . . . . . . . . o $ : 4 w v m M M M M M M M M M M M M M M M M M M M A E             ",
"          H V M M M M M M M M M M M M M M M M M M M n j 5 ; # . . . . . . . . . . . . . . O = 4 r m M m x 8 : O . . . . . . . . . . . . . . . $ 1 e b m M v 8 : O . . . . . . . . . . . . . . . . o & 2 e n M M M M M M M M M M M M M M M M M M N K             ",
"        R o.M M M M M M M M M M M M M M M M M M m v 7 - O . . . . . . . . . . . . . . . . . . o * 6 v M M m x 4 & . . . . . . . . . . . . o = 8 v m M m r 1 @ . . . . . . . . . . . . . . . . . . . . o * 6 c m M M M M M M M M M M M M M M M M M Z T           ",
"        ( V M M M M M M M M M M M M M M M M M m r , # . . . . . . . . . . . . . . . . . . . . . . O , r M M M b 0 = . . . . . . . . . . o ; e n M M n 9 = o . . . . . . . . . . . . . . . . . . . . . . . @ > j m M M M M M M M M M M M M M M M M N K           ",
"      R O.M M M M M M M M M M M M M M M M M m q * o . . . . . . . . . . . . . . . . . . . . . . . . o = q m M M n w - . . . . . . . . . ; r n M M n 7 $ . . . . . . . . . . . . . . . . . . . . . . . . . . o = r m M M M M M M M M M M M M M M M M A T         ",
"      ( C M M M M M M M M M M M M M M M M m 0 $ . . . . . . . . . . . . . . . . . . . . . . . . . . . . & 0 m M M n q & . . . . . . . & w n M M m 7 $ . . . . . . . . . . . . . . . . . . . . . . . . . . . . . * j M M M M M M M M M M M M M M M M N P         ",
"      K M M M M M M M M M M M M M M M M M e $ . . . . . . . . . . . . . . . . . . . . . . . . . . . . . . & q M M M b 8 # . . . . . # 7 b M M m 0 $ . . . . . . . . . . . . . . o o . . . . . . . . . . . . . . . * c M M M M M M M M M M M M M M M M o.I       ",
"    I A M M M M M M M M M M M M M M M M x & . . . . . . . . . . . . X # * : : = $ O . . . . . . . . . . . o * j M M M c 1 o . . . . , c M M M j * . . . . . . . . . . . # : 3 7 9 9 8 5 , & X . . . . . . . . . . . < m M M M M M M M M M M M M M M M B _       ",
"    ` N M M M M M M M M M M M M M M M m , . . . . . . . . . . X & 3 0 r z x x z j e 6 : O . . . . . . . . . X , b M M m w & . . . $ 0 m M M n < X . . . . . . . . o & 6 r x v n n n n b c j 9 : O . . . . . . . . . O 8 M M M M M M M M M M M M M M M M @.      ",
"  f O.M M M M M M M M M M M M M M M M 0 O . . . . . . . . o & 7 z b m M M M M M M m n c w : X . . . . . . . . @ 6 m M M b 4 X . . 1 v M M M 9 # . . . . . . . . @ 4 z b m M M M M M M M M M n c 0 = o . . . . . . . . & b M M M M M M M M M M M M M M M A D     ",
"  I Z M M M M M M M M M M M M M M M n * . . . . . . . . O 1 z n M M M M M M M M M M M M m v 8 @ . . . . . . . . * c M M m q $ . # 9 m m M b ; o . . . . . . . $ e b M M M M M M M M M M M M M M n x 1 O . . . . . . . X 9 M M M M M M M M M M M M M M M N ]     ",
"  ] N M M M M M M M M M M M M M M M e X . . . . . . . @ 5 v m M M M M M m m n m M M M M M M n w @ . . . . . . . @ 8 M M M c > . = r m m m w $ . . . . . . . $ r m M M M M m b z w w j v m M M M M m b 4 O . . . . . . . - m M M M M M M M M M M M M M M M @.    ",
"  @.M M M M M M M M M M M M M M M M < . . . . . . . + 7 n M M M M m c 7 > & & : 4 r n M M M M m w o . . . . . . o > n M M m 6 O 2 b M M m 2 X . . . . . . o w m M M M m c 4 - ; ; & @ $ > r n M M M M b 2 X . . . . . . @ z M M M M M M M M M M M M M M M S s   ",
"s S M M M M M M M M M M M M M M M n $ . . . . . . X 3 n M M M M v 5 $ @ = 3 0 q 7 , 1 x m M M M m 3 . . . . . . . & x M M M q = 7 m M M b ; . . . . . . . < m M M M n e 1 0 c b b v e 1 # @ 3 v M M M M b ; o . . . . . X 9 M M M M M M M M M M M M M M M V )   ",
") V M M M M M M M M M M M M M M M j O . . . . . . = b M M M M j : X * q n m m m m m z 5 x m M M M n $ . . . . . . $ q M M M z 4 q M M M c & . . . . . . O v M M M m j 7 b m M M M M m n e = o : x M M M M r @ . . . . . o 4 M M M M M M M M M M M M M M M M -.  ",
":.M M M M M M M M M M M M M M M M 8 X . . . . . O w M M M m j = o : x M M M M M M M M n 7 v m M M M 2 . . . . . . # 8 M M M b e z M M M j & . . . . . . : m M M M b 9 m M M M M M M M M M j = . 1 v M M M M < o . . . . o 2 M M M M M M M M M M M M M M M M +.  ",
"@.M M M M M M M M M M M M M M M M 3 o . . . . . ; m M M M v 1 . - z M M M M M M M M M M b c m M M M e . . . . . . # 8 M M M m c v M M M e $ . . . . . . 4 M M M M m m M M M M M M M M M M M 8 # X 9 n M M M j O . . . . o 2 M M M M M M M M M M M M M M M M S s ",
"o.M M M M M M M M M M M M M M M M < o . . . . X 8 M M M m 0 O @ 7 M M M M M M M M M M M M M M M M M c X . . . . . # 8 M M M m n n M M M x & . . . . . . 9 M M M M M M M M M M M M M M M M M c ; . - x M M M n $ . . . . o 1 M M M M M M M M M M M M M M M M C R ",
"Z M M M M M M M M M M M M M M M M 2 o . . . . + x M M M c < . * j M M M M M M M M M M M M M M M M M b O . . . . . $ 0 M M M n j x M M M v = . . . . . . 8 M M M M M M M M M M M M M M M M M m 2 X + e m M M M : . . . . o 1 M M M M M M M M M M M M M M M M N X.",
"V M M M M M M M M M M M M M M M M 9 X . . . . # n M M M z & . : v M M M M M M M M M M M M M M M M M j o . . . . . & j M M M v 9 e M M M n > o . . . . . 2 M M M M M M M M M M M M M M M M M M 5 @ . 9 n M M M 2 . . . . o 4 M M M M M M M M M M M M M M M M M :.",
"N M M M M M M M M M M M M M M M M j O . . . . & m M M M r # . : b M M M M M M M M M M M M M M M M M 7 . . . . . o : n M M M r , 8 m M M M 7 @ . . . . . * n M M M M M M M M M M M M M M M M m 2 X . 8 n M M M 4 . . . . X 0 M M M M M M M M M M M M M M M M M *.",
"M M M M M M M M M M M M M M M M M n & . . . . & m M M M r # . = z M M M M M M M M M M M M M M M M n ; . . . . . @ 6 M M M m 9 $ 2 b M M M x & . . . . . o r M M M M M M M M M M M M M M M M v : . . 9 n M M M 3 . . . . $ v M M M M M M M M M M M M M M M M M @.",
"M M M M M M M M M M M M M M M M M M 1 o . . . $ n M M M j & . # 8 m M M M M M M M M M M M M M M m w X . . . . . * z m M M b 2 o = r M M M n 2 X . . . . . ; v M M M M M M M M M M M M M M m q $ . X q m M M m > . . . . , m M M M M M M M M M M M M M M M M M o.",
"M M M M M M M M M M M M M M M M M M r O . . . @ c M M M c > . o : x m M M M M M M M M M M M M M z & . . . . . O 5 m M M m r = . O 6 n M M M z * . . . . . . 3 v M M M M M M M M M M M M m z : o . * z M M M n & . . . O e M M M M M M M M M M M M M M M M M M S ",
"M M M M M M M M M M M M M M M M M M m ; . . . X q M M M n 7 O . O 2 c m M M M M M M M M M M m j : . . . . . o : c M M M b 5 O . . ; j m M M m 9 # . . . . . X 2 x m M M M M M M M M M n j , X . X 5 b M M M x @ . . . ; n M M M M M M M M M M M M M M M M M M A ",
"M M M M M M M M M M M M M M M M M M M e @ . . o < m M M M x : . . @ 1 j n M M M M M M M M v q ; . . . . . . & w M M M m e * . . . O 4 v M M M b 3 @ . . . . . o > 0 c m M M M M M m c 0 : O . . : z m M M m 3 o . . # e M M M M M M M M M M M M M M M M M M M Z ",
"M M M M M M M M M M M M M M M M M M M m 2 . . . # r M M M n w & . . X = 6 e c b n n b z 0 1 $ . . . . . . % 0 m M M M c 1 o . . . . $ 0 n M M M v 3 @ . . . . . . # , 7 q r r e q 7 < $ . . . & w n M M M j $ . . o 5 m M M M M M M M M M M M M M M M M M M M Z ",
"M M M M M M M M M M M M M M M M M M M M v ; . . o , b M M M b 8 % . . . O & > 2 3 3 1 : # o . . . . . . * 9 m M M M v 6 @ . . . . . . - r m M M M v 5 $ . . . . . . . O $ * = & $ O . . . o * 0 n M M M b < o . o < b M M M M M M M M M M M M M M M M M M M M Z ",
"M M M M M M M M M M M M M M M M M M M M M j * . . @ 8 m M M M b 9 = o . . . . . o . . . . . . . . . O > w m M M M b 9 $ . . . . . . . o : j m M M M n 9 : X . . . . . . . . . . . . . . @ > w b M M M n 7 @ . o , c M M M M M M M M M M M M M M M M M M M M M Z ",
"M M M M M M M M M M M M M M M M M M M M M m e = . . & q m M M M n r 1 $ o . . . . . . . . . . . X = 6 x m M M M b 9 & . . . . . . . . . X : j m M M M m x 6 ; O . . . . . . . . . . @ ; 7 x m M M M m 9 $ . o < x M M M M M M M M M M M M M M M M M M M M M M Z ",
"M M M M M M M M M M M M M M M M M M M M M M m r : o o * w m M M M m v q 2 * O o . . . . . o # : 7 j n M M M M b 8 & . . . . . . . . . . . o : e n M M M M n z 8 1 = $ @ O O @ $ - 1 8 z n M M M M n 9 & o O 2 c m M M M M M M M M M M M M M M M M M M M M M M A ",
"M M M M M M M M M M M M M M M M M M M M M M M m z 1 o o * 9 n M M M m m v r 9 6 4 1 < 2 4 8 q x n M M M M m v 4 $ . . . . . . . . . . . . . o * 8 b m M M M M m v j w q 9 9 0 w j v n M M M M M c 6 $ o @ 4 v m M M M M M M M M M M M M M M M M M M M M M M M S ",
"M M M M M M M M M M M M M M M M M M M M M M M M m c 4 @ o $ 4 c m M M M M M m n b v c v b n M M M M M M n e : @ . . . . . . . . . . . . . . . . # , j m M M M M M M M M m m m M M M M M M M n e , @ . $ 8 v m M M M M M M M M M M M M M M M M M M M M M M M M o.",
"M M M M M M M M M M M M M M M M M M M M M M M M M m v 7 $ . + ; 9 b M M M M M M M M M M M M M M M M m x 3 % o . . . . . . . . . . . . . . . . . . X & 3 j m M M M M M M M M M M M M M M n r 2 & X . & 9 b M M M M M M M M M M M M M M M M M M M M M M M M M M O.",
"M M M M M M M M M M M M M M M M M M M M M M M M M M m b 0 & . o # ; 7 x m M M M M M M M M M M M b e 1 & O . . . . . . . . . . . . . . . . . . . . . . O $ > 8 z n M M M M M M M m n z 7 > % O . . * q n M M M M M M M M M M M M M M M M M M M M M M M M M M M #.",
"B M M M M M M M M M M M M M M M M M M M M M M M M M M M n e ; . . o @ % : 4 q j c v b v z e 9 1 * # X . . . . . . . . . . . . . . . . . . . . . . . . . . o @ $ * < 2 5 8 8 6 1 > = $ @ o . . . : r n M M M M M M M M M M M M M M M M M M M M M M M M M M M M -.",
"Z M M M M M M M M M M M M M M M M M M M M M M M M M M M M n j : o . . . o X @ # $ $ $ $ # @ O X . . . . . . . . . . . . . . . . . . . . . . . . . . . . . . . . . o X O O O O X o . . . . . o > j m M M M M M M M M M M M M M M M M M M M M M M M M M M M M M 2.",
"S M M M M M M M M M M M M M M M M M M M M M M M M M M M M M m x 2 X . . . . . . . . . . . . . . . . . . . . . . . . . . . . . . . . . . . . . . . . . . . . . . . . . . . . . . . . . . . X 1 x m M M M M M M M M M M M M M M M M M M M M M M M M M M M M M V E ",
"+.M M M M M M M M M M M M M M M M M M M M M M M M M M M M M M m v 4 @ . . . . . . . . . . . . . . . . . . . . . . . . . . . . . . . . . . . . . . . . . . . . . . . . . . . . . . . . . X 3 v m M M M M M M M M M M M M M M M M M M M M M M M M M M M M M M A k ",
"-.M M M M M M M M M M M M M M M M M M M M M M M M M M M M M M M m b 7 # . . . . . . . . . . . . . . . . . . . . . . . . . . . . . . . . . . . . . . . . . . . . . . . . . . . . . . . @ 5 b m M M M M M M M M M M M M M M M M M M M M M M M M M M M M M M M O.i ",
"' B M M M M M M M M M M M M M M M M M M M M M M M M M M M M M M M M m q & . . . . . . . . . . . . . . . . . . . . . . . . . . . . . . . . . . . . . . . . . . . . . . . . . . . . . $ 8 n M M M M M M M M M M M M M M M M M M M M M M M M M M M M M M M M M %.  ",
"D Z M M M M M M M M M M M M M M M M M M M M M M M M M M M M M M M M M M j = . . . . . . . . . . . . . . . . . . . . . . . . . . . . . . . . . . . . . . . . . . . . . . . . . . . $ 0 m M M M M M M M M M M M M M M M M M M M M M M M M M M M M M M M M M N  .  ",
"p O.M M M M M M M M M M M M M M M M M M M M M M M M M M M M M M M M M M M z : X . . . . . . . . . . . . . . . . . . . . . . . . . . . . . . . . . . . . . . . . . . . . . . . o * w m M M M M M M M M M M M M M M M M M M M M M M M M M M M M M M M M M M Z D   ",
"  ] M M M M M M M M M M M M M M M M M M M M M M M M M M M M M M M M M M M M v 1 O . . . . . . . . . . . . . . . . . . . . . . . . . . . . . . . . . . . . . . . . . . . . . o ; j M M M M M M M M M M M M M M M M M M M M M M M M M M M M M M M M M M M M O.p   ",
"  T C M M M M M M M M M M M M M M M M M M M M M M M M M M M M M M M M M M M M b 4 # . . . . . . . . . . . . . . . . . . . . . . . . . . . . . . . . . . . . . . . . . . . X : x M M M M M M M M M M M M M M M M M M M M M M M M M M M M M M M M M M M M M ]     ",
"  s o.M M M M M M M M M M M M M M M M M M M M M M M M M M M M M M M M M M M M M n 7 $ . . . . . . . . . . . . . . . . . . . . . . . . . . . . . . . . . . . . . . . . . O < c M M M M M M M M M M M M M M M M M M M M M M M M M M M M M M M M M M M M M C T     ",
"    ` M M M M M M M M M M M M M M M M M M M M M M M M M M M M M M M M M M M M M M m 0 * o . . . . . . . . . . . . . . . . . . . . . . . . . . . . . . . . . . . . . . @ 2 v M M M M M M M M M M M M M M M M M M M M M M M M M M M M M M M M M M M M M M O.a     ",
"    T C M M M M M M M M M M M M M M M M M M M M M M M M M M M M M M M M M M M M M M M r - X . . . . . . . . . . . . . . . . . . . . . . . . . . . . . . . . . . . . $ 4 n M M M M M M M M M M M M M M M M M M M M M M M M M M M M M M M M M M M M M M N `       ",
"    l O.M M M M M M M M M M M M M M M M M M M M M M M M M M M M M M M M M M M M M M M M z > O . . . . . . . . . . . . . . . . . . . . . . . . . . . . . . . . . . $ 8 n M M M M M M M M M M M M M M M M M M M M M M M M M M M M M M M M M M M M M M M A I       ",
"      _ B M M M M M M M M M M M M M M M M M M M M M M M M M M M M M M M M M M M M M M M M v 2 @ . . . . . . . . . . . . . . . . . . . . . . . . . . . . . . . . * 0 m M M M M M M M M M M M M M M M M M M M M M M M M M M M M M M M M M M M M M M M M K         ",
"      Y S M M M M M M M M M M M M M M M M M M M M M M M M M M M M M M M M M M M M M M M M M n 5 $ . . . . . . . . . . . . . . . . . . . . . . . . . . . . . o = e M M M M M M M M M M M M M M M M M M M M M M M M M M M M M M M M M M M M M M M M M C (         ",
"        L B M M M M M M M M M M M M M M M M M M M M M M M M M M M M M M M M M M M M M M M M M n 9 & . . . . . . . . . . . . . . . . . . . . . . . . . . . o : j M M M M M M M M M M M M M M M M M M M M M M M M M M M M M M M M M M M M M M M M M M O.R         ",
"        T S M M M M M M M M M M M M M M M M M M M M M M M M M M M M M M M M M M M M M M M M M M m w - . . . . . . . . . . . . . . . . . . . . . . . . . X < x M M M M M M M M M M M M M M M M M M M M M M M M M M M M M M M M M M M M M M M M M M C (           ",
"          J B M M M M M M M M M M M M M M M M M M M M M M M M M M M M M M M M M M M M M M M M M M M j : X . . . . . . . . . . . . . . . . . . . . . . + 2 v M M M M M M M M M M M M M M M M M M M M M M M M M M M M M M M M M M M M M M M M M M M F R           ",
"          E S M M M M M M M M M M M M M M M M M M M M M M M M M M M M M M M M M M M M M M M M M M M m x 2 O . . . . . . . . . . . . . . . . . . . . # 5 b M M M M M M M M M M M M M M M M M M M M M M M M M M M M M M M M M M M M M M M M M M M C (             ",
"            H V M M M M M M M M M M M M M M M M M M M M M M M M M M M M M M M M M M M M M M M M M M M m v 5 @ . . . . . . . . . . . . . . . . . . $ 8 b M M M M M M M M M M M M M M M M M M M M M M M M M M M M M M M M M M M M M M M M M M M N G !             ",
"            ~ o.M M M M M M M M M M M M M M M M M M M M M M M M M M M M M M M M M M M M M M M M M M M M m b 7 % . . . . . . . . . . . . . . . . * 0 n M M M M M M M M M M M M M M M M M M M M M M M M M M M M M M M M M M M M M M M M M M M M Z ^               ",
"              ( C M M M M M M M M M M M M M M M M M M M M M M M M M M M M M M M M M M M M M M M M M M M M M b q * . . . . . . . . . . . . . . ; w n M M M M M M M M M M M M M M M M M M M M M M M M M M M M M M M M M M M M M M M M M M M M B J                 ",
"              ~ G B M M M M M M M M M M M M M M M M M M M M M M M M M M M M M M M M M M M M M M M M M M M M M n e : o . . . . . . . . . . . : r n M M M M M M M M M M M M M M M M M M M M M M M M M M M M M M M M M M M M M M M M M M M M M o.}                 ",
"                } S M M M M M M M M M M M M M M M M M M M M M M M M M M M M M M M M M M M M M M M M M M M M M M n j < X . . . . . . . . X < j m M M M M M M M M M M M M M M M M M M M M M M M M M M M M M M M M M M M M M M M M M M M M M Z (                   ",
"                  ( C M M M M M M M M M M M M M M M M M M M M M M M M M M M M M M M M M M M M M M M M M M M M M M m c 4 @ . . . . . . O 2 x m M M M M M M M M M M M M M M M M M M M M M M M M M M M M M M M M M M M M M M M M M M M M M B J                     ",
"                  Q J B M M M M M M M M M M M M M M M M M M M M M M M M M M M M M M M M M M M M M M M M M M M M M M m v 6 # . . . . @ 5 v m M M M M M M M M M M M M M M M M M M M M M M M M M M M M M M M M M M M M M M M M M M M M M N o.t.                    ",
"                    t.F N M M M M M M M M M M M M M M M M M M M M M M M M M M M M M M M M M M M M M M M M M M M M M M m b 9 & . . $ 7 b m M M M M M M M M M M M M M M M M M M M M M M M M M M M M M M M M M M M M M M M M M M M M M M A {                       ",
"                      p.A M M M M M M M M M M M M M M M M M M M M M M M M M M M M M M M M M M M M M M M M M M M M M M M M n w = & 9 b m M M M M M M M M M M M M M M M M M M M M M M M M M M M M M M M M M M M M M M M M M M M M M M C )                         ",
"                        { Z M M M M M M M M M M M M M M M M M M M M M M M M M M M M M M M M M M M M M M M M M M M M M M M M m v c n M M M M M M M M M M M M M M M M M M M M M M M M M M M M M M M M M M M M M M M M M M M M M M M V _                           ",
"                          | V M M M M M M M M M M M M M M M M M M M M M M M M M M M M M M M M M M M M M M M M M M M M M M M M M M M M M M M M M M M M M M M M M M M M M M M M M M M M M M M M M M M M M M M M M M M M M M M M M B K r.                          ",
"                          6.] B M M M M M M M M M M M M M M M M M M M M M M M M M M M M M M M M M M M M M M M M M M M M M M M M M M M M M M M M M M M M M M M M M M M M M M M M M M M M M M M M M M M M M M M M M M M M M M M N G m.                            ",
"                            6.` B M M M M M M M M M M M M M M M M M M M M M M M M M M M M M M M M M M M M M M M M M M M M M M M M M M M M M M M M M M M M M M M M M M M M M M M M M M M M M M M M M M M M M M M M M M M M M N O.n.                              ",
"                              r.` B M M M M M M M M M M M M M M M M M M M M M M M M M M M M M M M M M M M M M M M M M M M M M M M M M M M M M M M M M M M M M M M M M M M M M M M M M M M M M M M M M M M M M M M M M M M N O.n.                                ",
"                                w.` B M M M M M M M M M M M M M M M M M M M M M M M M M M M M M M M M M M M M M M M M M M M M M M M M M M M M M M M M M M M M M M M M M M M M M M M M M M M M M M M M M M M M M M M M M N O.M.                                  ",
"                                  h ] V M M M M M M M M M M M M M M M M M M M M M M M M M M M M M M M M M M M M M M M M M M M M M M M M M M M M M M M M M M M M M M M M M M M M M M M M M M M M M M M M M M M M M M M B K l.                                    ",
"                                    6.| C M M M M M M M M M M M M M M M M M M M M M M M M M M M M M M M M M M M M M M M M M M M M M M M M M M M M M M M M M M M M M M M M M M M M M M M M M M M M M M M M M M M M M B P m.                                      ",
"                                        z.A N M M M M M M M M M M M M M M M M M M M M M M M M M M M M M M M M M M M M M M M M M M M M M M M M M M M M M M M M M M M M M M M M M M M M M M M M M M M M M M M M M M C ] r.                                        ",
"                                          b.F B M M M M M M M M M M M M M M M M M M M M M M M M M M M M M M M M M M M M M M M M M M M M M M M M M M M M M M M M M M M M M M M M M M M M M M M M M M M M M M M N A ..                                            ",
"                                            l.L C M M M M M M M M M M M M M M M M M M M M M M M M M M M M M M M M M M M M M M M M M M M M M M M M M M M M M M M M M M M M M M M M M M M M M M M M M M M M M V G f.                                              ",
"                                                ) S B M M M M M M M M M M M M M M M M M M M M M M M M M M M M M M M M M M M M M M M M M M M M M M M M M M M M M M M M M M M M M M M M M M M M M M M M M N Z L d.                                                ",
"                                                  a.K C M M M M M M M M M M M M M M M M M M M M M M M M M M M M M M M M M M M M M M M M M M M M M M M M M M M M M M M M M M M M M M M M M M M M M M M V F {                                                     ",
"                                                    8.( o.V M M M M M M M M M M M M M M M M M M M M M M M M M M M M M M M M M M M M M M M M M M M M M M M M M M M M M M M M M M M M M M M M M M M B S H t.                                                      ",
"                                                        } H S B M M M M M M M M M M M M M M M M M M M M M M M M M M M M M M M M M M M M M M M M M M M M M M M M M M M M M M M M M M M M M M M N Z K {                                                           ",
"                                                            E J A N M M M M M M M M M M M M M M M M M M M M M M M M M M M M M M M M M M M M M M M M M M M M M M M M M M M M M M M M M M M N Z G T                                                               ",
"                                                                E K A B M M M M M M M M M M M M M M M M M M M M M M M M M M M M M M M M M M M M M M M M M M M M M M M M M M M M M M M N Z K ^ ~                                                                 ",
"                                                                    T L S B M M M M M M M M M M M M M M M M M M M M M M M M M M M M M M M M M M M M M M M M M M M M M M M M M M M N A K T ~                                                                     ",
"                                                                        Y _ O.C N M M M M M M M M M M M M M M M M M M M M M M M M M M M M M M M M M M M M M M M M M M M M M M V o.P T                                                                           ",
"                                                                            U T ` o.C M M M M M M M M M M M M M M M M M M M M M M M M M M M M M M M M M M M M M M M M M V S P ( I                                                                               ",
"                                                                                  f T ] O.Z N M M M M M M M M M M M M M M M M M M M M M M M M M M M M M M M M M M C o.*.) s                                                                                     ",
"                                                                                        p I | %.O.Z B M M M M M M M M M M M M M M M M M M M M M M M M M N C o.#. .Y a                                                                                           ",
"                                                                                                u I | >.%.+.S Z V B N M M M M M M M M M M B V Z S O.#.<.X.R p                                                                                                   ",
"                                                                                                            i l ! ..N.N.2.1.<.<.<.1.2.N.N...~ U p y                                                                                                             ",
"                                                                                                                                                                                                                                                                ",
"                                                                                                                                                                                                                                                                ",
"                                                                                                                                                                                                                                                                ",
"                                                                                                                                                                                                                                                                "
};
